;FLAVOR:Marlin
;TIME:3537
;Filament used: 2.52726m
;Layer height: 0.2
;MINX:66.068
;MINY:80.036
;MINZ:0.2
;MAXX:130.915
;MAXY:141.102
;MAXZ:16
;Generated with Cura_SteamEngine 4.11.0
M140 S60
M105
M190 S60
M104 S200
M105
M109 S200
M82 ;absolute extrusion mode
; Ender 3 Custom Start G-code
G92 E0 ; Reset Extruder
M92 E97;
G28 ; Home all axes
G1 Z2.0 F3000 ; Move Z Axis up little to prevent scratching of Heat Bed
G1 X0.1 Y20 Z0.3 F5000.0 ; Move to start position
G1 X0.1 Y200.0 Z0.3 F1500.0 E15 ; Draw the first line
G1 X0.4 Y200.0 Z0.3 F5000.0 ; Move to side a little
G1 X0.4 Y20 Z0.3 F1500.0 E30 ; Draw the second line
G92 E0 ; Reset Extruder
G1 Z2.0 F3000 ; Move Z Axis up little to prevent scratching of Heat Bed
G1 X5 Y20 Z0.3 F5000.0 ; Move over to prevent blob squish
G92 E0
G92 E0
G1 F1500 E-6.5
;LAYER_COUNT:80
;LAYER:0
M107
G0 F6000 X71.955 Y82.696 Z0.2
;TYPE:SKIRT
G1 F1500 E0
G1 F1200 X72.695 Y82.121 E0.04146
G1 X73.482 Y81.611 E0.08294
G1 X74.31 Y81.169 E0.12446
G1 X75.172 Y80.8 E0.16594
G1 X76.062 Y80.506 E0.2074
G1 X76.975 Y80.288 E0.24892
G1 X77.902 Y80.149 E0.29039
G1 X78.759 Y80.091 E0.32838
G1 X79.079 Y80.082 E0.34255
G1 X79.388 Y80.078 E0.35622
G1 X96.507 Y80.079 E1.11349
G1 X97.212 Y80.089 E1.14468
G1 X97.522 Y80.098 E1.1584
G1 X98.724 Y80.15 E1.21162
G1 X98.825 Y80.156 E1.2161
G1 X101.347 Y80.235 E1.32772
G1 X103.871 Y80.243 E1.43937
G1 X106.375 Y80.179 E1.55017
G1 X106.987 Y80.146 E1.57728
G1 X109.524 Y80.036 E1.68961
G1 X110.491 Y80.037 E1.73239
G1 X111.341 Y80.075 E1.77003
G1 X112.269 Y80.156 E1.81124
G1 X113.13 Y80.268 E1.84964
G1 X114.095 Y80.437 E1.89298
G1 X114.951 Y80.627 E1.93177
G1 X115.874 Y80.875 E1.97405
G1 X116.813 Y81.171 E2.0176
G1 X117.629 Y81.464 E2.05595
G1 X118.047 Y81.633 E2.0759
G1 X118.496 Y81.826 E2.09752
G1 X118.682 Y81.911 E2.10656
G1 X119.173 Y82.151 E2.13074
G1 X120.091 Y82.627 E2.17648
G1 X120.81 Y83.034 E2.21303
G1 X121.213 Y83.283 E2.23398
G1 X121.656 Y83.572 E2.25738
G1 X122.01 Y83.815 E2.27638
G1 X122.405 Y84.099 E2.2979
G1 X122.754 Y84.362 E2.31723
G1 X123.105 Y84.638 E2.33698
G1 X123.437 Y84.91 E2.35597
G1 X123.83 Y85.247 E2.37887
G1 X124.012 Y85.411 E2.3897
G1 X124.409 Y85.788 E2.41392
G1 X125.092 Y86.468 E2.45656
G1 X125.363 Y86.747 E2.47376
G1 X125.743 Y87.169 E2.49888
G1 X126.023 Y87.496 E2.51793
G1 X126.335 Y87.877 E2.53971
G1 X126.614 Y88.234 E2.55975
G1 X126.879 Y88.587 E2.57928
G1 X127.109 Y88.907 E2.59671
G1 X127.383 Y89.307 E2.61816
G1 X127.64 Y89.7 E2.63893
G1 X127.906 Y90.127 E2.66119
G1 X128.105 Y90.464 E2.6785
G1 X128.339 Y90.881 E2.69965
G1 X128.555 Y91.286 E2.71995
G1 X128.748 Y91.665 E2.73877
G1 X128.842 Y91.859 E2.7483
G1 X129.094 Y92.417 E2.77539
G1 X129.479 Y93.339 E2.81959
G1 X129.631 Y93.723 E2.83786
G1 X129.814 Y94.237 E2.86199
G1 X129.934 Y94.603 E2.87903
G1 X130.071 Y95.053 E2.89984
G1 X130.193 Y95.487 E2.91978
G1 X130.315 Y95.964 E2.94156
G1 X130.417 Y96.401 E2.96141
G1 X130.513 Y96.856 E2.98198
G1 X130.594 Y97.284 E3.00125
G1 X130.673 Y97.757 E3.02246
G1 X130.726 Y98.124 E3.03887
G1 X130.783 Y98.583 E3.05933
G1 X130.813 Y98.878 E3.07244
G1 X130.856 Y99.455 E3.09804
G1 X130.903 Y100.418 E3.14069
G1 X130.915 Y100.831 E3.15897
G1 X130.912 Y101.349 E3.18188
G1 X130.898 Y101.809 E3.20224
G1 X130.872 Y102.302 E3.22408
G1 X130.856 Y102.514 E3.23348
G1 X130.801 Y103.059 E3.25771
G1 X130.709 Y103.789 E3.29026
G1 X130.421 Y106.365 E3.40492
G1 X130.211 Y108.895 E3.51723
G1 X130.077 Y111.335 E3.62532
G1 X130 Y115.123 E3.79292
G1 X129.999 Y128.401 E4.38029
G1 X129.989 Y129.128 E4.41245
G1 X129.936 Y130.065 E4.45397
G1 X129.804 Y130.993 E4.49543
G1 X129.593 Y131.907 E4.53693
G1 X129.304 Y132.799 E4.5784
G1 X128.941 Y133.664 E4.6199
G1 X128.506 Y134.495 E4.66139
G1 X128.001 Y135.285 E4.70287
G1 X127.431 Y136.03 E4.74437
G1 X126.8 Y136.724 E4.78586
G1 X126.111 Y137.361 E4.82737
G1 X125.371 Y137.937 E4.86885
G1 X124.585 Y138.448 E4.91032
G1 X123.758 Y138.89 E4.9518
G1 X122.896 Y139.26 E4.9933
G1 X122.006 Y139.555 E5.03477
G1 X121.094 Y139.774 E5.07626
G1 X120.167 Y139.914 E5.11773
G1 X119.299 Y139.973 E5.15622
G1 X118.979 Y139.982 E5.17038
G1 X118.67 Y139.986 E5.18405
G1 X103.884 Y139.986 E5.83812
G1 X101.276 Y140.023 E5.9535
G1 X98.755 Y140.13 E6.06512
G1 X96.26 Y140.307 E6.17577
G1 X93.784 Y140.552 E6.28583
G1 X91.284 Y140.886 E6.3974
G1 X90.377 Y140.993 E6.4378
G1 X89.903 Y141.038 E6.45887
G1 X89.614 Y141.059 E6.47168
G1 X89.049 Y141.086 E6.49671
G1 X88.29 Y141.102 E6.53029
G1 X87.835 Y141.102 E6.55042
G1 X87.047 Y141.086 E6.58528
G1 X86.547 Y141.064 E6.60742
G1 X86.101 Y141.029 E6.62721
G1 X85.793 Y140.998 E6.6409
G1 X85.234 Y140.927 E6.66583
G1 X84.226 Y140.773 E6.71094
G1 X83.798 Y140.7 E6.73014
G1 X83.206 Y140.575 E6.75691
G1 X82.972 Y140.519 E6.76755
G1 X82.488 Y140.391 E6.7897
G1 X81.495 Y140.105 E6.83541
G1 X80.579 Y139.797 E6.87816
G1 X79.685 Y139.452 E6.92055
G1 X79.277 Y139.285 E6.94005
G1 X79.173 Y139.24 E6.94506
G1 X78.819 Y139.08 E6.96225
G1 X78.354 Y138.859 E6.98502
G1 X77.873 Y138.616 E7.00886
G1 X77.642 Y138.492 E7.02046
G1 X77.192 Y138.236 E7.04336
G1 X76.359 Y137.737 E7.08632
G1 X75.557 Y137.208 E7.12882
G1 X74.729 Y136.608 E7.17405
G1 X74.341 Y136.314 E7.19558
G1 X73.977 Y136.017 E7.21637
G1 X73.619 Y135.712 E7.23717
G1 X73.271 Y135.402 E7.25779
G1 X72.924 Y135.08 E7.27873
G1 X72.573 Y134.739 E7.30037
G1 X72.225 Y134.386 E7.3223
G1 X71.906 Y134.049 E7.34283
G1 X71.723 Y133.847 E7.35489
G1 X71.351 Y133.415 E7.38011
G1 X70.696 Y132.612 E7.42595
G1 X70.42 Y132.259 E7.44577
G1 X70.354 Y132.171 E7.45063
G1 X70.118 Y131.845 E7.46844
G1 X69.959 Y131.616 E7.48077
G1 X69.643 Y131.134 E7.50626
G1 X69.098 Y130.254 E7.55205
G1 X68.887 Y129.898 E7.57036
G1 X68.833 Y129.803 E7.57519
G1 X68.627 Y129.424 E7.59427
G1 X68.495 Y129.169 E7.60698
G1 X68.24 Y128.641 E7.63291
G1 X67.837 Y127.749 E7.67621
G1 X67.486 Y126.876 E7.71784
G1 X67.171 Y125.982 E7.75977
G1 X66.895 Y125.077 E7.80162
G1 X66.653 Y124.14 E7.84443
G1 X66.454 Y123.199 E7.88698
G1 X66.3 Y122.276 E7.92837
G1 X66.184 Y121.328 E7.97062
G1 X66.109 Y120.374 E8.01295
G1 X66.087 Y120.035 E8.02798
G1 X66.08 Y119.888 E8.03449
G1 X66.068 Y119.365 E8.05763
G1 X66.068 Y119.092 E8.0697
G1 X66.082 Y118.534 E8.0944
G1 X66.133 Y117.53 E8.13887
G1 X66.222 Y116.583 E8.18094
G1 X66.358 Y115.598 E8.22493
G1 X66.418 Y115.217 E8.24199
G1 X66.663 Y113.813 E8.30504
G1 X66.822 Y112.94 E8.34429
G1 X67.211 Y110.405 E8.45774
G1 X67.519 Y107.933 E8.56794
G1 X67.759 Y105.44 E8.67873
G1 X67.93 Y102.925 E8.79024
G1 X68.03 Y100.366 E8.90352
G1 X68.058 Y98.112 E9.00324
G1 X68.059 Y91.603 E9.29117
G1 X68.069 Y90.925 E9.32117
G1 X68.123 Y89.988 E9.36268
G1 X68.256 Y89.06 E9.40415
G1 X68.468 Y88.147 E9.44562
G1 X68.757 Y87.254 E9.48714
G1 X69.121 Y86.39 E9.52861
G1 X69.558 Y85.56 E9.5701
G1 X70.063 Y84.77 E9.61158
G1 X70.634 Y84.026 E9.65307
G1 X71.266 Y83.333 E9.69456
G1 X71.955 Y82.696 E9.73607
G0 F6000 X72.343 Y82.893
G1 F1200 X73.08 Y82.341 E9.7768
G1 X73.861 Y81.854 E9.81751
G1 X74.682 Y81.437 E9.85825
G1 X75.536 Y81.093 E9.89897
G1 X76.416 Y80.824 E9.93968
G1 X77.317 Y80.633 E9.98042
G1 X78.231 Y80.52 E10.02116
G1 X78.77 Y80.491 E10.04504
G1 X79.09 Y80.482 E10.0592
G1 X79.388 Y80.478 E10.07238
G1 X96.501 Y80.479 E10.82939
G1 X97.206 Y80.489 E10.86058
G1 X97.505 Y80.498 E10.87382
G1 X98.7 Y80.55 E10.92673
G1 X98.788 Y80.555 E10.93063
G1 X101.334 Y80.634 E11.04331
G1 X103.845 Y80.642 E11.15438
G1 X106.406 Y80.577 E11.26771
G1 X107.004 Y80.546 E11.2942
G1 X109.541 Y80.436 E11.40653
G1 X110.473 Y80.437 E11.44776
G1 X111.323 Y80.475 E11.48539
G1 X112.217 Y80.553 E11.52509
G1 X113.078 Y80.665 E11.5635
G1 X114.008 Y80.828 E11.60527
G1 X114.864 Y81.018 E11.64405
G1 X115.754 Y81.256 E11.68481
G1 X116.693 Y81.552 E11.72836
G1 X117.479 Y81.835 E11.76531
G1 X117.897 Y82.004 E11.78526
G1 X118.33 Y82.19 E11.80611
G1 X118.516 Y82.275 E11.81515
G1 X118.989 Y82.506 E11.83844
G1 X119.907 Y82.982 E11.88418
G1 X120.6 Y83.374 E11.9194
G1 X121.003 Y83.623 E11.94036
G1 X121.43 Y83.902 E11.96292
G1 X121.784 Y84.145 E11.98191
G1 X122.164 Y84.419 E12.00264
G1 X122.513 Y84.682 E12.02197
G1 X122.852 Y84.947 E12.041
G1 X123.184 Y85.219 E12.05999
G1 X123.562 Y85.544 E12.08204
G1 X123.744 Y85.708 E12.09288
G1 X124.127 Y86.071 E12.11622
G1 X124.81 Y86.751 E12.15885
G1 X125.073 Y87.022 E12.17556
G1 X125.44 Y87.429 E12.1998
G1 X125.72 Y87.756 E12.21885
G1 X126.02 Y88.123 E12.23981
G1 X126.299 Y88.48 E12.25986
G1 X126.554 Y88.82 E12.27866
G1 X126.784 Y89.14 E12.29609
G1 X127.048 Y89.526 E12.31678
G1 X127.305 Y89.919 E12.33755
G1 X127.561 Y90.33 E12.35897
G1 X127.76 Y90.667 E12.37628
G1 X127.986 Y91.069 E12.39668
G1 X128.202 Y91.474 E12.41699
G1 X128.388 Y91.84 E12.43515
G1 X128.482 Y92.034 E12.44468
G1 X128.724 Y92.572 E12.47078
G1 X129.109 Y93.494 E12.51498
G1 X129.257 Y93.867 E12.53273
G1 X129.433 Y94.362 E12.55597
G1 X129.553 Y94.728 E12.57301
G1 X129.685 Y95.161 E12.59303
G1 X129.807 Y95.595 E12.61297
G1 X129.926 Y96.055 E12.63399
G1 X130.028 Y96.492 E12.65384
G1 X130.12 Y96.93 E12.67364
G1 X130.201 Y97.358 E12.69291
G1 X130.277 Y97.814 E12.71336
G1 X130.33 Y98.181 E12.72976
G1 X130.385 Y98.624 E12.74951
G1 X130.415 Y98.919 E12.76263
G1 X130.456 Y99.474 E12.78724
G1 X130.503 Y100.437 E12.82989
G1 X130.516 Y100.837 E12.8476
G1 X130.512 Y101.336 E12.86967
G1 X130.498 Y101.796 E12.89003
G1 X130.473 Y102.272 E12.91112
G1 X130.457 Y102.484 E12.92052
G1 X130.404 Y103.009 E12.94386
G1 X130.309 Y103.763 E12.97748
G1 X130.023 Y106.321 E13.09134
G1 X129.813 Y108.841 E13.2032
G1 X129.676 Y111.334 E13.31365
G1 X129.6 Y115.115 E13.48094
G1 X129.599 Y128.396 E14.06844
G1 X129.589 Y129.123 E14.1006
G1 X129.536 Y130.042 E14.14132
G1 X129.404 Y130.953 E14.18204
G1 X129.193 Y131.849 E14.22276
G1 X128.906 Y132.724 E14.26349
G1 X128.543 Y133.57 E14.30422
G1 X128.109 Y134.382 E14.34495
G1 X127.605 Y135.153 E14.38569
G1 X127.037 Y135.877 E14.4264
G1 X126.408 Y136.549 E14.46712
G1 X125.723 Y137.164 E14.50784
G1 X124.987 Y137.717 E14.54856
G1 X124.206 Y138.205 E14.5893
G1 X123.386 Y138.623 E14.63002
G1 X122.532 Y138.968 E14.67076
G1 X121.652 Y139.237 E14.71146
G1 X120.751 Y139.43 E14.75223
G1 X119.838 Y139.543 E14.79292
G1 X119.288 Y139.573 E14.81729
G1 X118.968 Y139.582 E14.83145
G1 X118.67 Y139.586 E14.84463
G1 X103.878 Y139.586 E15.49897
G1 X101.253 Y139.623 E15.6151
G1 X98.745 Y139.73 E15.72615
G1 X96.225 Y139.908 E15.8379
G1 X93.751 Y140.153 E15.94787
G1 X91.231 Y140.49 E16.06034
G1 X90.331 Y140.596 E16.10043
G1 X89.874 Y140.639 E16.12073
G1 X89.585 Y140.66 E16.13355
G1 X89.04 Y140.686 E16.15769
G1 X88.281 Y140.702 E16.19127
G1 X87.843 Y140.702 E16.21065
G1 X87.055 Y140.686 E16.24551
G1 X86.571 Y140.665 E16.26694
G1 X86.141 Y140.631 E16.28602
G1 X85.833 Y140.6 E16.29971
G1 X85.294 Y140.531 E16.32375
G1 X84.286 Y140.377 E16.36886
G1 X83.87 Y140.306 E16.38753
G1 X83.299 Y140.186 E16.41334
G1 X83.065 Y140.13 E16.42398
G1 X82.598 Y140.007 E16.44534
G1 X81.605 Y139.721 E16.49106
G1 X80.723 Y139.424 E16.53223
G1 X79.829 Y139.079 E16.57462
G1 X79.436 Y138.918 E16.5934
G1 X78.991 Y138.719 E16.61497
G1 X78.526 Y138.498 E16.63774
G1 X78.063 Y138.263 E16.66071
G1 X77.832 Y138.139 E16.67231
G1 X77.398 Y137.893 E16.69437
G1 X76.565 Y137.394 E16.73733
G1 X75.792 Y136.884 E16.7783
G1 X74.964 Y136.284 E16.82353
G1 X74.66 Y136.056 E16.84034
G1 X74.587 Y135.999 E16.84443
G1 X74.237 Y135.713 E16.86443
G1 X73.879 Y135.408 E16.88523
G1 X73.543 Y135.109 E16.90513
G1 X73.196 Y134.787 E16.92607
G1 X72.857 Y134.459 E16.94694
G1 X72.509 Y134.106 E16.96886
G1 X72.202 Y133.781 E16.98864
G1 X72.019 Y133.579 E17.0007
G1 X71.661 Y133.162 E17.02501
G1 X71.006 Y132.359 E17.07085
G1 X70.74 Y132.019 E17.08995
G1 X70.674 Y131.931 E17.09481
G1 X70.447 Y131.616 E17.11199
G1 X70.288 Y131.387 E17.12432
G1 X69.983 Y130.923 E17.14888
G1 X69.438 Y130.043 E17.19467
G1 X69.235 Y129.7 E17.2123
G1 X69.181 Y129.605 E17.21714
G1 X68.982 Y129.24 E17.23553
G1 X68.85 Y128.985 E17.24823
G1 X68.604 Y128.476 E17.27324
G1 X68.201 Y127.584 E17.31653
G1 X67.863 Y126.743 E17.35663
G1 X67.548 Y125.849 E17.39856
G1 X67.283 Y124.977 E17.43888
G1 X67.041 Y124.04 E17.48168
G1 X66.849 Y123.133 E17.5227
G1 X66.695 Y122.21 E17.56409
G1 X66.583 Y121.297 E17.60478
G1 X66.508 Y120.343 E17.64711
G1 X66.487 Y120.016 E17.66161
G1 X66.48 Y119.869 E17.66812
G1 X66.468 Y119.365 E17.69042
G1 X66.468 Y119.092 E17.70249
G1 X66.482 Y118.554 E17.7263
G1 X66.533 Y117.55 E17.77077
G1 X66.619 Y116.638 E17.81129
G1 X66.755 Y115.653 E17.85528
G1 X66.812 Y115.286 E17.87171
G1 X67.056 Y113.885 E17.93462
G1 X67.223 Y112.972 E17.97567
G1 X67.6 Y110.513 E18.08572
G1 X67.92 Y107.945 E18.2002
G1 X68.158 Y105.473 E18.31005
G1 X68.33 Y102.932 E18.42272
G1 X68.43 Y100.387 E18.53538
G1 X68.458 Y98.117 E18.63581
G1 X68.459 Y91.609 E18.92369
G1 X68.469 Y90.931 E18.95369
G1 X68.523 Y90.012 E18.99441
G1 X68.656 Y89.101 E19.03514
G1 X68.867 Y88.205 E19.07586
G1 X69.156 Y87.33 E19.11662
G1 X69.519 Y86.484 E19.15734
G1 X69.955 Y85.673 E19.19808
G1 X70.459 Y84.903 E19.23878
G1 X71.028 Y84.179 E19.27952
G1 X71.658 Y83.508 E19.32023
G1 X72.343 Y82.893 E19.36096
G0 F6000 X72.731 Y83.094
G1 F1200 X73.463 Y82.565 E19.40091
G1 X74.239 Y82.103 E19.44086
G1 X75.052 Y81.711 E19.48078
G1 X75.897 Y81.392 E19.52074
G1 X76.767 Y81.15 E19.56068
G1 X77.655 Y80.985 E19.60064
G1 X78.781 Y80.891 E19.65062
G1 X79.101 Y80.882 E19.66478
G1 X79.388 Y80.878 E19.67748
G1 X96.496 Y80.879 E20.43427
G1 X97.201 Y80.889 E20.46546
G1 X97.488 Y80.897 E20.47816
G1 X98.676 Y80.949 E20.53076
G1 X98.787 Y80.956 E20.53568
G1 X101.32 Y81.034 E20.64778
G1 X103.853 Y81.043 E20.75983
G1 X106.401 Y80.978 E20.87258
G1 X107.021 Y80.946 E20.90005
G1 X109.558 Y80.836 E21.01238
G1 X110.456 Y80.836 E21.0521
G1 X111.306 Y80.874 E21.08974
G1 X112.166 Y80.949 E21.12793
G1 X113.027 Y81.061 E21.16634
G1 X113.921 Y81.218 E21.20649
G1 X114.777 Y81.408 E21.24528
G1 X115.634 Y81.638 E21.28453
G1 X116.573 Y81.934 E21.32808
G1 X117.329 Y82.206 E21.36362
G1 X117.747 Y82.375 E21.38357
G1 X118.164 Y82.554 E21.40364
G1 X118.35 Y82.639 E21.41269
G1 X118.805 Y82.861 E21.43508
G1 X119.723 Y83.337 E21.48083
G1 X120.389 Y83.715 E21.5147
G1 X120.792 Y83.964 E21.53566
G1 X121.204 Y84.232 E21.5574
G1 X121.558 Y84.475 E21.57639
G1 X121.924 Y84.738 E21.59633
G1 X122.273 Y85.001 E21.61566
G1 X122.598 Y85.257 E21.63396
G1 X122.93 Y85.529 E21.65295
G1 X123.294 Y85.842 E21.67418
G1 X123.476 Y86.006 E21.68502
G1 X123.845 Y86.355 E21.70749
G1 X124.528 Y87.035 E21.75012
G1 X124.783 Y87.298 E21.76633
G1 X125.136 Y87.689 E21.78963
G1 X125.416 Y88.016 E21.80867
G1 X125.705 Y88.369 E21.82885
G1 X125.984 Y88.726 E21.8489
G1 X126.23 Y89.054 E21.86703
G1 X126.46 Y89.374 E21.88447
G1 X126.714 Y89.744 E21.90432
G1 X126.971 Y90.137 E21.92509
G1 X127.217 Y90.534 E21.94575
G1 X127.416 Y90.871 E21.96306
G1 X127.633 Y91.257 E21.98265
G1 X127.849 Y91.662 E22.00296
G1 X128.028 Y92.014 E22.02042
G1 X128.122 Y92.208 E22.02996
G1 X128.355 Y92.726 E22.05509
G1 X128.74 Y93.648 E22.09929
G1 X128.884 Y94.01 E22.11652
G1 X129.053 Y94.486 E22.13886
G1 X129.173 Y94.852 E22.1559
G1 X129.3 Y95.27 E22.17523
G1 X129.422 Y95.704 E22.19517
G1 X129.536 Y96.146 E22.21536
G1 X129.638 Y96.583 E22.23521
G1 X129.727 Y97.004 E22.25425
G1 X129.808 Y97.432 E22.27352
G1 X129.881 Y97.871 E22.2932
G1 X129.934 Y98.238 E22.30961
G1 X129.987 Y98.664 E22.3286
G1 X130.017 Y98.959 E22.34171
G1 X130.057 Y99.494 E22.36544
G1 X130.104 Y100.457 E22.40809
G1 X130.116 Y100.844 E22.42522
G1 X130.112 Y101.324 E22.44646
G1 X130.098 Y101.784 E22.46681
G1 X130.074 Y102.242 E22.4871
G1 X130.058 Y102.454 E22.49651
G1 X130.007 Y102.959 E22.51896
G1 X129.917 Y103.673 E22.55079
G1 X129.626 Y106.282 E22.66692
G1 X129.414 Y108.819 E22.77954
G1 X129.276 Y111.333 E22.89092
G1 X129.2 Y115.107 E23.0579
G1 X129.199 Y128.39 E23.64548
G1 X129.189 Y129.117 E23.67765
G1 X129.137 Y130.019 E23.71761
G1 X129.005 Y130.912 E23.75754
G1 X128.794 Y131.791 E23.79753
G1 X128.507 Y132.647 E23.83747
G1 X128.145 Y133.474 E23.8774
G1 X127.711 Y134.266 E23.91735
G1 X127.209 Y135.017 E23.95731
G1 X126.643 Y135.72 E23.99724
G1 X126.016 Y136.371 E24.03722
G1 X125.335 Y136.963 E24.07714
G1 X124.604 Y137.493 E24.11708
