;FLAVOR:Marlin
;TIME:1213
;Filament used: 0.872276m
;Layer height: 0.2
;MINX:89.085
;MINY:80.037
;MINZ:0.2
;MAXX:130.915
;MAXY:139.986
;MAXZ:11.4
;Generated with Cura_SteamEngine 4.11.0
M140 S60
M105
M190 S60
M104 S200
M105
M109 S200
M82 ;absolute extrusion mode
; Ender 3 Custom Start G-code
G92 E0 ; Reset Extruder
M92 E97;
G28 ; Home all axes
G1 Z2.0 F3000 ; Move Z Axis up little to prevent scratching of Heat Bed
G1 X0.1 Y20 Z0.3 F5000.0 ; Move to start position
G1 X0.1 Y200.0 Z0.3 F1500.0 E15 ; Draw the first line
G1 X0.4 Y200.0 Z0.3 F5000.0 ; Move to side a little
G1 X0.4 Y20 Z0.3 F1500.0 E30 ; Draw the second line
G92 E0 ; Reset Extruder
G1 Z2.0 F3000 ; Move Z Axis up little to prevent scratching of Heat Bed
G1 X5 Y20 Z0.3 F5000.0 ; Move over to prevent blob squish
G92 E0
G92 E0
G1 F1500 E-6.5
;LAYER_COUNT:58
;LAYER:0
M107
G0 F6000 X94.538 Y86.855 Z0.2
;TYPE:SKIRT
G1 F1500 E0
G1 F1200 X94.921 Y86.454 E0.02453
G1 X95.658 Y85.722 E0.07048
G1 X96.305 Y85.13 E0.10927
G1 X96.656 Y84.833 E0.12961
G1 X97.027 Y84.532 E0.15075
G1 X97.368 Y84.268 E0.16982
G1 X97.734 Y83.997 E0.18997
G1 X98.072 Y83.757 E0.20831
G1 X98.478 Y83.482 E0.23
G1 X98.83 Y83.255 E0.24853
G1 X99.261 Y82.991 E0.27088
G1 X99.469 Y82.87 E0.28153
G1 X99.916 Y82.623 E0.30412
G1 X100.814 Y82.155 E0.34892
G1 X101.331 Y81.903 E0.37436
G1 X101.71 Y81.736 E0.39268
G1 X102.088 Y81.578 E0.4108
G1 X102.491 Y81.419 E0.42997
G1 X102.738 Y81.327 E0.44163
G1 X103.279 Y81.141 E0.46693
G1 X104.135 Y80.872 E0.50662
G1 X105.049 Y80.627 E0.54848
G1 X105.905 Y80.437 E0.58727
G1 X106.87 Y80.268 E0.63061
G1 X107.731 Y80.156 E0.66902
G1 X108.659 Y80.075 E0.71022
G1 X109.509 Y80.037 E0.74786
G1 X110.491 Y80.037 E0.7913
G1 X111.341 Y80.075 E0.82894
G1 X112.269 Y80.156 E0.87015
G1 X113.13 Y80.268 E0.90855
G1 X114.095 Y80.437 E0.95189
G1 X114.951 Y80.627 E0.99068
G1 X115.874 Y80.875 E1.03296
G1 X116.813 Y81.171 E1.07651
G1 X117.629 Y81.464 E1.11486
G1 X118.047 Y81.633 E1.13481
G1 X118.496 Y81.826 E1.15643
G1 X118.682 Y81.911 E1.16547
G1 X119.173 Y82.15 E1.18963
G1 X120.095 Y82.628 E1.23557
G1 X120.814 Y83.036 E1.27214
G1 X121.204 Y83.277 E1.29242
G1 X121.644 Y83.564 E1.31566
G1 X122.007 Y83.813 E1.33513
G1 X122.405 Y84.099 E1.35681
G1 X122.754 Y84.362 E1.37614
G1 X123.105 Y84.638 E1.39589
G1 X123.437 Y84.91 E1.41488
G1 X123.83 Y85.247 E1.43778
G1 X124.012 Y85.411 E1.44862
G1 X124.409 Y85.788 E1.47284
G1 X125.092 Y86.468 E1.51547
G1 X125.363 Y86.747 E1.53268
G1 X125.743 Y87.169 E1.5578
G1 X126.023 Y87.496 E1.57684
G1 X126.335 Y87.877 E1.59862
G1 X126.614 Y88.234 E1.61867
G1 X126.879 Y88.587 E1.63819
G1 X127.109 Y88.907 E1.65563
G1 X127.383 Y89.307 E1.67707
G1 X127.64 Y89.7 E1.69785
G1 X127.906 Y90.127 E1.7201
G1 X128.105 Y90.464 E1.73741
G1 X128.339 Y90.881 E1.75856
G1 X128.555 Y91.286 E1.77887
G1 X128.748 Y91.665 E1.79768
G1 X128.842 Y91.859 E1.80722
G1 X129.094 Y92.417 E1.8343
G1 X129.479 Y93.339 E1.8785
G1 X129.631 Y93.723 E1.89677
G1 X129.814 Y94.237 E1.92091
G1 X129.934 Y94.603 E1.93794
G1 X130.068 Y95.044 E1.95833
G1 X130.189 Y95.473 E1.97805
G1 X130.315 Y95.963 E2.00043
G1 X130.418 Y96.405 E2.02051
G1 X130.513 Y96.856 E2.0409
G1 X130.594 Y97.284 E2.06016
G1 X130.675 Y97.773 E2.08209
G1 X130.73 Y98.158 E2.09929
G1 X130.785 Y98.608 E2.11935
G1 X130.813 Y98.885 E2.13166
G1 X130.856 Y99.455 E2.15695
G1 X130.903 Y100.418 E2.1996
G1 X130.915 Y100.831 E2.21788
G1 X130.912 Y101.349 E2.24079
G1 X130.898 Y101.809 E2.26115
G1 X130.872 Y102.302 E2.28299
G1 X130.856 Y102.514 E2.29239
G1 X130.801 Y103.059 E2.31662
G1 X130.709 Y103.789 E2.34917
G1 X130.421 Y106.365 E2.46383
G1 X130.211 Y108.895 E2.57614
G1 X130.077 Y111.335 E2.68423
G1 X130 Y115.123 E2.85184
G1 X129.999 Y128.401 E3.4392
G1 X129.989 Y129.128 E3.47136
G1 X129.936 Y130.065 E3.51288
G1 X129.804 Y130.993 E3.55434
G1 X129.593 Y131.907 E3.59584
G1 X129.304 Y132.799 E3.63732
G1 X128.941 Y133.664 E3.67881
G1 X128.506 Y134.495 E3.7203
G1 X128.001 Y135.285 E3.76178
G1 X127.431 Y136.03 E3.80328
G1 X126.8 Y136.724 E3.84477
G1 X126.111 Y137.361 E3.88628
G1 X125.371 Y137.937 E3.92776
G1 X124.585 Y138.448 E3.96923
G1 X123.758 Y138.89 E4.01071
G1 X122.896 Y139.26 E4.05221
G1 X122.006 Y139.555 E4.09368
G1 X121.094 Y139.774 E4.13517
G1 X120.167 Y139.914 E4.17665
G1 X119.299 Y139.973 E4.21513
G1 X118.979 Y139.982 E4.22929
G1 X118.67 Y139.986 E4.24296
G1 X101.565 Y139.985 E4.99962
G1 X100.867 Y139.976 E5.0305
G1 X99.931 Y139.924 E5.07197
G1 X99.002 Y139.792 E5.11347
G1 X98.088 Y139.582 E5.15496
G1 X97.195 Y139.295 E5.19645
G1 X96.33 Y138.932 E5.23795
G1 X95.499 Y138.498 E5.27942
G1 X94.708 Y137.994 E5.32091
G1 X93.963 Y137.424 E5.36241
G1 X93.269 Y136.793 E5.4039
G1 X92.632 Y136.106 E5.44534
G1 X92.055 Y135.366 E5.48685
G1 X91.543 Y134.58 E5.52835
G1 X91.1 Y133.753 E5.56985
G1 X90.729 Y132.892 E5.61132
G1 X90.433 Y132.002 E5.65281
G1 X90.214 Y131.09 E5.6943
G1 X90.073 Y130.163 E5.73578
G1 X90.013 Y129.274 E5.77519
G1 X90.004 Y128.941 E5.78993
G1 X90 Y128.644 E5.80307
G1 X90 Y115.085 E6.40287
G1 X89.963 Y112.477 E6.51824
G1 X89.856 Y109.955 E6.62991
G1 X89.682 Y107.499 E6.73882
G1 X89.286 Y103.75 E6.90559
G1 X89.198 Y103.048 E6.93688
G1 X89.151 Y102.61 E6.95637
G1 X89.115 Y102.093 E6.9793
G1 X89.097 Y101.699 E6.99674
G1 X89.086 Y101.239 E7.0171
G1 X89.085 Y100.977 E7.02869
G1 X89.098 Y100.405 E7.054
G1 X89.145 Y99.43 E7.09718
G1 X89.185 Y98.884 E7.12139
G1 X89.227 Y98.5 E7.13848
G1 X89.283 Y98.062 E7.15802
G1 X89.36 Y97.554 E7.18074
G1 X89.435 Y97.127 E7.19992
G1 X89.517 Y96.707 E7.21885
G1 X89.606 Y96.295 E7.2375
G1 X89.725 Y95.8 E7.26002
G1 X89.835 Y95.385 E7.27901
G1 X89.963 Y94.94 E7.29949
G1 X90.095 Y94.515 E7.31918
G1 X90.257 Y94.035 E7.34159
G1 X90.333 Y93.825 E7.35147
G1 X90.531 Y93.317 E7.37559
G1 X90.919 Y92.391 E7.42
G1 X91.086 Y92.011 E7.43836
G1 X91.303 Y91.565 E7.4603
G1 X91.505 Y91.172 E7.47985
G1 X91.755 Y90.713 E7.50297
G1 X91.968 Y90.343 E7.52185
G1 X92.187 Y89.979 E7.54065
G1 X92.427 Y89.597 E7.5606
G1 X92.715 Y89.161 E7.58372
G1 X92.947 Y88.828 E7.60167
G1 X93.211 Y88.466 E7.62149
G1 X93.485 Y88.105 E7.64154
G1 X93.783 Y87.729 E7.66276
G1 X94.047 Y87.411 E7.68104
G1 X94.376 Y87.033 E7.70321
G1 X94.538 Y86.855 E7.71386
G0 F6000 X94.834 Y87.124
G1 F1200 X95.203 Y86.738 E7.73748
G1 X95.94 Y86.006 E7.78343
G1 X96.563 Y85.435 E7.82081
G1 X96.914 Y85.138 E7.84115
G1 X97.272 Y84.848 E7.86153
G1 X97.613 Y84.584 E7.88061
G1 X97.965 Y84.323 E7.9
G1 X98.303 Y84.083 E7.91833
G1 X98.695 Y83.818 E7.93926
G1 X99.047 Y83.591 E7.95779
G1 X99.462 Y83.337 E7.97932
G1 X99.67 Y83.216 E7.98996
G1 X100.101 Y82.978 E8.01174
G1 X100.999 Y82.51 E8.05653
G1 X101.499 Y82.266 E8.08115
G1 X101.864 Y82.105 E8.09879
G1 X102.242 Y81.947 E8.11692
G1 X102.63 Y81.794 E8.13537
G1 X102.877 Y81.702 E8.14703
G1 X103.399 Y81.523 E8.17144
G1 X104.255 Y81.254 E8.21113
G1 X105.136 Y81.018 E8.25147
G1 X105.992 Y80.828 E8.29026
G1 X106.922 Y80.665 E8.33203
G1 X107.783 Y80.553 E8.37044
G1 X108.677 Y80.475 E8.41013
G1 X109.527 Y80.437 E8.44777
G1 X110.473 Y80.437 E8.48962
G1 X111.323 Y80.475 E8.52726
G1 X112.217 Y80.553 E8.56695
G1 X113.078 Y80.665 E8.60536
G1 X114.008 Y80.828 E8.64713
G1 X114.864 Y81.018 E8.68592
G1 X115.754 Y81.256 E8.72667
G1 X116.693 Y81.552 E8.77022
G1 X117.479 Y81.835 E8.80718
G1 X117.897 Y82.004 E8.82712
G1 X118.33 Y82.19 E8.84797
G1 X118.516 Y82.275 E8.85701
G1 X118.989 Y82.505 E8.88028
G1 X119.911 Y82.983 E8.92622
G1 X120.604 Y83.377 E8.96149
G1 X120.994 Y83.618 E8.98177
G1 X121.418 Y83.894 E9.00415
G1 X121.781 Y84.143 E9.02362
G1 X122.164 Y84.419 E9.0445
G1 X122.513 Y84.682 E9.06383
G1 X122.852 Y84.947 E9.08287
G1 X123.184 Y85.219 E9.10185
G1 X123.562 Y85.544 E9.1239
G1 X123.744 Y85.708 E9.13474
G1 X124.127 Y86.071 E9.15808
G1 X124.81 Y86.751 E9.20072
G1 X125.073 Y87.022 E9.21742
G1 X125.44 Y87.429 E9.24167
G1 X125.72 Y87.756 E9.26071
G1 X126.02 Y88.123 E9.28168
G1 X126.299 Y88.48 E9.30172
G1 X126.554 Y88.82 E9.32052
G1 X126.784 Y89.14 E9.33795
G1 X127.048 Y89.526 E9.35864
G1 X127.305 Y89.919 E9.37941
G1 X127.561 Y90.33 E9.40083
G1 X127.76 Y90.667 E9.41814
G1 X127.986 Y91.069 E9.43854
G1 X128.202 Y91.474 E9.45885
G1 X128.388 Y91.84 E9.47701
G1 X128.482 Y92.034 E9.48655
G1 X128.724 Y92.572 E9.51264
G1 X129.109 Y93.494 E9.55684
G1 X129.257 Y93.867 E9.57459
G1 X129.433 Y94.362 E9.59783
G1 X129.553 Y94.728 E9.61487
G1 X129.683 Y95.153 E9.63453
G1 X129.804 Y95.582 E9.65425
G1 X129.925 Y96.053 E9.67576
G1 X130.028 Y96.495 E9.69584
G1 X130.12 Y96.93 E9.7155
G1 X130.201 Y97.358 E9.73477
G1 X130.279 Y97.83 E9.75594
G1 X130.334 Y98.215 E9.77314
G1 X130.387 Y98.648 E9.79244
G1 X130.415 Y98.925 E9.80475
G1 X130.456 Y99.474 E9.82911
G1 X130.503 Y100.437 E9.87176
G1 X130.516 Y100.837 E9.88946
G1 X130.512 Y101.336 E9.91153
G1 X130.498 Y101.796 E9.93189
G1 X130.473 Y102.272 E9.95298
G1 X130.457 Y102.484 E9.96238
G1 X130.404 Y103.009 E9.98572
G1 X130.309 Y103.763 E10.01934
G1 X130.023 Y106.324 E10.13333
G1 X129.813 Y108.841 E10.24506
G1 X129.676 Y111.334 E10.35551
G1 X129.6 Y115.115 E10.5228
G1 X129.599 Y128.396 E11.1103
G1 X129.589 Y129.123 E11.14246
G1 X129.536 Y130.042 E11.18318
G1 X129.404 Y130.953 E11.2239
G1 X129.193 Y131.849 E11.26462
G1 X128.906 Y132.724 E11.30536
G1 X128.543 Y133.57 E11.34608
G1 X128.109 Y134.382 E11.38681
G1 X127.605 Y135.153 E11.42755
G1 X127.037 Y135.877 E11.46826
G1 X126.408 Y136.549 E11.50898
G1 X125.723 Y137.164 E11.5497
G1 X124.987 Y137.717 E11.59042
G1 X124.206 Y138.205 E11.63116
G1 X123.386 Y138.623 E11.67188
G1 X122.532 Y138.968 E11.71262
G1 X121.652 Y139.237 E11.75333
G1 X120.751 Y139.43 E11.79409
G1 X119.838 Y139.543 E11.83478
G1 X119.288 Y139.573 E11.85915
G1 X118.968 Y139.582 E11.87331
G1 X118.67 Y139.586 E11.88649
G1 X101.57 Y139.585 E12.64293
G1 X100.872 Y139.576 E12.67381
G1 X99.953 Y139.524 E12.71452
G1 X99.042 Y139.393 E12.75524
G1 X98.146 Y139.183 E12.79595
G1 X97.271 Y138.896 E12.83668
G1 X96.424 Y138.534 E12.87743
G1 X95.612 Y138.1 E12.91816
G1 X94.841 Y137.598 E12.95886
G1 X94.116 Y137.03 E12.9996
G1 X93.443 Y136.401 E13.04035
G1 X92.828 Y135.717 E13.08104
G1 X92.274 Y134.982 E13.12175
G1 X91.786 Y134.201 E13.16249
G1 X91.367 Y133.381 E13.20322
G1 X91.021 Y132.528 E13.24394
G1 X90.751 Y131.648 E13.28466
G1 X90.558 Y130.747 E13.32542
G1 X90.444 Y129.834 E13.36612
G1 X90.413 Y129.263 E13.39142
G1 X90.404 Y128.93 E13.40616
G1 X90.4 Y128.644 E13.41881
G1 X90.4 Y115.079 E14.01887
G1 X90.363 Y112.454 E14.135
G1 X90.256 Y109.946 E14.24605
G1 X90.08 Y107.457 E14.35642
G1 X89.684 Y103.708 E14.52319
G1 X89.595 Y102.998 E14.55484
G1 X89.55 Y102.573 E14.57375
G1 X89.515 Y102.075 E14.59583
G1 X89.497 Y101.681 E14.61328
G1 X89.486 Y101.237 E14.63292
G1 X89.485 Y100.975 E14.64451
G1 X89.497 Y100.425 E14.66885
G1 X89.544 Y99.45 E14.71203
G1 X89.583 Y98.921 E14.73549
G1 X89.624 Y98.551 E14.75196
G1 X89.68 Y98.113 E14.77149
G1 X89.754 Y97.623 E14.79342
G1 X89.829 Y97.196 E14.81259
G1 X89.908 Y96.792 E14.8308
G1 X89.997 Y96.38 E14.84945
G1 X90.112 Y95.902 E14.8712
G1 X90.222 Y95.487 E14.89019
G1 X90.345 Y95.059 E14.90989
G1 X90.477 Y94.634 E14.92957
G1 X90.633 Y94.171 E14.95119
G1 X90.709 Y93.961 E14.96107
G1 X90.9 Y93.472 E14.98429
G1 X91.288 Y92.546 E15.0287
G1 X91.45 Y92.177 E15.04653
G1 X91.658 Y91.748 E15.06762
G1 X91.86 Y91.355 E15.08717
G1 X92.101 Y90.913 E15.10944
G1 X92.314 Y90.543 E15.12832
G1 X92.525 Y90.192 E15.14644
G1 X92.765 Y89.81 E15.16639
G1 X93.044 Y89.39 E15.1887
G1 X93.276 Y89.057 E15.20665
G1 X93.53 Y88.707 E15.22578
G1 X93.804 Y88.346 E15.24583
G1 X94.091 Y87.984 E15.26627
G1 X94.355 Y87.666 E15.28455
G1 X94.672 Y87.302 E15.3059
G1 X94.834 Y87.124 E15.31655
G0 F6000 X95.129 Y87.394
G1 F1200 X95.485 Y87.022 E15.33932
G1 X96.222 Y86.29 E15.38527
G1 X96.821 Y85.74 E15.42125
G1 X97.172 Y85.443 E15.44159
G1 X97.517 Y85.165 E15.46119
G1 X97.858 Y84.901 E15.48026
G1 X98.197 Y84.649 E15.49895
G1 X98.535 Y84.409 E15.51729
G1 X98.912 Y84.154 E15.53742
G1 X99.264 Y83.927 E15.55595
G1 X99.663 Y83.682 E15.57666
G1 X99.871 Y83.561 E15.5873
G1 X100.286 Y83.333 E15.60825
G1 X101.184 Y82.865 E15.65305
G1 X101.667 Y82.629 E15.67683
G1 X102.018 Y82.474 E15.6938
G1 X102.396 Y82.316 E15.71192
G1 X102.77 Y82.169 E15.7297
G1 X103.017 Y82.077 E15.74136
G1 X103.519 Y81.904 E15.76485
G1 X104.375 Y81.635 E15.80454
G1 X105.223 Y81.408 E15.84337
G1 X106.079 Y81.218 E15.88216
G1 X106.973 Y81.061 E15.92231
G1 X107.834 Y80.949 E15.96072
G1 X108.694 Y80.874 E15.99891
G1 X109.544 Y80.836 E16.03654
G1 X110.456 Y80.836 E16.07689
G1 X111.306 Y80.874 E16.11453
G1 X112.166 Y80.949 E16.15271
G1 X113.027 Y81.061 E16.19112
G1 X113.921 Y81.218 E16.23127
G1 X114.777 Y81.408 E16.27006
G1 X115.634 Y81.638 E16.30931
G1 X116.573 Y81.934 E16.35286
G1 X117.329 Y82.206 E16.38841
G1 X117.747 Y82.375 E16.40835
G1 X118.164 Y82.554 E16.42842
G1 X118.35 Y82.639 E16.43747
G1 X118.805 Y82.861 E16.45987
G1 X119.727 Y83.339 E16.50581
G1 X120.394 Y83.717 E16.53972
G1 X120.784 Y83.958 E16.56
G1 X121.192 Y84.224 E16.58155
G1 X121.555 Y84.473 E16.60102
G1 X121.924 Y84.738 E16.62112
G1 X122.273 Y85.001 E16.64045
G1 X122.598 Y85.257 E16.65875
G1 X122.93 Y85.529 E16.67773
G1 X123.294 Y85.842 E16.69897
G1 X123.476 Y86.006 E16.70981
G1 X123.845 Y86.355 E16.73227
G1 X124.528 Y87.035 E16.77491
G1 X124.783 Y87.298 E16.79111
G1 X125.136 Y87.689 E16.81442
G1 X125.416 Y88.016 E16.83346
G1 X125.705 Y88.369 E16.85364
G1 X125.984 Y88.726 E16.87368
G1 X126.23 Y89.054 E16.89182
G1 X126.46 Y89.374 E16.90925
G1 X126.714 Y89.744 E16.92911
G1 X126.971 Y90.137 E16.94988
G1 X127.217 Y90.534 E16.97054
G1 X127.416 Y90.871 E16.98785
G1 X127.633 Y91.257 E17.00744
G1 X127.849 Y91.662 E17.02774
G1 X128.028 Y92.014 E17.04521
G1 X128.122 Y92.208 E17.05475
G1 X128.355 Y92.726 E17.07987
G1 X128.74 Y93.648 E17.12407
G1 X128.884 Y94.01 E17.14131
G1 X129.053 Y94.486 E17.16365
G1 X129.173 Y94.852 E17.18069
G1 X129.298 Y95.261 E17.19961
G1 X129.419 Y95.69 E17.21932
G1 X129.536 Y96.144 E17.24006
G1 X129.639 Y96.586 E17.26014
G1 X129.727 Y97.004 E17.27904
G1 X129.808 Y97.432 E17.2983
G1 X129.883 Y97.887 E17.3187
G1 X129.938 Y98.272 E17.33591
G1 X129.989 Y98.688 E17.35445
G1 X130.017 Y98.965 E17.36676
G1 X130.057 Y99.494 E17.39023
G1 X130.104 Y100.457 E17.43288
G1 X130.116 Y100.844 E17.45001
G1 X130.112 Y101.324 E17.47124
G1 X130.098 Y101.784 E17.4916
G1 X130.074 Y102.242 E17.51189
G1 X130.058 Y102.454 E17.52129
G1 X130.007 Y102.959 E17.54375
G1 X129.917 Y103.673 E17.57558
G1 X129.626 Y106.282 E17.69171
G1 X129.414 Y108.819 E17.80432
G1 X129.276 Y111.333 E17.9157
G1 X129.2 Y115.107 E18.08268
G1 X129.199 Y128.39 E18.67027
G1 X129.189 Y129.117 E18.70243
G1 X129.137 Y130.019 E18.7424
G1 X129.005 Y130.912 E18.78233
G1 X128.794 Y131.791 E18.82232
G1 X128.507 Y132.647 E18.86226
G1 X128.145 Y133.474 E18.90219
G1 X127.711 Y134.266 E18.94214
G1 X127.209 Y135.017 E18.9821
G1 X126.643 Y135.72 E19.02202
G1 X126.016 Y136.371 E19.06201
G1 X125.335 Y136.963 E19.10192
G1 X124.604 Y137.493 E19.14186
G1 X123.828 Y137.956 E19.18184
G1 X123.015 Y138.349 E19.22178
G1 X122.17 Y138.669 E19.26175
G1 X121.301 Y138.912 E19.30167
G1 X120.413 Y139.077 E19.34162
G1 X119.277 Y139.173 E19.39205
G1 X118.957 Y139.182 E19.40621
G1 X118.67 Y139.186 E19.41891
G1 X101.575 Y139.185 E20.17513
G1 X100.877 Y139.176 E20.206
G1 X99.976 Y139.125 E20.24593
G1 X99.082 Y138.993 E20.2859
G1 X98.204 Y138.784 E20.32583
G1 X97.347 Y138.497 E20.36581
G1 X96.52 Y138.136 E20.40572
G1 X95.727 Y137.703 E20.44569
G1 X94.976 Y137.202 E20.48562
G1 X94.272 Y136.636 E20.52558
G1 X93.621 Y136.01 E20.56554
G1 X93.028 Y135.329 E20.60548
G1 X92.498 Y134.598 E20.64542
G1 X92.034 Y133.823 E20.68538
G1 X91.64 Y133.01 E20.72534
G1 X91.32 Y132.166 E20.76527
G1 X91.076 Y131.296 E20.80524
G1 X90.91 Y130.408 E20.8452
G1 X90.813 Y129.253 E20.89648
G1 X90.804 Y128.92 E20.91121
G1 X90.8 Y128.644 E20.92342
G1 X90.8 Y115.073 E21.52375
G1 X90.763 Y112.467 E21.63904
G1 X90.654 Y109.899 E21.75274
G1 X90.48 Y107.446 E21.86152
G1 X90.076 Y103.616 E22.03189
G1 X89.992 Y102.948 E22.06167
G1 X89.948 Y102.536 E22.08
G1 X89.915 Y102.057 E22.10124
G1 X89.897 Y101.663 E22.11869
G1 X89.886 Y101.236 E22.13758
G1 X89.885 Y100.974 E22.14917
G1 X89.897 Y100.444 E22.17262
