;FLAVOR:Marlin
;TIME:841
;Filament used: 0.67051m
;Layer height: 0.28
;MINX:86.721
;MINY:94
;MINZ:0.28
;MAXX:148.279
;MAXY:141
;MAXZ:3.08
;Generated with Cura_SteamEngine 4.11.0
M140 S50
M105
M190 S50
M104 S200
M105
M109 S200
M82 ;absolute extrusion mode
; Ender 3 Custom Start G-code
G92 E0 ; Reset Extruder
G28 ; Home all axes
G1 Z2.0 F3000 ; Move Z Axis up little to prevent scratching of Heat Bed
G1 X0.1 Y20 Z0.3 F5000.0 ; Move to start position
G1 X0.1 Y200.0 Z0.3 F1500.0 E15 ; Draw the first line
G1 X0.4 Y200.0 Z0.3 F5000.0 ; Move to side a little
G1 X0.4 Y20 Z0.3 F1500.0 E30 ; Draw the second line
G92 E0 ; Reset Extruder
G1 Z2.0 F3000 ; Move Z Axis up little to prevent scratching of Heat Bed
G1 X5 Y20 Z0.3 F5000.0 ; Move over to prevent blob squish
G92 E0
G92 E0
G1 F2700 E-5
;LAYER_COUNT:11
;LAYER:0
M107
G0 F6000 X94.422 Y99.607 Z0.28
;TYPE:SKIRT
G1 F2700 E0
G1 F1200 X95.113 Y98.973 E0.04367
G1 X95.855 Y98.399 E0.08735
G1 X96.44 Y98.013 E0.11998
G1 X96.728 Y97.836 E0.13573
G1 X96.989 Y97.681 E0.14986
G1 X100.353 Y95.741 E0.33068
G1 X100.945 Y95.41 E0.36227
G1 X101.782 Y94.987 E0.40593
G1 X102.652 Y94.638 E0.44958
G1 X103.549 Y94.364 E0.49326
G1 X104.356 Y94.186 E0.53174
G1 X105.285 Y94.058 E0.5754
G1 X106.072 Y94.012 E0.61211
G1 X106.464 Y94.003 E0.63037
G1 X106.716 Y94 E0.64211
G1 X130.976 Y94 E1.77175
G1 X131.835 Y94.011 E1.81175
G1 X132.771 Y94.064 E1.85541
G1 X133.699 Y94.197 E1.89906
G1 X134.613 Y94.409 E1.94275
G1 X135.506 Y94.697 E1.98644
G1 X136.37 Y95.061 E2.0301
G1 X137.201 Y95.497 E2.0738
G1 X137.991 Y96.002 E2.11745
G1 X138.735 Y96.572 E2.1611
G1 X139.168 Y96.954 E2.18798
G1 X139.487 Y97.255 E2.20841
G1 X139.829 Y97.59 E2.2307
G1 X144.65 Y102.413 E2.54824
G1 X145.153 Y102.93 E2.58182
G1 X145.778 Y103.63 E2.62552
G1 X146.341 Y104.38 E2.66919
G1 X146.838 Y105.175 E2.71284
G1 X147.265 Y106.01 E2.75651
G1 X147.62 Y106.878 E2.80018
G1 X147.899 Y107.774 E2.84388
G1 X148.102 Y108.689 E2.88752
G1 X148.225 Y109.619 E2.9312
G1 X148.261 Y110.185 E2.95761
G1 X148.268 Y110.37 E2.96623
G1 X148.275 Y110.68 E2.98067
G1 X148.279 Y111.096 E3.00004
G1 X148.278 Y123.854 E3.59411
G1 X148.268 Y124.556 E3.6268
G1 X148.215 Y125.492 E3.67045
G1 X148.082 Y126.42 E3.71411
G1 X147.87 Y127.334 E3.7578
G1 X147.582 Y128.227 E3.80149
G1 X147.218 Y129.091 E3.84514
G1 X146.782 Y129.922 E3.88884
G1 X146.277 Y130.712 E3.9325
G1 X145.707 Y131.456 E3.97614
G1 X145.334 Y131.88 E4.00244
G1 X145.193 Y132.032 E4.01209
G1 X144.991 Y132.244 E4.02573
G1 X144.81 Y132.429 E4.03778
G1 X139.829 Y137.408 E4.36572
G1 X139.335 Y137.887 E4.39776
G1 X138.635 Y138.511 E4.44143
G1 X137.884 Y139.072 E4.48508
G1 X137.087 Y139.568 E4.52879
G1 X136.252 Y139.994 E4.57244
G1 X135.383 Y140.347 E4.61611
G1 X134.487 Y140.625 E4.6598
G1 X133.571 Y140.826 E4.70346
G1 X132.641 Y140.948 E4.74714
G1 X132.049 Y140.984 E4.77476
G1 X131.664 Y140.994 E4.79269
G1 X131.121 Y141 E4.81797
G1 X106.864 Y140.999 E5.94748
G1 X106.161 Y140.989 E5.98022
G1 X105.224 Y140.936 E6.02392
G1 X104.296 Y140.803 E6.06757
G1 X103.382 Y140.591 E6.11126
G1 X102.49 Y140.303 E6.15491
G1 X101.625 Y139.939 E6.19861
G1 X101.098 Y139.673 E6.2261
G1 X100.803 Y139.514 E6.2417
G1 X100.521 Y139.357 E6.25673
G1 X97.16 Y137.415 E6.43748
G1 X96.567 Y137.062 E6.46961
G1 X95.783 Y136.548 E6.51327
G1 X95.045 Y135.97 E6.55692
G1 X94.358 Y135.33 E6.60064
G1 X93.729 Y134.635 E6.64428
G1 X93.162 Y133.888 E6.68795
G1 X92.79 Y133.317 E6.71969
G1 X92.56 Y132.938 E6.74033
G1 X92.437 Y132.731 E6.75154
G1 X88.534 Y125.97 E7.11505
G1 X88.125 Y125.237 E7.15414
G1 X87.703 Y124.399 E7.19783
G1 X87.355 Y123.529 E7.24146
G1 X87.082 Y122.631 E7.28516
G1 X86.944 Y122.027 E7.31401
G1 X86.799 Y121.101 E7.35766
G1 X86.733 Y120.122 E7.40335
G1 X86.724 Y119.73 E7.4216
G1 X86.721 Y119.478 E7.43334
G1 X86.722 Y115.669 E7.6107
G1 X86.732 Y114.965 E7.64349
G1 X86.785 Y114.028 E7.68719
G1 X86.918 Y113.1 E7.73084
G1 X87.13 Y112.186 E7.77453
G1 X87.418 Y111.294 E7.81818
G1 X87.782 Y110.429 E7.86188
G1 X88.034 Y109.929 E7.88795
G1 X88.17 Y109.675 E7.90136
G1 X88.34 Y109.369 E7.91766
G1 X92.372 Y102.384 E8.29321
G1 X92.752 Y101.748 E8.32771
G1 X93.267 Y100.964 E8.37139
G1 X93.847 Y100.227 E8.41506
G1 X94.422 Y99.607 E8.45443
G0 F6000 X94.705 Y99.89
G1 F1200 X95.383 Y99.268 E8.49728
G1 X96.113 Y98.707 E8.54015
G1 X96.65 Y98.354 E8.57007
G1 X96.938 Y98.177 E8.58581
G1 X97.189 Y98.027 E8.59943
G1 X100.422 Y96.161 E8.77324
G1 X101.14 Y95.759 E8.81156
G1 X101.962 Y95.345 E8.85442
G1 X102.817 Y95.004 E8.89728
G1 X103.699 Y94.738 E8.94018
G1 X104.428 Y94.58 E8.97491
G1 X105.34 Y94.455 E9.01777
G1 X106.081 Y94.412 E9.05233
G1 X106.473 Y94.403 E9.07059
G1 X106.716 Y94.4 E9.08191
G1 X130.976 Y94.4 E10.21156
G1 X131.829 Y94.411 E10.25128
G1 X132.748 Y94.464 E10.29414
G1 X133.659 Y94.597 E10.33701
G1 X134.555 Y94.808 E10.37987
G1 X135.43 Y95.096 E10.42277
G1 X136.276 Y95.459 E10.46563
G1 X137.087 Y95.894 E10.50849
G1 X137.858 Y96.398 E10.55138
G1 X138.895 Y97.247 E10.61378
G1 X139.207 Y97.541 E10.63375
G1 X139.546 Y97.872 E10.65581
G1 X144.363 Y102.692 E10.97312
G1 X144.866 Y103.209 E11.0067
G1 X145.479 Y103.896 E11.04958
G1 X146.03 Y104.634 E11.09246
G1 X146.515 Y105.417 E11.13535
G1 X146.93 Y106.239 E11.17823
G1 X147.272 Y107.093 E11.22106
G1 X147.538 Y107.975 E11.26396
G1 X147.728 Y108.876 E11.30684
G1 X147.861 Y110.2 E11.3688
G1 X147.876 Y110.683 E11.3913
G1 X147.879 Y110.993 E11.40573
G1 X147.878 Y123.848 E12.00432
G1 X147.868 Y124.55 E12.03701
G1 X147.815 Y125.469 E12.07987
G1 X147.682 Y126.38 E12.12274
G1 X147.471 Y127.276 E12.1656
G1 X147.183 Y128.151 E12.2085
G1 X146.82 Y128.997 E12.25136
G1 X146.385 Y129.808 E12.29422
G1 X145.881 Y130.579 E12.33711
G1 X145.04 Y131.608 E12.39899
G1 X144.899 Y131.76 E12.40864
G1 X144.705 Y131.964 E12.42175
G1 X144.524 Y132.149 E12.4338
G1 X139.551 Y137.121 E12.76125
G1 X139.057 Y137.6 E12.79329
G1 X138.369 Y138.212 E12.83617
G1 X137.63 Y138.761 E12.87904
G1 X136.847 Y139.245 E12.9219
G1 X136.024 Y139.658 E12.96478
G1 X135.169 Y139.999 E13.00764
G1 X134.287 Y140.264 E13.05052
G1 X133.386 Y140.452 E13.09338
G1 X132.036 Y140.584 E13.15654
G1 X131.66 Y140.594 E13.17406
G1 X131.121 Y140.6 E13.19916
G1 X106.869 Y140.599 E14.32843
G1 X106.166 Y140.589 E14.36117
G1 X105.247 Y140.536 E14.40403
G1 X104.336 Y140.403 E14.4469
G1 X103.44 Y140.192 E14.48976
G1 X102.566 Y139.904 E14.53261
G1 X101.719 Y139.541 E14.57552
G1 X101.288 Y139.321 E14.59806
G1 X100.993 Y139.162 E14.61366
G1 X100.721 Y139.011 E14.62815
G1 X97.486 Y137.143 E14.80209
G1 X96.772 Y136.718 E14.84078
G1 X96.002 Y136.214 E14.88363
G1 X95.279 Y135.644 E14.9265
G1 X94.608 Y135.013 E14.96939
G1 X93.994 Y134.327 E15.01226
G1 X93.442 Y133.59 E15.05514
G1 X93.132 Y133.109 E15.08179
G1 X92.902 Y132.73 E15.10243
G1 X92.784 Y132.531 E15.1132
G1 X88.803 Y125.632 E15.4841
G1 X88.474 Y125.042 E15.51555
G1 X88.061 Y124.22 E15.55839
G1 X87.721 Y123.364 E15.60127
G1 X87.456 Y122.482 E15.64416
G1 X87.336 Y121.949 E15.6696
G1 X87.195 Y121.039 E15.71248
G1 X87.133 Y120.113 E15.75569
G1 X87.124 Y119.721 E15.77395
G1 X87.121 Y119.478 E15.78527
G1 X87.122 Y115.674 E15.9624
G1 X87.132 Y114.97 E15.99518
G1 X87.185 Y114.051 E16.03804
G1 X87.318 Y113.14 E16.08091
G1 X87.529 Y112.244 E16.12378
G1 X87.817 Y111.37 E16.16663
G1 X88.386 Y110.117 E16.2307
G1 X88.522 Y109.863 E16.24412
G1 X88.686 Y109.569 E16.2598
G1 X92.715 Y102.589 E16.63507
G1 X93.095 Y101.953 E16.66957
G1 X93.602 Y101.184 E16.71246
G1 X94.172 Y100.462 E16.7553
G1 X94.705 Y99.89 E16.7917
G0 F6000 X94.988 Y100.173
G1 F1200 X95.654 Y99.563 E16.83375
G1 X96.371 Y99.014 E16.8758
G1 X96.859 Y98.695 E16.90295
G1 X97.147 Y98.518 E16.91869
G1 X97.389 Y98.374 E16.93181
G1 X100.743 Y96.439 E17.11211
G1 X101.335 Y96.108 E17.14369
G1 X102.142 Y95.703 E17.18574
G1 X102.982 Y95.37 E17.22781
G1 X103.848 Y95.113 E17.26987
G1 X104.499 Y94.974 E17.30087
G1 X105.394 Y94.851 E17.34294
G1 X106.09 Y94.812 E17.3754
G1 X106.482 Y94.803 E17.39365
G1 X106.716 Y94.8 E17.40455
G1 X130.976 Y94.8 E18.5342
G1 X131.823 Y94.811 E18.57364
G1 X132.725 Y94.864 E18.61571
G1 X133.618 Y94.996 E18.65775
G1 X134.496 Y95.207 E18.6998
G1 X135.352 Y95.495 E18.74185
G1 X136.18 Y95.857 E18.78393
G1 X136.972 Y96.291 E18.82598
G1 X137.722 Y96.794 E18.86803
G1 X138.623 Y97.54 E18.9225
G1 X138.928 Y97.827 E18.942
G1 X139.263 Y98.155 E18.96383
G1 X144.077 Y102.971 E19.28091
G1 X144.58 Y103.488 E19.3145
G1 X145.18 Y104.163 E19.35655
G1 X145.719 Y104.888 E19.39862
G1 X146.191 Y105.658 E19.44067
G1 X146.593 Y106.466 E19.48269
G1 X146.922 Y107.307 E19.52474
G1 X147.176 Y108.174 E19.56681
G1 X147.352 Y109.06 E19.60887
G1 X147.462 Y110.215 E19.6629
G1 X147.469 Y110.4 E19.67152
G1 X147.476 Y110.687 E19.68489
G1 X147.479 Y110.997 E19.69932
G1 X147.478 Y123.842 E20.29744
G1 X147.468 Y124.544 E20.33013
G1 X147.415 Y125.446 E20.3722
G1 X147.283 Y126.339 E20.41424
G1 X147.072 Y127.217 E20.45629
G1 X146.784 Y128.073 E20.49834
G1 X146.422 Y128.901 E20.54042
G1 X145.988 Y129.693 E20.58247
G1 X145.485 Y130.443 E20.62452
G1 X144.747 Y131.336 E20.67847
G1 X144.606 Y131.488 E20.68812
G1 X144.419 Y131.684 E20.70073
G1 X144.238 Y131.869 E20.71279
G1 X139.272 Y136.834 E21.03977
G1 X138.778 Y137.313 E21.07181
G1 X138.103 Y137.912 E21.11383
G1 X137.377 Y138.449 E21.15588
G1 X136.606 Y138.92 E21.19795
G1 X135.797 Y139.321 E21.24
G1 X134.956 Y139.649 E21.28203
G1 X134.088 Y139.901 E21.32412
G1 X133.202 Y140.075 E21.36616
G1 X132.022 Y140.184 E21.42134
G1 X131.655 Y140.194 E21.43844
G1 X131.121 Y140.2 E21.4633
G1 X106.875 Y140.199 E22.5923
G1 X106.172 Y140.189 E22.62504
G1 X105.27 Y140.136 E22.66711
G1 X104.377 Y140.004 E22.70914
G1 X103.499 Y139.793 E22.75119
G1 X102.643 Y139.505 E22.79325
G1 X101.478 Y138.969 E22.85296
G1 X101.183 Y138.81 E22.86856
G1 X100.921 Y138.664 E22.88253
G1 X97.57 Y136.728 E23.06274
G1 X96.977 Y136.375 E23.09487
G1 X96.222 Y135.879 E23.13693
G1 X95.514 Y135.318 E23.179
G1 X94.858 Y134.697 E23.22106
G1 X94.26 Y134.02 E23.26312
G1 X93.724 Y133.293 E23.30518
G1 X93.474 Y132.902 E23.32679
G1 X93.244 Y132.523 E23.34743
G1 X93.13 Y132.331 E23.35783
G1 X89.152 Y125.438 E23.72841
G1 X88.823 Y124.848 E23.75987
G1 X88.419 Y124.04 E23.80193
G1 X88.087 Y123.2 E23.84399
G1 X87.832 Y122.334 E23.88602
G1 X87.728 Y121.87 E23.90817
G1 X87.59 Y120.978 E23.9502
G1 X87.533 Y120.104 E23.99098
G1 X87.524 Y119.712 E24.00924
G1 X87.521 Y119.478 E24.02013
G1 X87.522 Y115.68 E24.19699
G1 X87.532 Y114.976 E24.22977
G1 X87.585 Y114.075 E24.2718
G1 X87.717 Y113.181 E24.31388
G1 X87.928 Y112.303 E24.35592
G1 X88.216 Y111.447 E24.39798
G1 X88.739 Y110.306 E24.45642
G1 X88.875 Y110.052 E24.46984
G1 X89.033 Y109.769 E24.48493
G1 X93.059 Y102.794 E24.85994
G1 X93.439 Y102.158 E24.89444
G1 X93.936 Y101.404 E24.93649
G1 X94.498 Y100.697 E24.97854
G1 X94.988 Y100.173 E25.01195
G1 F2700 E20.01195
;MESH:mearm_servo_bracket.stl
G0 F6000 X101.952 Y106.751
G0 X102.493 Y107.688
G0 X106.519 Y105.772
G0 X116.801 Y105.801
G0 X115.443 Y107.535
G0 X116.029 Y109.469
G0 X117.779 Y110.211
;TYPE:WALL-INNER
G1 F2700 E25.01195
G1 F1200 X118.21 Y110.168 E25.03212
G1 X118.625 Y110.043 E25.0523
G1 X119.008 Y109.838 E25.07253
G1 X119.342 Y109.563 E25.09267
G1 X119.617 Y109.229 E25.11282
G1 X119.822 Y108.846 E25.13304
G1 X119.947 Y108.431 E25.15323
G1 X119.99 Y108 E25.1734
G1 X119.947 Y107.569 E25.19356
G1 X119.822 Y107.154 E25.21375
G1 X119.617 Y106.771 E25.23397
G1 X119.342 Y106.437 E25.25412
G1 X119.008 Y106.162 E25.27427
G1 X118.698 Y105.996 E25.29064
G1 X118.625 Y105.957 E25.29449
G1 X118.21 Y105.832 E25.31467
G1 X117.779 Y105.789 E25.33484
G1 X117.348 Y105.832 E25.35501
G1 X116.933 Y105.957 E25.37519
G1 X116.86 Y105.996 E25.37905
G1 X116.55 Y106.162 E25.39542
G1 X116.216 Y106.437 E25.41557
G1 X115.941 Y106.771 E25.43571
G1 X115.736 Y107.154 E25.45594
G1 X115.611 Y107.569 E25.47612
G1 X115.568 Y108 E25.49629
G1 X115.611 Y108.431 E25.51646
G1 X115.736 Y108.846 E25.53664
G1 X115.941 Y109.229 E25.55687
G1 X116.216 Y109.563 E25.57702
G1 X116.55 Y109.838 E25.59716
G1 X116.933 Y110.043 E25.61739
G1 X117.348 Y110.168 E25.63757
G1 X117.779 Y110.211 E25.65774
G0 F6000 X117.779 Y109.809
;TYPE:WALL-OUTER
G1 F1200 X118.132 Y109.774 E25.67426
G1 X118.471 Y109.672 E25.69074
G1 X118.784 Y109.504 E25.70728
G1 X119.058 Y109.279 E25.72379
G1 X119.283 Y109.005 E25.7403
G1 X119.451 Y108.692 E25.75684
G1 X119.553 Y108.353 E25.77333
G1 X119.588 Y108 E25.78985
G1 X119.553 Y107.647 E25.80636
G1 X119.451 Y107.308 E25.82285
G1 X119.283 Y106.995 E25.83939
G1 X119.058 Y106.721 E25.8559
G1 X118.784 Y106.496 E25.87241
G1 X118.471 Y106.328 E25.88895
G1 X118.132 Y106.226 E25.90543
G1 X117.779 Y106.191 E25.92195
G1 X117.426 Y106.226 E25.93847
G1 X117.087 Y106.328 E25.95495
G1 X116.774 Y106.496 E25.97149
G1 X116.5 Y106.721 E25.988
G1 X116.275 Y106.995 E26.00451
G1 X116.107 Y107.308 E26.02105
G1 X116.005 Y107.647 E26.03754
G1 X115.97 Y108 E26.05406
G1 X116.005 Y108.353 E26.07057
G1 X116.107 Y108.692 E26.08706
G1 X116.275 Y109.005 E26.1036
G1 X116.5 Y109.279 E26.12011
G1 X116.774 Y109.504 E26.13662
G1 X117.087 Y109.672 E26.15316
G1 X117.426 Y109.774 E26.16964
G1 X117.779 Y109.809 E26.18616
G0 F6000 X117.779 Y110.249
G1 F2700 E21.18616
G0 F6000 X117.307 Y110.375
G0 X117.307 Y111
G0 X105.851 Y110.972
G0 X105.679 Y124.2
;TYPE:WALL-INNER
G1 F2700 E26.18616
G1 F1200 X129.879 Y124.2 E27.31301
G1 X129.879 Y120.6 E27.48064
G1 X131.879 Y120.6 E27.57377
G1 X131.879 Y114.4 E27.86247
G1 X129.879 Y114.4 E27.9556
G1 X129.879 Y110.8 E28.12323
G1 X105.679 Y110.8 E29.25008
G1 X105.679 Y124.2 E29.87404
G0 F6000 X106.079 Y123.8
;TYPE:WALL-OUTER
G1 F1200 X129.479 Y123.8 E30.96365
G1 X129.479 Y120.2 E31.13128
G1 X131.479 Y120.2 E31.22441
G1 X131.479 Y114.8 E31.47585
G1 X129.479 Y114.8 E31.56898
G1 X129.479 Y111.2 E31.73661
G1 X106.079 Y111.2 E32.82621
G1 X106.079 Y123.8 E33.41292
G1 F2700 E28.41292
G0 F6000 X105.779 Y123.8
G0 X117.779 Y124.39
G0 X117.779 Y124.99
G0 X118.563 Y125.106
G0 X118.918 Y125.296
G0 X119.483 Y125.861
G0 X119.673 Y126.216
G0 X119.829 Y127
G0 X119.673 Y127.784
G0 X119.483 Y128.139
G0 X118.918 Y128.704
G0 X117.779 Y129.211
;TYPE:WALL-INNER
G1 F2700 E33.41292
G1 F1200 X118.21 Y129.168 E33.43309
G1 X118.625 Y129.043 E33.45327
G1 X118.698 Y129.004 E33.45713
G1 X119.008 Y128.838 E33.4735
G1 X119.342 Y128.563 E33.49365
G1 X119.617 Y128.229 E33.51379
G1 X119.822 Y127.846 E33.53402
G1 X119.947 Y127.431 E33.5542
G1 X119.99 Y127 E33.57437
G1 X119.947 Y126.569 E33.59454
G1 X119.822 Y126.154 E33.61472
G1 X119.617 Y125.771 E33.63495
G1 X119.342 Y125.437 E33.65509
G1 X119.008 Y125.162 E33.67524
G1 X118.625 Y124.957 E33.69547
G1 X118.21 Y124.832 E33.71565
G1 X117.779 Y124.789 E33.73582
G1 X117.348 Y124.832 E33.75599
G1 X116.933 Y124.957 E33.77617
G1 X116.55 Y125.162 E33.7964
G1 X116.216 Y125.437 E33.81654
G1 X115.941 Y125.771 E33.83669
G1 X115.736 Y126.154 E33.85692
G1 X115.611 Y126.569 E33.8771
G1 X115.568 Y127 E33.89727
G1 X115.611 Y127.431 E33.91744
G1 X115.736 Y127.846 E33.93762
G1 X115.941 Y128.229 E33.95785
G1 X116.216 Y128.563 E33.97799
G1 X116.55 Y128.838 E33.99814
G1 X116.86 Y129.004 E34.01451
G1 X116.933 Y129.043 E34.01837
G1 X117.348 Y129.168 E34.03855
G1 X117.779 Y129.211 E34.05872
G0 F6000 X117.779 Y128.809
;TYPE:WALL-OUTER
G1 F1200 X118.132 Y128.774 E34.07523
G1 X118.471 Y128.672 E34.09172
G1 X118.784 Y128.504 E34.10826
G1 X119.058 Y128.279 E34.12477
G1 X119.283 Y128.005 E34.14128
G1 X119.451 Y127.692 E34.15782
G1 X119.553 Y127.353 E34.1743
G1 X119.588 Y127 E34.19082
G1 X119.553 Y126.647 E34.20734
G1 X119.451 Y126.308 E34.22382
G1 X119.283 Y125.995 E34.24036
G1 X119.058 Y125.721 E34.25687
G1 X118.784 Y125.496 E34.27338
G1 X118.471 Y125.328 E34.28992
G1 X118.132 Y125.226 E34.30641
G1 X117.779 Y125.191 E34.32293
G1 X117.426 Y125.226 E34.33944
G1 X117.087 Y125.328 E34.35593
G1 X116.774 Y125.496 E34.37247
G1 X116.5 Y125.721 E34.38898
G1 X116.275 Y125.995 E34.40549
G1 X116.107 Y126.308 E34.42203
G1 X116.005 Y126.647 E34.43851
G1 X115.97 Y127 E34.45503
G1 X116.005 Y127.353 E34.47155
G1 X116.107 Y127.692 E34.48803
G1 X116.275 Y128.005 E34.50457
G1 X116.5 Y128.279 E34.52108
G1 X116.774 Y128.504 E34.53759
G1 X117.087 Y128.672 E34.55413
