;FLAVOR:Marlin
;TIME:6675
;Filament used: 5.63034m
;Layer height: 0.28
;MINX:66.334
;MINY:65.366
;MINZ:0.28
;MAXX:180.5
;MAXY:165.711
;MAXZ:3.08
;Generated with Cura_SteamEngine 4.11.0
M140 S50
M105
M190 S50
M104 S200
M105
M109 S200
M82 ;absolute extrusion mode
; Ender 3 Custom Start G-code
G92 E0 ; Reset Extruder
G28 ; Home all axes
G1 Z2.0 F3000 ; Move Z Axis up little to prevent scratching of Heat Bed
G1 X0.1 Y20 Z0.3 F5000.0 ; Move to start position
G1 X0.1 Y200.0 Z0.3 F1500.0 E15 ; Draw the first line
G1 X0.4 Y200.0 Z0.3 F5000.0 ; Move to side a little
G1 X0.4 Y20 Z0.3 F1500.0 E30 ; Draw the second line
G92 E0 ; Reset Extruder
G1 Z2.0 F3000 ; Move Z Axis up little to prevent scratching of Heat Bed
G1 X5 Y20 Z0.3 F5000.0 ; Move over to prevent blob squish
G92 E0
G92 E0
G1 F2700 E-5
;LAYER_COUNT:11
;LAYER:0
M107
G0 F6000 X70.472 Y69.446 Z0.28
;TYPE:SKIRT
G1 F2700 E0
G1 F1200 X71.061 Y68.92 E0.03677
G1 X71.699 Y68.455 E0.07353
G1 X72.382 Y68.058 E0.11032
G1 X73.101 Y67.731 E0.1471
G1 X73.849 Y67.479 E0.18385
G1 X74.619 Y67.304 E0.22062
G1 X75.403 Y67.208 E0.2574
G1 X75.961 Y67.188 E0.2834
G1 X152.49 Y67.188 E3.84691
G1 X155.059 Y66.042 E3.97789
G1 X155.796 Y65.757 E4.01469
G1 X156.557 Y65.548 E4.05144
G1 X157.336 Y65.417 E4.08822
G1 X158.124 Y65.366 E4.12499
G1 X158.913 Y65.394 E4.16175
G1 X159.696 Y65.503 E4.19856
G1 X160.144 Y65.602 E4.21993
G1 X163.118 Y66.352 E4.36274
G1 X163.873 Y66.583 E4.39951
G1 X164.601 Y66.89 E4.4363
G1 X165.294 Y67.269 E4.47308
G1 X165.945 Y67.716 E4.50985
G1 X166.547 Y68.226 E4.54659
G1 X167.095 Y68.795 E4.58337
G1 X167.388 Y69.153 E4.60491
G1 X170.771 Y73.541 E4.86291
G1 X171.221 Y74.19 E4.89969
G1 X171.603 Y74.881 E4.93645
G1 X171.913 Y75.607 E4.97321
G1 X172.148 Y76.361 E5.00998
G1 X172.306 Y77.135 E5.04677
G1 X172.385 Y77.92 E5.08351
G1 X172.394 Y78.379 E5.10488
G1 X172.364 Y81.445 E5.24766
G1 X172.316 Y82.234 E5.28446
G1 X172.189 Y83.013 E5.32121
G1 X172.095 Y83.362 E5.33804
G1 X173.145 Y84.413 E5.40722
G1 X173.675 Y84.999 E5.44401
G1 X174.142 Y85.635 E5.48075
G1 X174.543 Y86.316 E5.51755
G1 X174.872 Y87.033 E5.55429
G1 X175.128 Y87.781 E5.5911
G1 X175.306 Y88.55 E5.62786
G1 X175.406 Y89.333 E5.66461
G1 X175.429 Y89.927 E5.69229
G1 X175.429 Y96.554 E6.00087
G1 X175.389 Y97.343 E6.03766
G1 X175.27 Y98.123 E6.0744
G1 X175.072 Y98.888 E6.11119
G1 X174.798 Y99.628 E6.14794
G1 X174.556 Y100.122 E6.17355
G1 X178.216 Y103.783 E6.4146
G1 X178.745 Y104.369 E6.45136
G1 X179.213 Y105.006 E6.48817
G1 X179.613 Y105.686 E6.5249
G1 X179.943 Y106.404 E6.5617
G1 X180.199 Y107.151 E6.59847
G1 X180.377 Y107.92 E6.63522
G1 X180.477 Y108.703 E6.67198
G1 X180.5 Y109.298 E6.69971
G1 X180.5 Y134.667 E7.88099
G1 X180.46 Y135.456 E7.91778
G1 X180.341 Y136.236 E7.95452
G1 X180.143 Y137.001 E7.99131
G1 X179.869 Y137.741 E8.02806
G1 X179.457 Y138.564 E8.07091
G1 X177.076 Y142.692 E8.29281
G1 X176.647 Y143.355 E8.32959
G1 X176.153 Y143.972 E8.36639
G1 X175.6 Y144.535 E8.40314
G1 X174.993 Y145.04 E8.4399
G1 X174.218 Y145.551 E8.48313
G1 X166.481 Y150.016 E8.89908
G1 X165.778 Y150.375 E8.93584
G1 X165.042 Y150.662 E8.97262
G1 X164.281 Y150.873 E9.0094
G1 X163.502 Y151.006 E9.0462
G1 X162.582 Y151.06 E9.08911
G1 X157.818 Y151.06 E9.31094
G1 X157.029 Y151.02 E9.34773
G1 X156.249 Y150.901 E9.38447
G1 X155.484 Y150.703 E9.42126
G1 X154.744 Y150.429 E9.45801
G1 X153.919 Y150.016 E9.50097
G1 X153.281 Y149.648 E9.53526
G1 X152.984 Y150.32 E9.56947
G1 X152.76 Y150.735 E9.59143
G1 X146.761 Y161.062 E10.14755
G1 X146.33 Y161.724 E10.18433
G1 X145.834 Y162.339 E10.22112
G1 X145.279 Y162.9 E10.25787
G1 X144.67 Y163.403 E10.29465
G1 X144.014 Y163.842 E10.3314
G1 X143.277 Y164.23 E10.37018
G1 X141.604 Y165 E10.45594
G1 X140.871 Y165.293 E10.4927
G1 X140.112 Y165.511 E10.52947
G1 X139.335 Y165.651 E10.56623
G1 X138.547 Y165.711 E10.60303
G1 X137.758 Y165.692 E10.63978
G1 X136.925 Y165.584 E10.67889
G1 X85.767 Y156.124 E13.10141
G1 X84.998 Y155.941 E13.13822
G1 X84.253 Y155.682 E13.17494
G1 X83.537 Y155.348 E13.21173
G1 X82.858 Y154.944 E13.24852
G1 X82.224 Y154.473 E13.2853
G1 X81.641 Y153.941 E13.32205
G1 X81.189 Y153.443 E13.35337
G1 X80.158 Y152.204 E13.42842
G1 X79.685 Y151.572 E13.46518
G1 X79.277 Y150.896 E13.50195
G1 X78.94 Y150.182 E13.53871
G1 X78.677 Y149.437 E13.5755
G1 X78.491 Y148.67 E13.61225
G1 X78.383 Y147.887 E13.64905
G1 X78.354 Y147.215 E13.68037
G1 X78.354 Y106.948 E15.55537
G1 X77.917 Y106.881 E15.57596
G1 X77.152 Y106.683 E15.61276
G1 X76.412 Y106.409 E15.6495
G1 X75.592 Y105.998 E15.69221
G1 X73.61 Y104.856 E15.79872
G1 X72.947 Y104.428 E15.83547
G1 X72.33 Y103.935 E15.87224
G1 X71.766 Y103.382 E15.90902
G1 X71.261 Y102.774 E15.94583
G1 X70.748 Y101.996 E15.98922
G1 X68.605 Y98.282 E16.18888
G1 X68.245 Y97.579 E16.22566
G1 X67.959 Y96.843 E16.26243
G1 X67.748 Y96.082 E16.2992
G1 X67.615 Y95.304 E16.33595
G1 X67.561 Y94.384 E16.37887
G1 X67.561 Y92.097 E16.48536
G1 X67.601 Y91.308 E16.52215
G1 X67.72 Y90.528 E16.55889
G1 X67.918 Y89.763 E16.59568
G1 X68.192 Y89.023 E16.63243
G1 X68.605 Y88.199 E16.67534
G1 X69.167 Y87.225 E16.72771
G1 X68.535 Y86.573 E16.76999
G1 X68.015 Y85.979 E16.80675
G1 X67.557 Y85.335 E16.84355
G1 X67.167 Y84.649 E16.88029
G1 X66.848 Y83.927 E16.91704
G1 X66.604 Y83.176 E16.95381
G1 X66.437 Y82.404 E16.99059
G1 X66.349 Y81.619 E17.02737
G1 X66.334 Y81.066 E17.05313
G1 X66.377 Y76.679 E17.25742
G1 X66.425 Y75.89 E17.29423
G1 X66.552 Y75.111 E17.33098
G1 X66.758 Y74.348 E17.36778
G1 X67.039 Y73.611 E17.40451
G1 X67.393 Y72.905 E17.44128
G1 X67.817 Y72.239 E17.47805
G1 X68.307 Y71.619 E17.51484
G1 X68.688 Y71.213 E17.54077
G1 X70.472 Y69.446 E17.65769
G0 F6000 X70.754 Y69.73
G1 F1200 X71.327 Y69.218 E17.69347
G1 X71.951 Y68.768 E17.7293
G1 X72.619 Y68.386 E17.76513
G1 X73.322 Y68.075 E17.80092
G1 X74.054 Y67.838 E17.83675
G1 X74.806 Y67.679 E17.87254
G1 X75.571 Y67.598 E17.90836
G1 X75.961 Y67.588 E17.92653
G1 X152.575 Y67.588 E21.49399
G1 X155.222 Y66.407 E21.62896
G1 X155.94 Y66.131 E21.66478
G1 X156.683 Y65.93 E21.70062
G1 X157.442 Y65.808 E21.73642
G1 X158.21 Y65.765 E21.77223
G1 X158.978 Y65.802 E21.80804
G1 X160.047 Y65.99 E21.85858
G1 X163.021 Y66.74 E22.0014
G1 X163.756 Y66.966 E22.0372
G1 X164.463 Y67.268 E22.073
G1 X165.135 Y67.641 E22.10879
G1 X165.765 Y68.083 E22.14462
G1 X166.346 Y68.587 E22.18044
G1 X167.071 Y69.397 E22.23106
G1 X170.454 Y73.785 E22.48905
G1 X170.892 Y74.417 E22.52486
G1 X171.261 Y75.092 E22.56068
G1 X171.558 Y75.802 E22.59652
G1 X171.78 Y76.538 E22.63231
G1 X171.925 Y77.293 E22.66811
G1 X171.994 Y78.375 E22.7186
G1 X171.964 Y81.441 E22.86137
G1 X171.916 Y82.209 E22.8972
G1 X171.789 Y82.968 E22.93303
G1 X171.648 Y83.479 E22.95772
G1 X172.863 Y84.695 E23.03776
G1 X173.377 Y85.267 E23.07357
G1 X173.83 Y85.889 E23.1094
G1 X174.216 Y86.554 E23.1452
G1 X174.53 Y87.256 E23.18101
G1 X174.77 Y87.987 E23.21684
G1 X174.933 Y88.739 E23.25267
G1 X175.017 Y89.503 E23.28846
G1 X175.029 Y89.927 E23.30821
G1 X175.029 Y96.554 E23.61679
G1 X174.989 Y97.322 E23.6526
G1 X174.87 Y98.082 E23.68842
G1 X174.672 Y98.825 E23.72422
G1 X174.398 Y99.544 E23.76005
G1 X174.067 Y100.199 E23.79422
G1 X177.933 Y104.066 E24.04884
G1 X178.448 Y104.637 E24.08464
G1 X178.901 Y105.259 E24.12047
G1 X179.286 Y105.925 E24.15629
G1 X179.601 Y106.626 E24.19208
G1 X179.841 Y107.357 E24.22791
G1 X180.004 Y108.109 E24.26373
G1 X180.088 Y108.873 E24.29952
G1 X180.1 Y109.298 E24.31932
G1 X180.1 Y134.667 E25.50061
G1 X180.06 Y135.435 E25.53642
G1 X179.941 Y136.195 E25.57224
G1 X179.743 Y136.938 E25.60804
G1 X179.469 Y137.657 E25.64387
G1 X179.11 Y138.364 E25.68079
G1 X176.729 Y142.492 E25.90269
G1 X176.311 Y143.138 E25.93852
G1 X175.828 Y143.736 E25.97431
G1 X175.285 Y144.281 E26.01014
G1 X174.689 Y144.767 E26.04595
G1 X174.018 Y145.204 E26.08323
G1 X166.281 Y149.669 E26.49919
G1 X165.596 Y150.019 E26.53501
G1 X164.878 Y150.295 E26.57083
G1 X164.135 Y150.495 E26.60665
G1 X163.376 Y150.617 E26.64245
G1 X162.582 Y150.66 E26.67948
G1 X157.818 Y150.66 E26.90131
G1 X157.05 Y150.62 E26.93712
G1 X156.29 Y150.501 E26.97294
G1 X155.547 Y150.303 E27.00874
G1 X154.828 Y150.029 E27.04457
G1 X154.119 Y149.669 E27.0816
G1 X153.058 Y149.056 E27.13865
G1 X152.922 Y149.473 E27.15908
G1 X152.609 Y150.176 E27.19491
G1 X152.414 Y150.534 E27.21389
G1 X146.415 Y160.861 E27.77001
G1 X145.994 Y161.505 E27.80584
G1 X145.509 Y162.102 E27.84165
G1 X144.965 Y162.646 E27.87748
G1 X144.367 Y163.13 E27.9133
G1 X143.722 Y163.549 E27.94911
G1 X143.11 Y163.866 E27.98121
G1 X141.437 Y164.636 E28.06696
G1 X140.722 Y164.921 E28.1028
G1 X139.982 Y165.13 E28.13861
G1 X139.224 Y165.261 E28.17443
G1 X138.457 Y165.313 E28.21023
G1 X137.688 Y165.285 E28.24606
G1 X136.997 Y165.191 E28.27853
G1 X85.839 Y155.731 E30.70105
G1 X85.091 Y155.552 E30.73686
G1 X84.366 Y155.296 E30.77266
G1 X83.671 Y154.966 E30.80849
G1 X83.014 Y154.566 E30.8443
G1 X82.402 Y154.101 E30.88009
G1 X81.842 Y153.574 E30.9159
G1 X81.497 Y153.187 E30.94004
G1 X80.466 Y151.948 E31.01509
G1 X80.005 Y151.332 E31.05092
G1 X79.611 Y150.672 E31.08671
G1 X79.288 Y149.974 E31.12253
G1 X79.038 Y149.246 E31.15837
G1 X78.866 Y148.497 E31.19415
G1 X78.772 Y147.733 E31.23
G1 X78.754 Y147.215 E31.25413
G1 X78.754 Y106.602 E33.14524
G1 X78.718 Y106.6 E33.14692
G1 X77.958 Y106.481 E33.18274
G1 X77.215 Y106.283 E33.21855
G1 X76.496 Y106.009 E33.25437
G1 X75.792 Y105.652 E33.29113
G1 X73.81 Y104.51 E33.39764
G1 X73.164 Y104.092 E33.43347
G1 X72.565 Y103.609 E33.4693
G1 X72.02 Y103.066 E33.50512
G1 X71.534 Y102.47 E33.54093
G1 X71.094 Y101.796 E33.57841
G1 X68.951 Y98.082 E33.77808
G1 X68.602 Y97.397 E33.81388
G1 X68.326 Y96.679 E33.84969
G1 X68.126 Y95.937 E33.88548
G1 X68.004 Y95.177 E33.92132
G1 X67.961 Y94.384 E33.9583
G1 X67.961 Y92.097 E34.06479
G1 X68.001 Y91.329 E34.1006
G1 X68.12 Y90.569 E34.13642
G1 X68.318 Y89.826 E34.17223
G1 X68.592 Y89.107 E34.20805
G1 X68.951 Y88.399 E34.24502
G1 X69.664 Y87.162 E34.3115
G1 X68.822 Y86.294 E34.36781
G1 X68.316 Y85.715 E34.40361
G1 X67.873 Y85.087 E34.4394
G1 X67.497 Y84.415 E34.47526
G1 X67.193 Y83.709 E34.51105
G1 X66.965 Y82.975 E34.54684
G1 X66.813 Y82.221 E34.58265
G1 X66.741 Y81.455 E34.61848
G1 X66.734 Y81.069 E34.63646
G1 X66.777 Y76.682 E34.84074
G1 X66.825 Y75.915 E34.87653
G1 X66.952 Y75.156 E34.91236
G1 X67.157 Y74.415 E34.94816
G1 X67.438 Y73.699 E34.98398
G1 X67.791 Y73.016 E35.01978
G1 X68.214 Y72.373 E35.05562
G1 X68.701 Y71.778 E35.09142
G1 X68.97 Y71.497 E35.10953
G1 X70.754 Y69.73 E35.22645
G0 F6000 X71.035 Y70.015
G1 F1200 X71.594 Y69.517 E35.26131
G1 X72.203 Y69.083 E35.29614
G1 X72.854 Y68.715 E35.33096
G1 X73.541 Y68.419 E35.36579
G1 X74.256 Y68.199 E35.40062
G1 X74.99 Y68.056 E35.43544
G1 X75.961 Y67.988 E35.48077
G1 X152.659 Y67.988 E39.05215
G1 X155.385 Y66.772 E39.19114
G1 X156.084 Y66.504 E39.226
G1 X156.807 Y66.313 E39.26082
G1 X157.546 Y66.199 E39.29564
G1 X158.293 Y66.165 E39.33046
G1 X159.04 Y66.211 E39.3653
G1 X159.949 Y66.378 E39.40834
G1 X162.923 Y67.128 E39.55116
G1 X163.637 Y67.349 E39.58596
G1 X164.324 Y67.645 E39.62079
G1 X164.975 Y68.013 E39.65561
G1 X165.584 Y68.449 E39.69049
G1 X166.142 Y68.947 E39.72532
G1 X166.755 Y69.641 E39.76843
G1 X170.138 Y74.029 E40.02643
G1 X170.562 Y74.645 E40.06125
G1 X170.918 Y75.303 E40.09609
G1 X171.202 Y75.995 E40.13092
G1 X171.411 Y76.713 E40.16574
G1 X171.542 Y77.45 E40.2006
G1 X171.594 Y78.371 E40.24355
G1 X171.564 Y81.437 E40.38632
G1 X171.516 Y82.184 E40.42118
G1 X171.39 Y82.921 E40.45599
G1 X171.198 Y83.595 E40.48863
G1 X172.58 Y84.978 E40.57967
G1 X173.08 Y85.535 E40.61452
G1 X173.517 Y86.141 E40.64931
G1 X173.887 Y86.791 E40.68413
G1 X174.186 Y87.477 E40.71898
G1 X174.41 Y88.191 E40.75382
G1 X174.557 Y88.924 E40.78864
G1 X174.629 Y89.927 E40.83546
G1 X174.629 Y96.554 E41.14404
G1 X174.589 Y97.301 E41.17887
G1 X174.47 Y98.039 E41.21368
G1 X174.272 Y98.761 E41.24854
G1 X173.999 Y99.457 E41.28336
G1 X173.652 Y100.12 E41.3182
G1 X173.56 Y100.258 E41.32592
G1 X177.65 Y104.349 E41.59529
G1 X178.15 Y104.905 E41.63011
G1 X178.588 Y105.512 E41.66496
G1 X178.958 Y106.162 E41.69979
G1 X179.257 Y106.848 E41.73464
G1 X179.481 Y107.561 E41.76944
G1 X179.628 Y108.295 E41.80429
G1 X179.7 Y109.298 E41.85112
G1 X179.7 Y134.667 E43.0324
G1 X179.66 Y135.414 E43.06724
G1 X179.541 Y136.152 E43.10204
G1 X179.343 Y136.874 E43.13691
G1 X179.07 Y137.57 E43.17172
G1 X178.764 Y138.164 E43.20283
G1 X176.383 Y142.292 E43.42473
G1 X175.975 Y142.92 E43.4596
G1 X175.502 Y143.5 E43.49445
G1 X174.971 Y144.026 E43.52926
G1 X174.386 Y144.492 E43.56408
G1 X173.818 Y144.858 E43.59555
G1 X166.081 Y149.323 E44.0115
G1 X165.414 Y149.662 E44.04634
G1 X164.715 Y149.927 E44.08115
G1 X163.991 Y150.117 E44.116
G1 X163.251 Y150.228 E44.15085
G1 X162.582 Y150.26 E44.18203
G1 X157.818 Y150.26 E44.40386
G1 X157.071 Y150.22 E44.4387
G1 X156.333 Y150.101 E44.47351
G1 X155.611 Y149.903 E44.50837
G1 X154.915 Y149.63 E44.54318
G1 X154.319 Y149.323 E44.5744
G1 X152.822 Y148.459 E44.65488
G1 X152.774 Y148.638 E44.66351
G1 X152.541 Y149.349 E44.69835
G1 X152.068 Y150.333 E44.74919
G1 X146.069 Y160.66 E45.3053
G1 X145.659 Y161.286 E45.34015
G1 X145.185 Y161.865 E45.37499
G1 X144.652 Y162.389 E45.40979
G1 X144.065 Y162.854 E45.44466
G1 X143.433 Y163.253 E45.47947
G1 X142.943 Y163.503 E45.50508
G1 X141.27 Y164.273 E45.59084
G1 X140.574 Y164.549 E45.6257
G1 X139.854 Y164.749 E45.6605
G1 X139.116 Y164.871 E45.69533
G1 X138.369 Y164.914 E45.73017
G1 X137.622 Y164.877 E45.765
G1 X137.07 Y164.797 E45.79097
G1 X85.912 Y155.337 E48.21348
G1 X85.185 Y155.162 E48.2483
G1 X84.48 Y154.91 E48.28316
G1 X83.807 Y154.585 E48.31797
G1 X83.172 Y154.189 E48.35281
G1 X82.583 Y153.728 E48.38764
G1 X81.804 Y152.931 E48.43953
G1 X80.773 Y151.692 E48.51459
G1 X80.326 Y151.093 E48.54939
G1 X79.946 Y150.449 E48.58421
G1 X79.636 Y149.768 E48.61905
G1 X79.401 Y149.058 E48.65388
G1 X79.243 Y148.326 E48.68875
G1 X79.154 Y147.215 E48.74064
G1 X79.154 Y106.222 E50.64945
G1 X78.739 Y106.2 E50.6688
G1 X78.001 Y106.081 E50.70361
G1 X77.279 Y105.883 E50.73847
G1 X76.583 Y105.61 E50.77328
G1 X75.991 Y105.305 E50.80429
G1 X74.009 Y104.163 E50.91081
G1 X73.382 Y103.756 E50.94561
G1 X72.802 Y103.283 E50.98046
G1 X72.275 Y102.752 E51.0153
G1 X71.808 Y102.168 E51.05012
G1 X71.441 Y101.596 E51.08176
G1 X69.298 Y97.882 E51.28143
G1 X68.959 Y97.215 E51.31627
G1 X68.694 Y96.516 E51.35108
G1 X68.504 Y95.792 E51.38593
G1 X68.393 Y95.053 E51.42073
G1 X68.361 Y94.384 E51.45191
G1 X68.361 Y92.097 E51.55841
G1 X68.401 Y91.35 E51.59324
G1 X68.52 Y90.612 E51.62805
G1 X68.718 Y89.89 E51.66291
G1 X68.991 Y89.194 E51.69772
G1 X69.298 Y88.599 E51.7289
G1 X70.162 Y87.101 E51.80942
G1 X69.11 Y86.016 E51.87979
G1 X68.618 Y85.452 E51.91464
G1 X68.19 Y84.839 E51.94945
G1 X67.829 Y84.183 E51.98432
G1 X67.541 Y83.493 E52.01914
G1 X67.327 Y82.776 E52.05398
G1 X67.192 Y82.04 E52.08882
G1 X67.134 Y81.073 E52.13393
G1 X67.177 Y76.686 E52.33822
G1 X67.225 Y75.94 E52.37302
G1 X67.351 Y75.203 E52.40784
G1 X67.556 Y74.483 E52.4427
G1 X67.836 Y73.789 E52.47755
G1 X68.189 Y73.13 E52.51236
G1 X68.61 Y72.511 E52.54721
G1 X69.251 Y71.782 E52.59242
G1 X71.035 Y70.015 E52.70934
G0 F6000 X71.316 Y70.299
G1 F1200 X71.86 Y69.817 E52.74318
G1 X72.453 Y69.397 E52.77702
G1 X73.089 Y69.046 E52.81084
G1 X73.759 Y68.766 E52.84466
G1 X74.456 Y68.562 E52.87847
G1 X75.171 Y68.435 E52.91229
G1 X75.961 Y68.388 E52.94914
G1 X152.746 Y68.388 E56.52457
G1 X155.548 Y67.138 E56.66744
G1 X156.227 Y66.879 E56.70128
G1 X156.93 Y66.696 E56.7351
G1 X157.649 Y66.591 E56.76894
G1 X158.374 Y66.566 E56.80271
G1 X159.099 Y66.622 E56.83657
G1 X159.851 Y66.765 E56.87222
G1 X162.825 Y67.515 E57.01504
G1 X163.518 Y67.731 E57.04884
G1 X164.184 Y68.022 E57.08268
G1 X164.813 Y68.385 E57.11649
G1 X165.399 Y68.814 E57.15031
G1 X165.934 Y69.305 E57.18413
G1 X166.438 Y69.885 E57.2199
G1 X169.821 Y74.273 E57.4779
G1 X170.232 Y74.872 E57.51173
G1 X170.575 Y75.512 E57.54554
G1 X170.845 Y76.186 E57.57935
G1 X171.04 Y76.886 E57.61318
G1 X171.157 Y77.603 E57.64701
G1 X171.194 Y78.368 E57.68268
G1 X171.164 Y81.434 E57.82545
G1 X171.117 Y82.158 E57.85923
G1 X170.99 Y82.874 E57.89309
G1 X170.786 Y83.571 E57.92691
