;FLAVOR:Marlin
;TIME:2003
;Filament used: 1.73743m
;Layer height: 0.28
;MINX:61.274
;MINY:86.86
;MINZ:0.28
;MAXX:174.538
;MAXY:138.894
;MAXZ:3.08
;Generated with Cura_SteamEngine 4.11.0
M140 S50
M105
M190 S50
M104 S200
M105
M109 S200
M82 ;absolute extrusion mode
; Ender 3 Custom Start G-code
G92 E0 ; Reset Extruder
G28 ; Home all axes
G1 Z2.0 F3000 ; Move Z Axis up little to prevent scratching of Heat Bed
G1 X0.1 Y20 Z0.3 F5000.0 ; Move to start position
G1 X0.1 Y200.0 Z0.3 F1500.0 E15 ; Draw the first line
G1 X0.4 Y200.0 Z0.3 F5000.0 ; Move to side a little
G1 X0.4 Y20 Z0.3 F1500.0 E30 ; Draw the second line
G92 E0 ; Reset Extruder
G1 Z2.0 F3000 ; Move Z Axis up little to prevent scratching of Heat Bed
G1 X5 Y20 Z0.3 F5000.0 ; Move over to prevent blob squish
G92 E0
G92 E0
G1 F2700 E-5
;LAYER_COUNT:11
;LAYER:0
M107
G0 F6000 X70.162 Y89.609 Z0.28
;TYPE:SKIRT
G1 F2700 E0
G1 F1200 X70.945 Y89.094 E0.04364
G1 X71.77 Y88.648 E0.08731
G1 X72.63 Y88.274 E0.13098
G1 X73.745 Y87.911 E0.18558
G1 X74.044 Y87.831 E0.19999
G1 X74.406 Y87.74 E0.21737
G1 X76.449 Y87.267 E0.31502
G1 X77.222 Y87.099 E0.35185
G1 X78.146 Y86.94 E0.39551
G1 X79.08 Y86.86 E0.43916
G1 X80.018 Y86.86 E0.48284
G1 X80.764 Y86.917 E0.51768
G1 X80.863 Y86.928 E0.52231
G1 X81.802 Y87.074 E0.56656
G1 X84.251 Y87.563 E0.68285
G1 X86.734 Y87.986 E0.80013
G1 X89.232 Y88.339 E0.91761
G1 X91.754 Y88.624 E1.03579
G1 X94.23 Y88.832 E1.15149
G1 X96.764 Y88.973 E1.26967
G1 X98.762 Y89.034 E1.36274
G1 X161.484 Y90.267 E4.28391
G1 X162.15 Y90.289 E4.31494
G1 X163.085 Y90.36 E4.3586
G1 X164.011 Y90.51 E4.40228
G1 X164.921 Y90.739 E4.44597
G1 X165.807 Y91.044 E4.48961
G1 X166.665 Y91.424 E4.5333
G1 X167.487 Y91.875 E4.57696
G1 X168.268 Y92.395 E4.62065
G1 X169.001 Y92.979 E4.66429
G1 X169.404 Y93.347 E4.6897
G1 X169.578 Y93.514 E4.70093
G1 X169.888 Y93.822 E4.72128
G1 X170.947 Y94.913 E4.79208
G1 X171.534 Y95.534 E4.83187
G1 X172.148 Y96.243 E4.87554
G1 X172.699 Y97.002 E4.91921
G1 X173.184 Y97.805 E4.9629
G1 X173.598 Y98.646 E5.00654
G1 X173.939 Y99.52 E5.05023
G1 X174.204 Y100.419 E5.09387
G1 X174.392 Y101.338 E5.13755
G1 X174.501 Y102.27 E5.18124
G1 X174.528 Y102.823 E5.20702
G1 X174.535 Y103.123 E5.221
G1 X174.538 Y103.481 E5.23767
G1 X174.505 Y107.079 E5.40521
G1 X174.499 Y107.353 E5.41797
G1 X174.482 Y107.852 E5.44122
G1 X174.411 Y108.777 E5.48442
G1 X174.354 Y109.257 E5.50693
G1 X174.089 Y111.791 E5.62557
G1 X173.898 Y114.292 E5.74236
G1 X173.778 Y116.836 E5.86095
G1 X173.727 Y119.693 E5.99401
G1 X173.725 Y120.392 E6.02656
G1 X173.704 Y122.453 E6.12253
G1 X173.687 Y123.164 E6.15565
G1 X173.624 Y124.1 E6.19933
G1 X173.483 Y125.027 E6.24299
G1 X173.262 Y125.938 E6.28664
G1 X172.965 Y126.828 E6.33033
G1 X172.593 Y127.689 E6.37401
G1 X172.149 Y128.515 E6.41767
G1 X171.49 Y129.501 E6.47289
G1 X171.319 Y129.729 E6.48617
G1 X171.097 Y130.015 E6.50302
G1 X168.189 Y133.636 E6.71927
G1 X167.705 Y134.222 E6.75467
G1 X167.078 Y134.919 E6.79832
G1 X166.393 Y135.56 E6.842
G1 X165.656 Y136.14 E6.88567
G1 X164.873 Y136.656 E6.92934
G1 X164.048 Y137.103 E6.97303
G1 X163.189 Y137.478 E7.01667
G1 X162.067 Y137.843 E7.07161
G1 X161.768 Y137.923 E7.08603
G1 X161.406 Y138.014 E7.10341
G1 X159.363 Y138.487 E7.20105
G1 X158.59 Y138.655 E7.23789
G1 X157.666 Y138.814 E7.28155
G1 X156.732 Y138.894 E7.3252
G1 X155.794 Y138.894 E7.36887
G1 X155.036 Y138.835 E7.40428
G1 X154.938 Y138.824 E7.40887
G1 X154.011 Y138.68 E7.45255
G1 X151.562 Y138.191 E7.56884
G1 X149.08 Y137.768 E7.68608
G1 X146.58 Y137.415 E7.80364
G1 X144.058 Y137.13 E7.92182
G1 X141.582 Y136.922 E8.03752
G1 X139.048 Y136.781 E8.1557
G1 X137.05 Y136.72 E8.24878
G1 X74.328 Y135.487 E11.16994
G1 X73.662 Y135.465 E11.20097
G1 X72.727 Y135.394 E11.24463
G1 X71.801 Y135.244 E11.28831
G1 X70.891 Y135.015 E11.33201
G1 X70.005 Y134.71 E11.37564
G1 X69.147 Y134.33 E11.41934
G1 X68.325 Y133.879 E11.46299
G1 X67.544 Y133.359 E11.50668
G1 X66.811 Y132.775 E11.55032
G1 X66.399 Y132.399 E11.5763
G1 X66.215 Y132.222 E11.58818
G1 X66.016 Y132.025 E11.60122
G1 X65.776 Y131.782 E11.61713
G1 X64.861 Y130.838 E11.67834
G1 X64.278 Y130.22 E11.7179
G1 X63.664 Y129.511 E11.76158
G1 X63.113 Y128.752 E11.80525
G1 X62.628 Y127.949 E11.84893
G1 X62.214 Y127.108 E11.89258
G1 X61.873 Y126.234 E11.93627
G1 X61.608 Y125.335 E11.97991
G1 X61.42 Y124.416 E12.02359
G1 X61.311 Y123.484 E12.06728
G1 X61.284 Y122.931 E12.09306
G1 X61.277 Y122.631 E12.10703
G1 X61.274 Y122.215 E12.1264
G1 X61.308 Y118.671 E12.29144
G1 X61.314 Y118.389 E12.30457
G1 X61.332 Y117.879 E12.32833
G1 X61.403 Y116.961 E12.37121
G1 X61.456 Y116.515 E12.39212
G1 X61.723 Y113.964 E12.51155
G1 X61.914 Y111.463 E12.62835
G1 X62.034 Y108.919 E12.74694
G1 X62.085 Y106.062 E12.88
G1 X62.087 Y105.362 E12.91259
G1 X62.108 Y103.301 E13.00857
G1 X62.125 Y102.589 E13.04173
G1 X62.187 Y101.654 E13.08536
G1 X62.329 Y100.727 E13.12903
G1 X62.55 Y99.815 E13.17273
G1 X62.847 Y98.925 E13.21641
G1 X63.219 Y98.064 E13.26009
G1 X63.662 Y97.238 E13.30373
G1 X64.336 Y96.233 E13.36008
G1 X64.507 Y96.006 E13.37331
G1 X64.714 Y95.74 E13.38901
G1 X67.628 Y92.11 E13.60576
G1 X68.111 Y91.526 E13.64105
G1 X68.739 Y90.83 E13.6847
G1 X69.424 Y90.189 E13.72838
G1 X70.162 Y89.609 E13.77209
G0 F6000 X70.437 Y89.905
G1 F1200 X71.209 Y89.403 E13.81497
G1 X72.022 Y88.971 E13.85784
G1 X72.869 Y88.611 E13.90069
G1 X73.848 Y88.297 E13.94857
G1 X74.147 Y88.217 E13.96298
G1 X74.496 Y88.13 E13.97973
G1 X76.687 Y87.624 E14.08444
G1 X77.306 Y87.49 E14.11393
G1 X78.214 Y87.334 E14.15683
G1 X79.131 Y87.258 E14.19967
G1 X80.052 Y87.262 E14.24256
G1 X80.72 Y87.315 E14.27376
G1 X80.819 Y87.326 E14.2784
G1 X81.724 Y87.466 E14.32104
G1 X84.211 Y87.963 E14.43914
G1 X86.648 Y88.378 E14.55425
G1 X89.203 Y88.739 E14.6744
G1 X91.677 Y89.018 E14.79033
G1 X94.209 Y89.231 E14.90865
G1 X96.767 Y89.373 E15.02794
G1 X98.743 Y89.434 E15.12
G1 X161.471 Y90.667 E18.04144
G1 X162.137 Y90.689 E18.07247
G1 X163.055 Y90.759 E18.11534
G1 X163.963 Y90.909 E18.15819
G1 X164.855 Y91.137 E18.20106
G1 X165.724 Y91.441 E18.24393
G1 X166.563 Y91.82 E18.2868
G1 X167.366 Y92.27 E18.32966
G1 X168.127 Y92.788 E18.37253
G1 X169.127 Y93.635 E18.43355
G1 X169.301 Y93.802 E18.44478
G1 X169.604 Y94.104 E18.4647
G1 X170.66 Y95.191 E18.53527
G1 X171.243 Y95.808 E18.57479
G1 X171.845 Y96.505 E18.61768
G1 X172.384 Y97.251 E18.66053
G1 X172.857 Y98.041 E18.70341
G1 X173.259 Y98.869 E18.74627
G1 X173.587 Y99.729 E18.78913
G1 X173.84 Y100.615 E18.83203
G1 X174.015 Y101.518 E18.87486
G1 X174.128 Y102.833 E18.93632
G1 X174.135 Y103.133 E18.95029
G1 X174.138 Y103.477 E18.96631
G1 X174.105 Y107.075 E19.13385
G1 X174.099 Y107.339 E19.14615
G1 X174.082 Y107.838 E19.1694
G1 X174.014 Y108.73 E19.21106
G1 X173.962 Y109.167 E19.23155
G1 X173.688 Y111.791 E19.3544
G1 X173.498 Y114.279 E19.47059
G1 X173.378 Y116.81 E19.58857
G1 X173.327 Y119.685 E19.72246
G1 X173.325 Y120.388 E19.7552
G1 X173.304 Y122.443 E19.85089
G1 X173.287 Y123.154 E19.88401
G1 X173.225 Y124.073 E19.9269
G1 X173.084 Y124.983 E19.96978
G1 X172.864 Y125.877 E20.01265
G1 X172.567 Y126.748 E20.0555
G1 X172.196 Y127.591 E20.09839
G1 X171.753 Y128.398 E20.14125
G1 X171.17 Y129.261 E20.18975
G1 X170.999 Y129.489 E20.20302
G1 X170.785 Y129.764 E20.21925
G1 X167.881 Y133.381 E20.43523
G1 X167.397 Y133.967 E20.47062
G1 X166.78 Y134.651 E20.51352
G1 X166.107 Y135.279 E20.55638
G1 X165.381 Y135.845 E20.59925
G1 X164.609 Y136.347 E20.64212
G1 X163.797 Y136.78 E20.68497
G1 X162.95 Y137.141 E20.72785
G1 X161.964 Y137.457 E20.77606
G1 X161.665 Y137.537 E20.79047
G1 X161.316 Y137.624 E20.80722
G1 X159.125 Y138.13 E20.91193
G1 X158.506 Y138.264 E20.94142
G1 X157.598 Y138.42 E20.98432
G1 X156.681 Y138.496 E21.02716
G1 X155.76 Y138.492 E21.07005
G1 X155.081 Y138.438 E21.10177
G1 X154.983 Y138.427 E21.10636
G1 X154.089 Y138.288 E21.14849
G1 X151.602 Y137.791 E21.26658
G1 X149.166 Y137.376 E21.38165
G1 X146.609 Y137.015 E21.50189
G1 X144.135 Y136.736 E21.61782
G1 X141.603 Y136.523 E21.73614
G1 X139.045 Y136.381 E21.85543
G1 X137.069 Y136.32 E21.94749
G1 X74.341 Y135.087 E24.86893
G1 X73.675 Y135.065 E24.89996
G1 X72.757 Y134.995 E24.94283
G1 X71.849 Y134.845 E24.98568
G1 X70.957 Y134.617 E25.02855
G1 X70.088 Y134.313 E25.07142
G1 X69.249 Y133.934 E25.11429
G1 X68.446 Y133.484 E25.15715
G1 X67.685 Y132.966 E25.20002
G1 X66.676 Y132.11 E25.26163
G1 X66.492 Y131.933 E25.27352
G1 X66.301 Y131.744 E25.28603
G1 X66.064 Y131.504 E25.30174
G1 X65.048 Y130.454 E25.36977
G1 X64.569 Y129.946 E25.40228
G1 X63.967 Y129.249 E25.44517
G1 X63.428 Y128.503 E25.48802
G1 X62.955 Y127.713 E25.5309
G1 X62.553 Y126.885 E25.57376
G1 X62.225 Y126.025 E25.61662
G1 X61.972 Y125.139 E25.65952
G1 X61.797 Y124.236 E25.70235
G1 X61.684 Y122.921 E25.76381
G1 X61.677 Y122.621 E25.77778
G1 X61.674 Y122.374 E25.78929
G1 X61.674 Y122.113 E25.80144
G1 X61.707 Y118.675 E25.96153
G1 X61.714 Y118.403 E25.9742
G1 X61.732 Y117.893 E25.99797
G1 X61.8 Y117.008 E26.0393
G1 X61.848 Y116.603 E26.05829
G1 X62.124 Y113.964 E26.18184
G1 X62.314 Y111.476 E26.29803
G1 X62.434 Y108.945 E26.41602
G1 X62.485 Y106.07 E26.54991
G1 X62.487 Y105.366 E26.58269
G1 X62.508 Y103.311 E26.67838
G1 X62.525 Y102.599 E26.71155
G1 X62.587 Y101.68 E26.75444
G1 X62.728 Y100.771 E26.79727
G1 X62.948 Y99.877 E26.84014
G1 X63.245 Y99.005 E26.88304
G1 X63.616 Y98.163 E26.92588
G1 X64.059 Y97.355 E26.96879
G1 X64.655 Y96.474 E27.01832
G1 X64.826 Y96.247 E27.03155
G1 X65.026 Y95.991 E27.04668
G1 X67.937 Y92.365 E27.2632
G1 X68.42 Y91.781 E27.29848
G1 X69.037 Y91.098 E27.34134
G1 X69.711 Y90.471 E27.38421
G1 X70.437 Y89.905 E27.42707
G0 F6000 X70.711 Y90.2
G1 F1200 X71.471 Y89.713 E27.4691
G1 X72.272 Y89.295 E27.51118
G1 X73.106 Y88.95 E27.5532
G1 X73.952 Y88.684 E27.5945
G1 X74.251 Y88.604 E27.60891
G1 X74.586 Y88.52 E27.62499
G1 X76.772 Y88.015 E27.72946
G1 X77.391 Y87.881 E27.75895
G1 X78.281 Y87.729 E27.80099
G1 X79.181 Y87.657 E27.84304
G1 X80.084 Y87.664 E27.88508
G1 X80.675 Y87.712 E27.91269
G1 X80.774 Y87.723 E27.91733
G1 X81.645 Y87.858 E27.95837
G1 X84.131 Y88.354 E28.07641
G1 X86.63 Y88.78 E28.19446
G1 X89.104 Y89.13 E28.3108
G1 X91.666 Y89.419 E28.43086
G1 X94.19 Y89.631 E28.5488
G1 X96.733 Y89.773 E28.6674
G1 X98.724 Y89.834 E28.76015
G1 X161.458 Y91.067 E31.68187
G1 X162.124 Y91.089 E31.7129
G1 X163.024 Y91.158 E31.75493
G1 X163.915 Y91.307 E31.797
G1 X164.789 Y91.535 E31.83905
G1 X165.639 Y91.838 E31.88107
G1 X166.46 Y92.216 E31.92316
G1 X167.243 Y92.665 E31.96519
G1 X167.984 Y93.182 E32.00726
G1 X168.85 Y93.924 E32.06036
G1 X169.024 Y94.091 E32.07159
G1 X169.32 Y94.386 E32.09105
G1 X170.373 Y95.47 E32.16142
G1 X170.952 Y96.082 E32.20065
G1 X171.542 Y96.766 E32.24271
G1 X172.069 Y97.5 E32.28479
G1 X172.529 Y98.277 E32.32683
G1 X172.919 Y99.092 E32.36891
G1 X173.235 Y99.938 E32.41096
G1 X173.475 Y100.808 E32.45298
G1 X173.637 Y101.697 E32.49506
G1 X173.728 Y102.842 E32.54854
G1 X173.735 Y103.142 E32.56252
G1 X173.738 Y103.474 E32.57798
G1 X173.705 Y107.072 E32.74552
G1 X173.699 Y107.325 E32.7573
G1 X173.682 Y107.824 E32.78055
G1 X173.617 Y108.682 E32.82062
G1 X173.565 Y109.116 E32.84097
G1 X173.293 Y111.72 E32.96289
G1 X173.099 Y114.263 E33.08164
G1 X172.978 Y116.817 E33.2007
G1 X172.927 Y119.678 E33.33394
G1 X172.925 Y120.384 E33.36682
G1 X172.904 Y122.434 E33.46228
G1 X172.887 Y123.145 E33.4954
G1 X172.826 Y124.046 E33.53745
G1 X172.685 Y124.938 E33.5795
G1 X172.465 Y125.814 E33.62155
G1 X172.169 Y126.667 E33.6636
G1 X171.799 Y127.491 E33.70566
G1 X171.357 Y128.279 E33.74773
G1 X170.85 Y129.021 E33.78957
G1 X170.679 Y129.249 E33.80284
G1 X170.473 Y129.514 E33.81847
G1 X167.572 Y133.126 E34.03419
G1 X167.088 Y133.712 E34.06958
G1 X166.483 Y134.383 E34.11165
G1 X165.821 Y134.997 E34.1537
G1 X165.107 Y135.55 E34.19575
G1 X164.347 Y136.037 E34.23778
G1 X163.546 Y136.456 E34.27987
G1 X162.712 Y136.802 E34.32192
G1 X161.86 Y137.07 E34.36351
G1 X161.561 Y137.15 E34.37792
G1 X161.226 Y137.234 E34.394
G1 X159.04 Y137.739 E34.49847
G1 X158.421 Y137.873 E34.52796
G1 X157.531 Y138.025 E34.57
G1 X156.631 Y138.097 E34.61204
G1 X155.728 Y138.09 E34.65409
G1 X155.125 Y138.04 E34.68227
G1 X155.027 Y138.029 E34.68686
G1 X154.168 Y137.896 E34.72733
G1 X151.682 Y137.4 E34.84538
G1 X149.217 Y136.98 E34.96181
G1 X146.674 Y136.62 E35.0814
G1 X144.146 Y136.335 E35.19986
G1 X141.622 Y136.123 E35.31781
G1 X139.079 Y135.981 E35.4364
G1 X137.088 Y135.92 E35.52916
G1 X74.354 Y134.687 E38.45088
G1 X73.688 Y134.665 E38.48191
G1 X72.788 Y134.596 E38.52394
G1 X71.897 Y134.447 E38.566
G1 X71.023 Y134.219 E38.60806
G1 X70.173 Y133.916 E38.65008
G1 X69.352 Y133.538 E38.69217
G1 X68.569 Y133.089 E38.73419
G1 X67.828 Y132.572 E38.77627
G1 X66.954 Y131.822 E38.82989
G1 X66.77 Y131.645 E38.84178
G1 X66.585 Y131.463 E38.85387
G1 X66.351 Y131.225 E38.86941
G1 X65.339 Y130.18 E38.93715
G1 X64.86 Y129.672 E38.96966
G1 X64.27 Y128.988 E39.01172
G1 X63.743 Y128.254 E39.05379
G1 X63.283 Y127.477 E39.09584
G1 X62.893 Y126.662 E39.13791
G1 X62.577 Y125.816 E39.17996
G1 X62.337 Y124.946 E39.22199
G1 X62.175 Y124.057 E39.26406
G1 X62.084 Y122.912 E39.31755
G1 X62.077 Y122.612 E39.33152
G1 X62.074 Y122.374 E39.3426
G1 X62.074 Y122.117 E39.35457
G1 X62.107 Y118.679 E39.51467
G1 X62.113 Y118.417 E39.52687
G1 X62.131 Y117.907 E39.55063
G1 X62.197 Y117.056 E39.59038
G1 X62.248 Y116.627 E39.61049
G1 X62.519 Y114.035 E39.73185
G1 X62.713 Y111.492 E39.8506
G1 X62.834 Y108.938 E39.96966
G1 X62.885 Y106.077 E40.1029
G1 X62.887 Y105.37 E40.13582
G1 X62.908 Y103.321 E40.23124
G1 X62.925 Y102.609 E40.2644
G1 X62.986 Y101.708 E40.30645
G1 X63.127 Y100.815 E40.34855
G1 X63.347 Y99.939 E40.39061
G1 X63.643 Y99.086 E40.43265
G1 X64.013 Y98.262 E40.47471
G1 X64.455 Y97.475 E40.51674
G1 X64.975 Y96.715 E40.55962
G1 X65.146 Y96.488 E40.57285
G1 X65.338 Y96.241 E40.58742
G1 X68.245 Y92.62 E40.80364
G1 X68.728 Y92.036 E40.83893
G1 X69.334 Y91.367 E40.88096
G1 X69.996 Y90.753 E40.923
G1 X70.711 Y90.2 E40.96509
G1 F2700 E35.96509
;MESH:mearm_part14.stl(1)
G0 F6000 X78.943 Y103.556
G0 X78.34 Y102.103
G0 X80.562 Y102.459
G0 X81.511 Y103.408
G0 X81.511 Y105.482
G0 X80.63 Y106.595
;TYPE:WALL-INNER
G1 F2700 E40.96509
G1 F1200 X81.675 Y105.55 E41.03391
G1 X81.675 Y103.34 E41.13682
G1 X80.63 Y102.295 E41.20563
G1 X78.42 Y102.295 E41.30854
G1 X77.375 Y103.34 E41.37735
G1 X77.375 Y105.55 E41.48026
G1 X78.42 Y106.595 E41.54907
G1 X80.63 Y106.595 E41.65198
G0 F6000 X80.464 Y106.195
;TYPE:WALL-OUTER
G1 F1200 X81.275 Y105.384 E41.70539
G1 X81.275 Y103.506 E41.79283
G1 X80.464 Y102.695 E41.84624
G1 X78.586 Y102.695 E41.93369
G1 X77.775 Y103.506 E41.98709
G1 X77.775 Y105.384 E42.07454
G1 X78.586 Y106.195 E42.12795
G1 X80.464 Y106.195 E42.21539
G0 F6000 X80.632 Y106.601
G1 F2700 E37.21539
G0 F6000 X81.867 Y105.63
G0 X80.414 Y105.027
G0 X158.682 Y105.785
G0 X157.229 Y106.388
G0 X158.443 Y107.331
;TYPE:WALL-INNER
G1 F2700 E42.21539
G1 F1200 X160.598 Y107.331 E42.31574
G1 X161.621 Y106.308 E42.38311
G1 X161.621 Y104.153 E42.48345
G1 X160.598 Y103.131 E42.55079
G1 X158.443 Y103.131 E42.65113
G1 X157.421 Y104.153 E42.71843
G1 X157.421 Y106.308 E42.81878
G1 X158.443 Y107.331 E42.88611
G0 F6000 X158.609 Y106.931
;TYPE:WALL-OUTER
G1 F1200 X160.432 Y106.931 E42.971
G1 X161.221 Y106.142 E43.02295
G1 X161.221 Y104.319 E43.10784
G1 X160.432 Y103.531 E43.15977
G1 X158.609 Y103.531 E43.24465
G1 X157.821 Y104.319 E43.29654
G1 X157.821 Y106.142 E43.38143
G1 X158.609 Y106.931 E43.43335
G0 F6000 X158.441 Y107.337
G1 F2700 E38.43335
G0 F6000 X157.229 Y106.388
G0 X157.229 Y108.421
G0 X84.059 Y108.792
G0 X83.087 Y108.998
G0 X79.385 Y110.42
;TYPE:WALL-INNER
G1 F2700 E43.43335
G1 F1200 X76.812 Y109.772 E43.5569
G1 X73.684 Y105.713 E43.79552
G1 X73.71 Y103.061 E43.91901
G1 X76.918 Y99.066 E44.15759
G1 X79.503 Y98.468 E44.28114
G1 X82.894 Y100.062 E44.45561
G1 X84.123 Y100.349 E44.51438
G1 X161.534 Y101.869 E48.11965
G1 X162.939 Y103.317 E48.2136
G1 X162.903 Y107.211 E48.39493
G1 X161.469 Y108.631 E48.4889
G1 X84.042 Y108.631 E52.09423
G1 X82.808 Y108.894 E52.15298
G1 X79.385 Y110.42 E52.32749
G0 F6000 X79.421 Y110.842
;TYPE:WALL-OUTER
G1 F1200 X76.58 Y110.126 E52.46391
