;FLAVOR:Marlin
;TIME:14936
;Filament used: 14.9151m
;Layer height: 0.28
;MINX:38.556
;MINY:41.816
;MINZ:0.28
;MAXX:199.156
;MAXY:206.46
;MAXZ:3.08
;Generated with Cura_SteamEngine 4.11.0
M140 S50
M105
M190 S50
M104 S200
M105
M109 S200
M82 ;absolute extrusion mode
; Ender 3 Custom Start G-code
G92 E0 ; Reset Extruder
G28 ; Home all axes
G1 Z2.0 F3000 ; Move Z Axis up little to prevent scratching of Heat Bed
G1 X0.1 Y20 Z0.3 F5000.0 ; Move to start position
G1 X0.1 Y200.0 Z0.3 F1500.0 E15 ; Draw the first line
G1 X0.4 Y200.0 Z0.3 F5000.0 ; Move to side a little
G1 X0.4 Y20 Z0.3 F1500.0 E30 ; Draw the second line
G92 E0 ; Reset Extruder
G1 Z2.0 F3000 ; Move Z Axis up little to prevent scratching of Heat Bed
G1 X5 Y20 Z0.3 F5000.0 ; Move over to prevent blob squish
G92 E0
G92 E0
G1 F2700 E-5
;LAYER_COUNT:11
;LAYER:0
M107
G0 F6000 X73.069 Y71.421 Z0.28
;TYPE:SKIRT
G1 F2700 E0
G1 F1200 X73.622 Y70.858 E0.03675
G1 X74.23 Y70.353 E0.07355
G1 X75.004 Y69.843 E0.11671
G1 X79.132 Y67.461 E0.33863
G1 X79.835 Y67.102 E0.37539
G1 X80.571 Y66.815 E0.41217
G1 X81.332 Y66.604 E0.44895
G1 X82.11 Y66.471 E0.4857
G1 X83.03 Y66.417 E0.52861
G1 X108.399 Y66.417 E1.7099
G1 X109.188 Y66.457 E1.74669
G1 X109.968 Y66.576 E1.78343
G1 X110.733 Y66.774 E1.82022
G1 X111.27 Y66.973 E1.84689
G1 X111.261 Y51.855 E2.55084
G1 X111.3 Y51.066 E2.58763
G1 X111.42 Y50.285 E2.62442
G1 X111.617 Y49.521 E2.66116
G1 X111.851 Y48.873 E2.69324
G1 X112.166 Y48.11 E2.73168
G1 X112.504 Y47.397 E2.76842
G1 X112.913 Y46.721 E2.80521
G1 X113.387 Y46.09 E2.84196
G1 X113.858 Y45.574 E2.87449
G1 X114.983 Y44.448 E2.94861
G1 X115.569 Y43.918 E2.9854
G1 X116.205 Y43.451 E3.02214
G1 X116.885 Y43.05 E3.0589
G1 X117.513 Y42.756 E3.09119
G1 X118.275 Y42.44 E3.1296
G1 X119.019 Y42.175 E3.16637
G1 X119.786 Y41.986 E3.20316
G1 X120.568 Y41.876 E3.23993
G1 X121.258 Y41.845 E3.27209
G1 X167.711 Y41.816 E5.43514
G1 X168.5 Y41.855 E5.47192
G1 X169.28 Y41.975 E5.50867
G1 X170.045 Y42.172 E5.54545
G1 X170.786 Y42.446 E5.58224
G1 X171.495 Y42.793 E5.619
G1 X172.166 Y43.21 E5.65578
G1 X172.791 Y43.692 E5.69253
G1 X173.227 Y44.096 E5.72021
G1 X174.571 Y45.438 E5.80865
G1 X175.101 Y46.024 E5.84544
G1 X175.569 Y46.66 E5.88221
G1 X175.97 Y47.34 E5.91897
G1 X176.301 Y48.058 E5.95579
G1 X176.557 Y48.805 E5.99255
G1 X176.736 Y49.574 E6.02932
G1 X176.837 Y50.357 E6.06608
G1 X176.86 Y50.953 E6.09385
G1 X176.888 Y95.86 E8.18491
G1 X186.879 Y95.86 E8.65014
G1 X187.668 Y95.9 E8.68692
G1 X188.448 Y96.019 E8.72366
G1 X189.213 Y96.217 E8.76046
G1 X189.953 Y96.491 E8.7972
G1 X190.662 Y96.839 E8.83398
G1 X191.333 Y97.257 E8.87079
G1 X191.957 Y97.74 E8.90753
G1 X192.394 Y98.145 E8.93528
G1 X196.871 Y102.622 E9.23009
G1 X197.401 Y103.208 E9.26689
G1 X197.868 Y103.844 E9.30363
G1 X198.269 Y104.524 E9.34039
G1 X198.599 Y105.242 E9.37718
G1 X198.854 Y105.989 E9.41394
G1 X199.033 Y106.758 E9.4507
G1 X199.133 Y107.542 E9.4875
G1 X199.156 Y108.137 E9.51523
G1 X199.156 Y191.313 E13.38825
G1 X199.116 Y192.102 E13.42504
G1 X198.997 Y192.882 E13.46178
G1 X198.799 Y193.647 E13.49857
G1 X198.562 Y194.3 E13.53092
G1 X197.508 Y196.843 E13.6591
G1 X197.169 Y197.556 E13.69586
G1 X196.759 Y198.231 E13.73264
G1 X196.284 Y198.862 E13.76942
G1 X195.817 Y199.372 E13.80161
G1 X192.066 Y203.122 E14.04859
G1 X191.48 Y203.651 E14.08535
G1 X190.843 Y204.119 E14.12216
G1 X190.163 Y204.519 E14.15889
G1 X189.539 Y204.811 E14.19097
G1 X186.997 Y205.865 E14.31911
G1 X186.253 Y206.13 E14.35589
G1 X185.486 Y206.319 E14.39267
G1 X184.704 Y206.429 E14.42944
G1 X184.009 Y206.46 E14.46184
G1 X53.703 Y206.46 E20.52943
G1 X52.914 Y206.42 E20.56622
G1 X52.134 Y206.301 E20.60296
G1 X51.369 Y206.103 E20.63975
G1 X50.716 Y205.866 E20.6721
G1 X48.173 Y204.812 E20.80028
G1 X47.46 Y204.473 E20.83704
G1 X46.785 Y204.063 E20.87382
G1 X46.154 Y203.588 E20.91059
G1 X45.645 Y203.122 E20.94273
G1 X41.894 Y199.372 E21.1897
G1 X41.365 Y198.786 E21.22646
G1 X40.897 Y198.15 E21.26323
G1 X40.496 Y197.469 E21.30003
G1 X40.202 Y196.84 E21.33236
G1 X39.149 Y194.297 E21.46052
G1 X38.885 Y193.553 E21.49728
G1 X38.696 Y192.786 E21.53407
G1 X38.587 Y192.004 E21.57083
G1 X38.556 Y191.313 E21.60304
G1 X38.556 Y111.007 E25.34242
G1 X38.596 Y110.218 E25.37921
G1 X38.715 Y109.438 E25.41595
G1 X38.913 Y108.673 E25.45275
G1 X39.149 Y108.023 E25.48495
G1 X40.202 Y105.48 E25.61311
G1 X40.541 Y104.767 E25.64987
G1 X40.95 Y104.091 E25.68666
G1 X41.425 Y103.46 E25.72344
G1 X41.894 Y102.949 E25.75573
G1 X45.645 Y99.198 E26.00274
G1 X46.231 Y98.668 E26.03954
G1 X46.867 Y98.201 E26.07628
G1 X47.547 Y97.8 E26.11304
G1 X48.176 Y97.506 E26.14537
G1 X50.719 Y96.453 E26.27353
G1 X51.463 Y96.189 E26.31029
G1 X52.23 Y96 E26.34707
G1 X53.012 Y95.891 E26.38384
G1 X53.703 Y95.86 E26.41605
G1 X69.333 Y95.86 E27.14384
G1 X67.682 Y92.998 E27.2977
G1 X67.323 Y92.295 E27.33445
G1 X67.036 Y91.56 E27.37119
G1 X66.825 Y90.798 E27.40801
G1 X66.692 Y90.02 E27.44476
G1 X66.638 Y89.1 E27.48768
G1 X66.638 Y84.335 E27.70955
G1 X66.678 Y83.546 E27.74634
G1 X66.797 Y82.766 E27.78308
G1 X66.995 Y82.001 E27.81988
G1 X67.269 Y81.261 E27.85662
G1 X67.682 Y80.437 E27.89954
G1 X72.146 Y72.701 E28.31543
G1 X72.575 Y72.037 E28.35224
G1 X73.069 Y71.421 E28.38901
G0 F6000 X73.394 Y71.657
G1 F1200 X73.937 Y71.112 E28.42483
G1 X74.533 Y70.626 E28.46064
G1 X75.204 Y70.19 E28.4979
G1 X79.332 Y67.808 E28.71982
G1 X80.017 Y67.458 E28.75564
G1 X80.735 Y67.182 E28.79146
G1 X81.477 Y66.982 E28.82724
G1 X82.237 Y66.86 E28.86309
G1 X83.03 Y66.817 E28.90007
G1 X108.399 Y66.817 E30.08135
G1 X109.167 Y66.857 E30.11716
G1 X109.927 Y66.976 E30.15298
G1 X110.67 Y67.174 E30.18879
G1 X111.389 Y67.448 E30.22462
G1 X111.671 Y67.59 E30.23932
G1 X111.661 Y51.855 E30.97201
G1 X111.701 Y51.086 E31.00786
G1 X111.82 Y50.327 E31.04364
G1 X112.017 Y49.583 E31.07947
G1 X112.221 Y49.026 E31.10709
G1 X112.536 Y48.263 E31.14553
G1 X112.866 Y47.568 E31.18136
G1 X113.266 Y46.912 E31.21713
G1 X113.733 Y46.3 E31.25298
G1 X114.141 Y45.857 E31.28102
G1 X115.266 Y44.731 E31.35514
G1 X115.837 Y44.216 E31.39094
G1 X116.459 Y43.763 E31.42677
G1 X117.124 Y43.376 E31.4626
G1 X117.666 Y43.125 E31.49041
G1 X118.428 Y42.809 E31.52883
G1 X119.153 Y42.552 E31.56464
G1 X119.901 Y42.371 E31.60048
G1 X120.663 Y42.269 E31.63628
G1 X121.258 Y42.245 E31.66401
G1 X167.711 Y42.216 E33.82705
G1 X168.48 Y42.255 E33.86291
G1 X169.239 Y42.375 E33.89869
G1 X169.983 Y42.572 E33.93452
G1 X170.702 Y42.845 E33.97034
G1 X171.388 Y43.192 E34.00613
G1 X172.035 Y43.608 E34.04195
G1 X172.636 Y44.088 E34.07777
G1 X172.945 Y44.38 E34.09756
G1 X174.289 Y45.722 E34.186
G1 X174.804 Y46.293 E34.22181
G1 X175.257 Y46.914 E34.2576
G1 X175.644 Y47.579 E34.29343
G1 X175.959 Y48.281 E34.32925
G1 X176.199 Y49.011 E34.36504
G1 X176.363 Y49.763 E34.40087
G1 X176.447 Y50.527 E34.43666
G1 X176.46 Y50.953 E34.45651
G1 X176.488 Y96.26 E36.56619
G1 X186.879 Y96.26 E37.05004
G1 X187.647 Y96.3 E37.08585
G1 X188.407 Y96.419 E37.12167
G1 X189.15 Y96.617 E37.15748
G1 X189.869 Y96.891 E37.1933
G1 X190.555 Y97.238 E37.2291
G1 X191.202 Y97.654 E37.26492
G1 X191.802 Y98.135 E37.30073
G1 X192.112 Y98.427 E37.32056
G1 X196.589 Y102.904 E37.61538
G1 X197.103 Y103.476 E37.65118
G1 X197.556 Y104.098 E37.68701
G1 X197.942 Y104.763 E37.72282
G1 X198.257 Y105.465 E37.75865
G1 X198.497 Y106.196 E37.79447
G1 X198.66 Y106.947 E37.83026
G1 X198.744 Y107.712 E37.86609
G1 X198.756 Y108.137 E37.88589
G1 X198.756 Y191.313 E41.75891
G1 X198.716 Y192.081 E41.79472
G1 X198.597 Y192.841 E41.83054
G1 X198.399 Y193.584 E41.86635
G1 X198.192 Y194.146 E41.89423
G1 X197.138 Y196.689 E42.02241
G1 X196.807 Y197.384 E42.05826
G1 X196.406 Y198.04 E42.09406
G1 X195.939 Y198.651 E42.12987
G1 X195.534 Y199.089 E42.15765
G1 X191.783 Y202.839 E42.40462
G1 X191.211 Y203.354 E42.44046
G1 X190.59 Y203.807 E42.47626
G1 X189.924 Y204.192 E42.51208
G1 X189.385 Y204.442 E42.53974
G1 X186.843 Y205.496 E42.66788
G1 X186.118 Y205.753 E42.7037
G1 X185.371 Y205.934 E42.73949
G1 X184.608 Y206.036 E42.77533
G1 X184.009 Y206.06 E42.80325
G1 X53.703 Y206.06 E48.87084
G1 X52.935 Y206.02 E48.90665
G1 X52.175 Y205.901 E48.94247
G1 X51.432 Y205.703 E48.97827
G1 X50.87 Y205.496 E49.00616
G1 X48.327 Y204.442 E49.13434
G1 X47.632 Y204.111 E49.17019
G1 X46.976 Y203.71 E49.20599
G1 X46.365 Y203.243 E49.2418
G1 X45.928 Y202.839 E49.26951
G1 X42.177 Y199.089 E49.51649
G1 X41.662 Y198.518 E49.55229
G1 X41.209 Y197.896 E49.58812
G1 X40.823 Y197.231 E49.62393
G1 X40.572 Y196.687 E49.65182
G1 X39.519 Y194.144 E49.77999
G1 X39.262 Y193.419 E49.8158
G1 X39.082 Y192.671 E49.85163
G1 X38.98 Y191.909 E49.88743
G1 X38.956 Y191.313 E49.9152
G1 X38.956 Y111.007 E53.65458
G1 X38.996 Y110.239 E53.69039
G1 X39.115 Y109.479 E53.72621
G1 X39.313 Y108.736 E53.76202
G1 X39.519 Y108.176 E53.7898
G1 X40.572 Y105.633 E53.91797
G1 X40.903 Y104.939 E53.95377
G1 X41.304 Y104.282 E53.98961
G1 X41.771 Y103.671 E54.02542
G1 X42.176 Y103.231 E54.05327
G1 X45.927 Y99.48 E54.30027
G1 X46.499 Y98.966 E54.33608
G1 X47.121 Y98.513 E54.37191
G1 X47.786 Y98.127 E54.40772
G1 X48.329 Y97.876 E54.43557
G1 X50.872 Y96.823 E54.56373
G1 X51.597 Y96.566 E54.59955
G1 X52.345 Y96.386 E54.63538
G1 X53.107 Y96.284 E54.67117
G1 X53.703 Y96.26 E54.69895
G1 X70.026 Y96.26 E55.45902
G1 X68.029 Y92.799 E55.64508
G1 X67.679 Y92.113 E55.68094
G1 X67.403 Y91.395 E55.71676
G1 X67.203 Y90.653 E55.75254
G1 X67.081 Y89.893 E55.78838
G1 X67.038 Y89.1 E55.82536
G1 X67.038 Y84.335 E56.04724
G1 X67.078 Y83.567 E56.08305
G1 X67.197 Y82.807 E56.11887
G1 X67.395 Y82.064 E56.15467
G1 X67.669 Y81.345 E56.1905
G1 X68.029 Y80.636 E56.22753
G1 X72.493 Y72.9 E56.64342
G1 X72.911 Y72.255 E56.67921
G1 X73.394 Y71.657 E56.715
G0 F6000 X73.72 Y71.893
G1 F1200 X74.251 Y71.367 E56.74981
G1 X74.836 Y70.901 E56.78463
G1 X75.403 Y70.536 E56.81603
G1 X79.531 Y68.154 E57.03796
G1 X80.198 Y67.815 E57.07279
G1 X80.898 Y67.55 E57.10765
G1 X81.621 Y67.36 E57.14246
G1 X82.361 Y67.249 E57.1773
G1 X83.03 Y67.217 E57.20849
G1 X108.399 Y67.217 E58.38977
G1 X109.146 Y67.257 E58.42461
G1 X109.884 Y67.376 E58.45941
G1 X110.606 Y67.574 E58.49428
G1 X111.302 Y67.847 E58.52909
G1 X111.965 Y68.194 E58.56393
G1 X112.071 Y68.265 E58.56987
G1 X112.061 Y51.854 E59.33404
G1 X112.101 Y51.107 E59.36887
G1 X112.22 Y50.369 E59.40368
G1 X112.417 Y49.647 E59.43853
G1 X112.591 Y49.179 E59.46178
G1 X112.906 Y48.416 E59.50021
G1 X113.228 Y47.741 E59.53504
G1 X113.62 Y47.104 E59.56987
G1 X114.078 Y46.512 E59.60472
G1 X114.424 Y46.139 E59.62841
G1 X115.549 Y45.013 E59.70253
G1 X116.105 Y44.513 E59.73734
G1 X116.712 Y44.075 E59.7722
G1 X117.361 Y43.705 E59.80699
G1 X117.82 Y43.495 E59.83049
G1 X118.582 Y43.179 E59.8689
G1 X119.287 Y42.93 E59.90372
G1 X120.015 Y42.757 E59.93856
G1 X120.757 Y42.663 E59.97339
G1 X121.259 Y42.645 E59.99678
G1 X167.712 Y42.616 E62.15982
G1 X168.459 Y42.656 E62.19466
G1 X169.197 Y42.775 E62.22946
G1 X169.919 Y42.972 E62.26431
G1 X170.615 Y43.245 E62.29912
G1 X171.279 Y43.59 E62.33397
G1 X171.901 Y44.005 E62.36879
G1 X172.662 Y44.663 E62.41563
G1 X174.006 Y46.005 E62.50407
G1 X174.506 Y46.561 E62.53889
G1 X174.945 Y47.167 E62.57373
G1 X175.316 Y47.817 E62.60858
G1 X175.615 Y48.502 E62.64338
G1 X175.84 Y49.216 E62.67824
G1 X175.987 Y49.949 E62.71305
G1 X176.06 Y50.954 E62.75997
G1 X176.089 Y96.66 E64.88824
G1 X186.879 Y96.66 E65.39067
G1 X187.626 Y96.7 E65.4255
G1 X188.364 Y96.819 E65.46031
G1 X189.086 Y97.017 E65.49517
G1 X189.782 Y97.29 E65.52998
G1 X190.445 Y97.637 E65.56482
G1 X191.068 Y98.052 E65.59968
G1 X191.829 Y98.71 E65.64653
G1 X196.306 Y103.187 E65.94134
G1 X196.806 Y103.744 E65.9762
G1 X197.243 Y104.35 E66.01099
G1 X197.614 Y105 E66.04584
G1 X197.913 Y105.686 E66.08068
G1 X198.137 Y106.4 E66.11553
G1 X198.284 Y107.133 E66.15034
G1 X198.356 Y108.137 E66.19721
G1 X198.356 Y191.313 E70.07023
G1 X198.316 Y192.06 E70.10506
G1 X198.197 Y192.798 E70.13987
G1 X197.999 Y193.52 E70.17473
G1 X197.823 Y193.993 E70.19823
G1 X196.769 Y196.536 E70.32641
G1 X196.446 Y197.211 E70.36126
G1 X196.053 Y197.847 E70.39607
G1 X195.594 Y198.438 E70.43091
G1 X195.251 Y198.806 E70.45434
G1 X191.5 Y202.556 E70.70132
G1 X190.944 Y203.056 E70.73614
G1 X190.337 Y203.494 E70.77099
G1 X189.687 Y203.864 E70.80582
G1 X189.232 Y204.072 E70.82911
G1 X186.69 Y205.126 E70.95725
G1 X185.985 Y205.375 E70.99206
G1 X185.257 Y205.548 E71.02691
G1 X184.515 Y205.642 E71.06173
G1 X184.009 Y205.66 E71.08531
G1 X53.703 Y205.66 E77.1529
G1 X52.956 Y205.62 E77.18774
G1 X52.218 Y205.501 E77.22255
G1 X51.496 Y205.303 E77.25741
G1 X51.023 Y205.127 E77.28091
G1 X48.48 Y204.073 E77.40909
G1 X47.805 Y203.75 E77.44393
G1 X47.169 Y203.357 E77.47874
G1 X46.578 Y202.898 E77.51359
G1 X46.211 Y202.556 E77.53695
G1 X42.46 Y198.806 E77.78392
G1 X41.96 Y198.25 E77.81874
G1 X41.522 Y197.643 E77.8536
G1 X41.152 Y196.994 E77.88838
G1 X40.942 Y196.534 E77.91193
G1 X39.889 Y193.991 E78.04009
G1 X39.64 Y193.286 E78.07491
G1 X39.468 Y192.558 E78.10974
G1 X39.374 Y191.815 E78.14461
G1 X39.356 Y191.313 E78.168
G1 X39.356 Y111.007 E81.90739
G1 X39.396 Y110.26 E81.94222
G1 X39.515 Y109.522 E81.97703
G1 X39.713 Y108.8 E82.01189
G1 X39.889 Y108.329 E82.0353
G1 X40.942 Y105.786 E82.16346
G1 X41.264 Y105.111 E82.19829
G1 X41.657 Y104.475 E82.2331
G1 X42.116 Y103.883 E82.26798
G1 X42.459 Y103.514 E82.29144
G1 X46.21 Y99.763 E82.53845
G1 X46.767 Y99.263 E82.5733
G1 X47.373 Y98.826 E82.60809
G1 X48.023 Y98.455 E82.64294
G1 X48.482 Y98.246 E82.66643
G1 X51.025 Y97.193 E82.79459
G1 X51.73 Y96.944 E82.82941
G1 X52.458 Y96.772 E82.86424
G1 X53.201 Y96.678 E82.89911
G1 X53.703 Y96.66 E82.9225
G1 X70.718 Y96.66 E83.71479
G1 X68.375 Y92.599 E83.9331
G1 X68.036 Y91.932 E83.96794
G1 X67.771 Y91.232 E84.00279
G1 X67.581 Y90.509 E84.0376
G1 X67.47 Y89.769 E84.07245
G1 X67.438 Y89.1 E84.10363
G1 X67.438 Y84.335 E84.32551
G1 X67.478 Y83.588 E84.36035
G1 X67.597 Y82.85 E84.39515
G1 X67.795 Y82.128 E84.43001
G1 X68.068 Y81.432 E84.46483
G1 X68.375 Y80.836 E84.49604
G1 X72.839 Y73.1 E84.91194
G1 X73.247 Y72.473 E84.94677
G1 X73.72 Y71.893 E84.98162
G0 F6000 X74.044 Y72.131
G1 F1200 X74.564 Y71.624 E85.01544
G1 X75.137 Y71.178 E85.04925
G1 X75.603 Y70.882 E85.07495
G1 X79.731 Y68.5 E85.29688
G1 X80.38 Y68.173 E85.33072
G1 X81.06 Y67.918 E85.36453
G1 X81.764 Y67.74 E85.39834
G1 X82.483 Y67.64 E85.43215
G1 X83.03 Y67.617 E85.45764
G1 X108.399 Y67.617 E86.63893
G1 X109.124 Y67.657 E86.67274
G1 X109.841 Y67.776 E86.70658
G1 X110.54 Y67.974 E86.74041
G1 X111.213 Y68.247 E86.77423
G1 X111.852 Y68.592 E86.80804
G1 X112.449 Y69.006 E86.84187
G1 X112.472 Y69.026 E86.84329
G1 X112.461 Y51.854 E87.64289
G1 X112.501 Y51.129 E87.6767
G1 X112.62 Y50.412 E87.71054
G1 X112.817 Y49.713 E87.74436
G1 X112.96 Y49.331 E87.76335
G1 X113.275 Y48.568 E87.80179
G1 X113.589 Y47.913 E87.83561
G1 X113.973 Y47.297 E87.86941
G1 X114.422 Y46.726 E87.90324
G1 X114.707 Y46.422 E87.92264
G1 X115.832 Y45.296 E87.99676
G1 X116.373 Y44.811 E88.03059
G1 X116.964 Y44.389 E88.0644
G1 X117.598 Y44.034 E88.09824
G1 X117.973 Y43.864 E88.11741
G1 X118.735 Y43.548 E88.15582
G1 X119.42 Y43.308 E88.18962
G1 X120.128 Y43.143 E88.22347
G1 X120.849 Y43.058 E88.25728
G1 X121.259 Y43.045 E88.27638
G1 X167.712 Y43.016 E90.43942
G1 X168.437 Y43.056 E90.47323
G1 X169.154 Y43.174 E90.50707
G1 X169.853 Y43.371 E90.54089
G1 X170.526 Y43.644 E90.5747
G1 X171.165 Y43.989 E90.60852
G1 X171.763 Y44.402 E90.64236
G1 X172.379 Y44.946 E90.68063
G1 X173.723 Y46.288 E90.76907
G1 X174.208 Y46.828 E90.80286
G1 X174.631 Y47.419 E90.8367
G1 X174.986 Y48.053 E90.87054
G1 X175.27 Y48.722 E90.90438
G1 X175.478 Y49.417 E90.93816
G1 X175.608 Y50.132 E90.972
G1 X175.66 Y50.954 E91.01035
G1 X175.689 Y97.06 E93.15724
G1 X186.879 Y97.06 E93.6783
G1 X187.604 Y97.1 E93.71211
G1 X188.321 Y97.219 E93.74595
G1 X189.02 Y97.417 E93.77978
G1 X189.693 Y97.69 E93.8136
G1 X190.332 Y98.035 E93.84741
G1 X190.929 Y98.449 E93.88124
G1 X191.546 Y98.993 E93.91954
G1 X196.023 Y103.47 E94.21436
G1 X196.507 Y104.011 E94.24816
G1 X196.93 Y104.602 E94.282
G1 X197.284 Y105.236 E94.31581
G1 X197.567 Y105.905 E94.34964
G1 X197.775 Y106.601 E94.38346
G1 X197.905 Y107.316 E94.4173
G1 X197.956 Y108.137 E94.45561
