;FLAVOR:Marlin
;TIME:8923
;Filament used: 7.80168m
;Layer height: 0.28
;MINX:27.949
;MINY:42.768
;MINZ:0.28
;MAXX:191.493
;MAXY:175.506
;MAXZ:3.08
;Generated with Cura_SteamEngine 4.11.0
M140 S50
M105
M190 S50
M104 S200
M105
M109 S200
M82 ;absolute extrusion mode
; Ender 3 Custom Start G-code
G92 E0 ; Reset Extruder
G28 ; Home all axes
G1 Z2.0 F3000 ; Move Z Axis up little to prevent scratching of Heat Bed
G1 X0.1 Y20 Z0.3 F5000.0 ; Move to start position
G1 X0.1 Y200.0 Z0.3 F1500.0 E15 ; Draw the first line
G1 X0.4 Y200.0 Z0.3 F5000.0 ; Move to side a little
G1 X0.4 Y20 Z0.3 F1500.0 E30 ; Draw the second line
G92 E0 ; Reset Extruder
G1 Z2.0 F3000 ; Move Z Axis up little to prevent scratching of Heat Bed
G1 X5 Y20 Z0.3 F5000.0 ; Move over to prevent blob squish
G92 E0
G92 E0
G1 F2700 E-5
;LAYER_COUNT:11
;LAYER:0
M107
G0 F6000 X89.576 Y46.785 Z0.28
;TYPE:SKIRT
G1 F2700 E0
G1 F1200 X89.994 Y46.114 E0.03681
G1 X90.477 Y45.49 E0.07355
G1 X91.02 Y44.917 E0.11031
G1 X91.619 Y44.402 E0.1471
G1 X92.267 Y43.951 E0.18386
G1 X92.958 Y43.567 E0.22067
G1 X93.683 Y43.255 E0.25742
G1 X94.436 Y43.018 E0.29418
G1 X95.21 Y42.859 E0.33097
G1 X95.995 Y42.778 E0.36772
G1 X96.397 Y42.768 E0.38645
G1 X109.397 Y42.768 E0.99178
G1 X110.186 Y42.808 E1.02857
G1 X110.966 Y42.927 E1.06531
G1 X111.731 Y43.125 E1.1021
G1 X112.471 Y43.399 E1.13885
G1 X113.18 Y43.747 E1.17562
G1 X113.851 Y44.165 E1.21243
G1 X114.475 Y44.648 E1.24918
G1 X115.048 Y45.191 E1.28593
G1 X115.544 Y45.768 E1.32136
G1 X125.262 Y45.768 E1.77388
G1 X125.477 Y45.49 E1.79024
G1 X126.02 Y44.917 E1.827
G1 X126.619 Y44.402 E1.86378
G1 X127.267 Y43.951 E1.90054
G1 X127.958 Y43.567 E1.93735
G1 X128.683 Y43.255 E1.97411
G1 X129.436 Y43.018 E2.01087
G1 X130.21 Y42.859 E2.04766
G1 X130.995 Y42.778 E2.08441
G1 X131.397 Y42.768 E2.10313
G1 X141.397 Y42.768 E2.56877
G1 X142.186 Y42.808 E2.60556
G1 X142.966 Y42.927 E2.6423
G1 X143.731 Y43.125 E2.67909
G1 X144.471 Y43.399 E2.71584
G1 X145.18 Y43.747 E2.75261
G1 X145.851 Y44.165 E2.78943
G1 X146.475 Y44.648 E2.82617
G1 X147.048 Y45.191 E2.86293
G1 X147.563 Y45.79 E2.89971
G1 X148.014 Y46.438 E2.93647
G1 X148.398 Y47.129 E2.97328
G1 X148.71 Y47.854 E3.01004
G1 X148.947 Y48.607 E3.04679
G1 X149.106 Y49.381 E3.08359
G1 X149.187 Y50.166 E3.12033
G1 X149.197 Y50.568 E3.13906
G1 X149.197 Y67.638 E3.93391
G1 X155.214 Y67.638 E4.21409
G1 X156.003 Y67.678 E4.25087
G1 X156.783 Y67.797 E4.28761
G1 X157.548 Y67.995 E4.32441
G1 X158.288 Y68.269 E4.36115
G1 X158.997 Y68.617 E4.39793
G1 X159.668 Y69.035 E4.43474
G1 X160.292 Y69.518 E4.47148
G1 X160.729 Y69.923 E4.49923
G1 X163.415 Y72.609 E4.67611
G1 X163.945 Y73.195 E4.7129
G1 X164.412 Y73.831 E4.74964
G1 X164.813 Y74.511 E4.7864
G1 X165.143 Y75.229 E4.82319
G1 X165.398 Y75.976 E4.85995
G1 X165.577 Y76.745 E4.89671
G1 X165.677 Y77.529 E4.93351
G1 X165.7 Y78.124 E4.96124
G1 X165.7 Y81.994 E5.14144
G1 X183.693 Y81.994 E5.97927
G1 X184.482 Y82.034 E6.01606
G1 X185.262 Y82.153 E6.0528
G1 X186.027 Y82.351 E6.08959
G1 X186.767 Y82.625 E6.12634
G1 X187.476 Y82.973 E6.16311
G1 X188.147 Y83.391 E6.19993
G1 X188.771 Y83.874 E6.23667
G1 X189.344 Y84.417 E6.27343
G1 X189.859 Y85.016 E6.31021
G1 X190.31 Y85.664 E6.34697
G1 X190.694 Y86.355 E6.38378
G1 X191.006 Y87.08 E6.42054
G1 X191.243 Y87.833 E6.4573
G1 X191.402 Y88.607 E6.49409
G1 X191.483 Y89.392 E6.53084
G1 X191.493 Y89.794 E6.54956
G1 X191.493 Y97.794 E6.92207
G1 X191.453 Y98.583 E6.95886
G1 X191.334 Y99.363 E6.9956
G1 X191.136 Y100.128 E7.0324
G1 X190.862 Y100.868 E7.06914
G1 X190.514 Y101.577 E7.10592
G1 X190.096 Y102.248 E7.14273
G1 X189.613 Y102.872 E7.17947
G1 X189.07 Y103.445 E7.21623
G1 X188.493 Y103.941 E7.25166
G1 X188.493 Y122.29 E8.10607
G1 X188.453 Y123.079 E8.14285
G1 X188.342 Y123.809 E8.17723
G1 X188.402 Y124.103 E8.19121
G1 X188.483 Y124.888 E8.22795
G1 X188.493 Y125.285 E8.24644
G1 X188.771 Y125.5 E8.26281
G1 X189.344 Y126.043 E8.29957
G1 X189.859 Y126.642 E8.33635
G1 X190.31 Y127.29 E8.37311
G1 X190.694 Y127.981 E8.40992
G1 X191.006 Y128.706 E8.44668
G1 X191.243 Y129.459 E8.48343
G1 X191.402 Y130.233 E8.52023
G1 X191.483 Y131.018 E8.55698
G1 X191.493 Y131.42 E8.5757
G1 X191.493 Y136.794 E8.82594
G1 X191.453 Y137.583 E8.86272
G1 X191.334 Y138.363 E8.89946
G1 X191.136 Y139.128 E8.93626
G1 X190.862 Y139.868 E8.973
G1 X190.514 Y140.577 E9.00978
G1 X190.096 Y141.248 E9.04659
G1 X189.613 Y141.872 E9.08333
G1 X189.07 Y142.445 E9.12009
G1 X188.471 Y142.96 E9.15687
G1 X187.823 Y143.411 E9.19364
G1 X187.132 Y143.795 E9.23045
G1 X186.407 Y144.107 E9.2672
G1 X185.654 Y144.344 E9.30396
G1 X184.88 Y144.503 E9.34075
G1 X184.493 Y144.543 E9.35887
G1 X184.493 Y149.794 E9.60338
G1 X184.453 Y150.583 E9.64016
G1 X184.334 Y151.363 E9.6769
G1 X184.136 Y152.128 E9.7137
G1 X183.862 Y152.868 E9.75044
G1 X183.514 Y153.577 E9.78722
G1 X183.096 Y154.248 E9.82403
G1 X182.613 Y154.872 E9.86077
G1 X182.07 Y155.445 E9.89753
G1 X181.471 Y155.96 E9.93432
G1 X180.823 Y156.411 E9.97108
G1 X180.132 Y156.795 E10.00789
G1 X179.407 Y157.107 E10.04464
G1 X178.654 Y157.344 E10.0814
G1 X177.88 Y157.503 E10.11819
G1 X177.095 Y157.584 E10.15494
G1 X176.693 Y157.594 E10.17366
G1 X165.7 Y157.594 E10.68554
G1 X165.7 Y163.581 E10.96432
G1 X165.66 Y164.37 E11.00111
G1 X165.541 Y165.15 E11.03785
G1 X165.343 Y165.915 E11.07465
G1 X165.069 Y166.655 E11.11139
G1 X164.657 Y167.478 E11.15425
G1 X163.514 Y169.46 E11.26078
G1 X163.085 Y170.123 E11.29755
G1 X162.592 Y170.739 E11.33429
G1 X162.039 Y171.303 E11.37107
G1 X161.431 Y171.807 E11.40785
G1 X160.656 Y172.319 E11.4511
G1 X156.943 Y174.462 E11.65072
G1 X156.24 Y174.821 E11.68748
G1 X155.504 Y175.108 E11.72426
G1 X154.743 Y175.319 E11.76103
G1 X153.965 Y175.451 E11.79778
G1 X153.044 Y175.506 E11.84074
G1 X150.756 Y175.506 E11.94728
G1 X149.967 Y175.466 E11.98406
G1 X149.187 Y175.347 E12.02081
G1 X148.422 Y175.149 E12.0576
G1 X147.682 Y174.875 E12.09434
G1 X146.857 Y174.462 E12.1373
G1 X143.144 Y172.319 E12.33693
G1 X142.481 Y171.89 E12.3737
G1 X141.865 Y171.396 E12.41047
G1 X141.301 Y170.842 E12.44728
G1 X140.797 Y170.235 E12.48402
G1 X140.286 Y169.46 E12.52724
G1 X139.143 Y167.478 E12.63378
G1 X138.784 Y166.774 E12.67058
G1 X138.497 Y166.039 E12.70732
G1 X138.287 Y165.277 E12.74412
G1 X138.154 Y164.499 E12.78088
G1 X138.1 Y163.581 E12.8237
G1 X138.1 Y155.505 E13.19975
G1 X92.991 Y155.505 E15.30021
G1 X92.202 Y155.465 E15.337
G1 X91.422 Y155.346 E15.37374
G1 X90.657 Y155.148 E15.41053
G1 X89.917 Y154.874 E15.44728
G1 X89.208 Y154.526 E15.48405
G1 X88.537 Y154.108 E15.52086
G1 X87.913 Y153.625 E15.55761
G1 X87.34 Y153.082 E15.59437
G1 X86.825 Y152.483 E15.63115
G1 X86.374 Y151.835 E15.66791
G1 X85.99 Y151.144 E15.70472
G1 X85.678 Y150.419 E15.74148
G1 X85.466 Y149.747 E15.77429
G1 X84.946 Y150.146 E15.80481
G1 X84.274 Y150.56 E15.84156
G1 X83.564 Y150.905 E15.87832
G1 X82.822 Y151.176 E15.9151
G1 X82.057 Y151.371 E15.95186
G1 X81.215 Y151.493 E15.99148
G1 X76.148 Y151.947 E16.22836
G1 X75.359 Y151.977 E16.26513
G1 X74.571 Y151.928 E16.30189
G1 X73.792 Y151.799 E16.33866
G1 X73.03 Y151.592 E16.37543
G1 X72.292 Y151.309 E16.41223
G1 X71.537 Y150.924 E16.45169
G1 X69.135 Y149.53 E16.58101
G1 X68.473 Y149.1 E16.61777
G1 X67.858 Y148.605 E16.65453
G1 X67.296 Y148.05 E16.69131
G1 X66.793 Y147.441 E16.72809
G1 X66.354 Y146.784 E16.76488
G1 X65.956 Y146.027 E16.80471
G1 X64.136 Y142.047 E17.00849
G1 X63.866 Y141.818 E17.02497
G1 X62.367 Y141.378 E17.09772
G1 X36.73 Y134.509 E18.33359
G1 X35.979 Y134.267 E18.37033
G1 X35.256 Y133.949 E18.40711
G1 X34.569 Y133.56 E18.44387
G1 X33.924 Y133.104 E18.48065
G1 X33.329 Y132.584 E18.51745
G1 X32.79 Y132.008 E18.55418
G1 X32.311 Y131.379 E18.591
G1 X31.899 Y130.706 E18.62774
G1 X31.557 Y129.994 E18.66452
G1 X31.289 Y129.251 E18.7013
G1 X31.172 Y128.782 E18.72381
G1 X30.671 Y128.395 E18.75329
G1 X30.098 Y127.852 E18.79004
G1 X29.583 Y127.253 E18.82683
G1 X29.132 Y126.605 E18.86359
G1 X28.748 Y125.914 E18.9004
G1 X28.436 Y125.189 E18.93715
G1 X28.199 Y124.436 E18.97391
G1 X28.04 Y123.662 E19.0107
G1 X27.959 Y122.877 E19.04745
G1 X27.949 Y122.475 E19.06618
G1 X27.949 Y112.475 E19.53182
G1 X27.989 Y111.686 E19.5686
G1 X28.108 Y110.906 E19.60534
G1 X28.306 Y110.141 E19.64214
G1 X28.58 Y109.401 E19.67888
G1 X28.928 Y108.692 E19.71566
G1 X29.346 Y108.021 E19.75247
G1 X29.829 Y107.397 E19.78921
G1 X30.372 Y106.824 E19.82597
G1 X30.971 Y106.309 E19.86276
G1 X31.619 Y105.858 E19.89952
G1 X32.31 Y105.474 E19.93633
G1 X32.762 Y105.28 E19.95923
G1 X32.902 Y104.901 E19.97805
G1 X33.25 Y104.192 E20.01482
G1 X33.668 Y103.521 E20.05163
G1 X34.151 Y102.897 E20.08838
G1 X34.694 Y102.324 E20.12514
G1 X35.293 Y101.809 E20.16192
G1 X35.941 Y101.358 E20.19868
G1 X36.632 Y100.974 E20.23549
G1 X37.357 Y100.662 E20.27224
G1 X38.11 Y100.425 E20.309
G1 X38.884 Y100.266 E20.3458
G1 X39.669 Y100.185 E20.38254
G1 X40.071 Y100.175 E20.40127
G1 X47.471 Y100.175 E20.74584
G1 X48.26 Y100.215 E20.78263
G1 X49.04 Y100.334 E20.81937
G1 X49.805 Y100.532 E20.85616
G1 X50.545 Y100.806 E20.89291
G1 X51.254 Y101.154 E20.92969
G1 X51.925 Y101.572 E20.9665
G1 X52.549 Y102.055 E21.00324
G1 X53.122 Y102.598 E21.04
G1 X53.618 Y103.175 E21.07543
G1 X54.949 Y103.175 E21.13741
G1 X55.738 Y103.215 E21.17419
G1 X56.518 Y103.334 E21.21093
G1 X57.283 Y103.532 E21.24773
G1 X58.023 Y103.806 E21.28447
G1 X58.732 Y104.154 E21.32125
G1 X59.403 Y104.572 E21.35806
G1 X60.027 Y105.055 E21.3948
G1 X60.6 Y105.598 E21.43156
G1 X60.666 Y105.675 E21.43628
G1 X64.239 Y105.675 E21.60266
G1 X64.572 Y105.324 E21.62519
G1 X65.171 Y104.809 E21.66197
G1 X65.819 Y104.358 E21.69873
G1 X66.51 Y103.974 E21.73554
G1 X67.235 Y103.662 E21.77229
G1 X67.988 Y103.425 E21.80905
G1 X68.762 Y103.266 E21.84585
G1 X69.547 Y103.185 E21.88259
G1 X69.851 Y103.177 E21.89675
G1 X70.068 Y102.897 E21.91325
G1 X70.611 Y102.324 E21.95001
G1 X71.21 Y101.809 E21.98679
G1 X71.858 Y101.358 E22.02355
G1 X72.549 Y100.974 E22.06036
G1 X73.274 Y100.662 E22.09712
G1 X74.027 Y100.425 E22.13387
G1 X74.801 Y100.266 E22.17067
G1 X75.586 Y100.185 E22.20741
G1 X75.988 Y100.175 E22.22614
G1 X84.989 Y100.175 E22.64526
G1 X85.778 Y100.215 E22.68205
G1 X86.543 Y100.332 E22.71809
G1 X86.657 Y100.099 E22.73016
G1 X87.075 Y99.428 E22.76697
G1 X87.558 Y98.804 E22.80372
G1 X88.101 Y98.231 E22.84048
G1 X88.597 Y97.805 E22.87092
G1 X88.597 Y80.068 E23.69683
G1 X88.637 Y79.279 E23.73362
G1 X88.748 Y78.549 E23.768
G1 X88.688 Y78.255 E23.78197
G1 X88.607 Y77.47 E23.81872
G1 X88.597 Y77.068 E23.83744
G1 X88.597 Y50.568 E25.07139
G1 X88.637 Y49.779 E25.10818
G1 X88.756 Y48.999 E25.14492
G1 X88.954 Y48.234 E25.18172
G1 X89.228 Y47.494 E25.21846
G1 X89.576 Y46.785 E25.25524
G0 F6000 X89.975 Y46.892
G1 F1200 X90.391 Y46.245 E25.29105
G1 X90.872 Y45.645 E25.32686
G1 X91.413 Y45.098 E25.36269
G1 X92.008 Y44.61 E25.39852
G1 X92.65 Y44.187 E25.43432
G1 X93.333 Y43.832 E25.47016
G1 X94.048 Y43.551 E25.50593
G1 X94.79 Y43.345 E25.54179
G1 X95.548 Y43.217 E25.57759
G1 X96.397 Y43.168 E25.61718
G1 X109.397 Y43.168 E26.22252
G1 X110.165 Y43.208 E26.25833
G1 X110.925 Y43.327 E26.29415
G1 X111.668 Y43.525 E26.32995
G1 X112.387 Y43.799 E26.36578
G1 X113.073 Y44.146 E26.40158
G1 X113.72 Y44.562 E26.4374
G1 X114.32 Y45.043 E26.4732
G1 X114.867 Y45.584 E26.50903
G1 X115.346 Y46.168 E26.5442
G1 X125.453 Y46.168 E27.01482
G1 X125.872 Y45.645 E27.04603
G1 X126.413 Y45.098 E27.08185
G1 X127.008 Y44.61 E27.11768
G1 X127.65 Y44.187 E27.15348
G1 X128.333 Y43.832 E27.18933
G1 X129.048 Y43.551 E27.2251
G1 X129.79 Y43.345 E27.26095
G1 X130.548 Y43.217 E27.29675
G1 X131.397 Y43.168 E27.33635
G1 X141.397 Y43.168 E27.80199
G1 X142.165 Y43.208 E27.8378
G1 X142.925 Y43.327 E27.87362
G1 X143.668 Y43.525 E27.90943
G1 X144.387 Y43.799 E27.94525
G1 X145.073 Y44.146 E27.98105
G1 X145.72 Y44.562 E28.01687
G1 X146.32 Y45.043 E28.05268
G1 X146.867 Y45.584 E28.0885
G1 X147.355 Y46.179 E28.12433
G1 X147.778 Y46.821 E28.16013
G1 X148.133 Y47.504 E28.19597
G1 X148.414 Y48.219 E28.23175
G1 X148.62 Y48.961 E28.2676
G1 X148.748 Y49.719 E28.3034
G1 X148.797 Y50.568 E28.343
G1 X148.797 Y68.038 E29.15647
G1 X155.214 Y68.038 E29.45528
G1 X155.982 Y68.078 E29.49109
G1 X156.742 Y68.197 E29.52691
G1 X157.485 Y68.395 E29.56271
G1 X158.204 Y68.669 E29.59854
G1 X158.89 Y69.016 E29.63434
G1 X159.537 Y69.432 E29.67015
G1 X160.137 Y69.913 E29.70596
G1 X160.447 Y70.205 E29.72579
G1 X163.133 Y72.891 E29.90267
G1 X163.647 Y73.463 E29.93848
G1 X164.1 Y74.085 E29.97431
G1 X164.486 Y74.75 E30.01011
G1 X164.801 Y75.452 E30.04594
G1 X165.041 Y76.183 E30.08177
G1 X165.204 Y76.934 E30.11755
G1 X165.288 Y77.699 E30.15339
G1 X165.3 Y78.124 E30.17318
G1 X165.3 Y82.394 E30.37201
G1 X183.693 Y82.394 E31.22847
G1 X184.461 Y82.434 E31.26428
G1 X185.221 Y82.553 E31.3001
G1 X185.964 Y82.751 E31.3359
G1 X186.683 Y83.025 E31.37173
G1 X187.369 Y83.372 E31.40753
G1 X188.016 Y83.788 E31.44334
G1 X188.616 Y84.269 E31.47915
G1 X189.163 Y84.81 E31.51498
G1 X189.651 Y85.405 E31.55081
G1 X190.074 Y86.047 E31.58661
G1 X190.429 Y86.73 E31.62245
G1 X190.71 Y87.445 E31.65822
G1 X190.916 Y88.187 E31.69408
G1 X191.044 Y88.945 E31.72988
G1 X191.093 Y89.794 E31.76947
G1 X191.093 Y97.794 E32.14199
G1 X191.053 Y98.562 E32.1778
G1 X190.934 Y99.322 E32.21362
G1 X190.736 Y100.065 E32.24942
G1 X190.462 Y100.784 E32.28525
G1 X190.115 Y101.47 E32.32105
G1 X189.699 Y102.117 E32.35686
G1 X189.218 Y102.717 E32.39267
G1 X188.677 Y103.264 E32.4285
G1 X188.093 Y103.743 E32.46367
G1 X188.093 Y122.29 E33.32729
G1 X188.053 Y123.058 E33.3631
G1 X187.936 Y123.803 E33.39822
G1 X188.044 Y124.441 E33.42835
G1 X188.093 Y125.29 E33.46795
G1 X188.093 Y125.476 E33.47661
G1 X188.616 Y125.895 E33.50781
G1 X189.163 Y126.436 E33.54364
G1 X189.651 Y127.031 E33.57947
G1 X190.074 Y127.673 E33.61527
G1 X190.429 Y128.356 E33.65111
G1 X190.71 Y129.071 E33.68688
G1 X190.916 Y129.813 E33.72274
G1 X191.044 Y130.571 E33.75854
G1 X191.093 Y131.42 E33.79814
G1 X191.093 Y136.794 E34.04837
G1 X191.053 Y137.562 E34.08418
G1 X190.934 Y138.322 E34.12
G1 X190.736 Y139.065 E34.15581
G1 X190.462 Y139.784 E34.19163
G1 X190.115 Y140.47 E34.22743
G1 X189.699 Y141.117 E34.26325
G1 X189.218 Y141.717 E34.29906
G1 X188.677 Y142.264 E34.33488
G1 X188.082 Y142.752 E34.37071
G1 X187.44 Y143.175 E34.40651
G1 X186.757 Y143.53 E34.44235
G1 X186.042 Y143.811 E34.47813
G1 X185.3 Y144.017 E34.51398
G1 X184.542 Y144.145 E34.54978
G1 X184.093 Y144.171 E34.57072
G1 X184.093 Y149.794 E34.83255
G1 X184.053 Y150.562 E34.86836
G1 X183.934 Y151.322 E34.90418
G1 X183.736 Y152.065 E34.93999
G1 X183.462 Y152.784 E34.97582
G1 X183.115 Y153.47 E35.01161
G1 X182.699 Y154.117 E35.04743
G1 X182.218 Y154.717 E35.08324
G1 X181.677 Y155.264 E35.11906
G1 X181.082 Y155.752 E35.15489
G1 X180.44 Y156.175 E35.19069
G1 X179.757 Y156.53 E35.22654
G1 X179.042 Y156.811 E35.26231
G1 X178.3 Y157.017 E35.29817
G1 X177.542 Y157.145 E35.33396
G1 X176.693 Y157.194 E35.37356
G1 X165.3 Y157.194 E35.90407
G1 X165.3 Y163.581 E36.20147
G1 X165.26 Y164.349 E36.23728
G1 X165.141 Y165.109 E36.2731
G1 X164.943 Y165.852 E36.30891
G1 X164.669 Y166.571 E36.34473
G1 X164.31 Y167.278 E36.38166
G1 X163.167 Y169.26 E36.48819
G1 X162.749 Y169.905 E36.52398
G1 X162.266 Y170.504 E36.55981
G1 X161.723 Y171.049 E36.59564
G1 X161.127 Y171.535 E36.63145
G1 X160.456 Y171.972 E36.66873
G1 X156.743 Y174.115 E36.86835
G1 X156.058 Y174.464 E36.90415
G1 X155.34 Y174.741 E36.93999
G1 X154.597 Y174.941 E36.97582
G1 X153.838 Y175.063 E37.01161
G1 X153.044 Y175.106 E37.04864
G1 X150.756 Y175.106 E37.15518
G1 X149.988 Y175.066 E37.19099
G1 X149.228 Y174.947 E37.22681
G1 X148.485 Y174.749 E37.26261
G1 X147.766 Y174.475 E37.29844
G1 X147.057 Y174.115 E37.33547
G1 X143.344 Y171.972 E37.53509
G1 X142.699 Y171.554 E37.57088
G1 X142.1 Y171.07 E37.60674
G1 X141.555 Y170.527 E37.64256
G1 X141.07 Y169.931 E37.67834
G1 X140.633 Y169.26 E37.71563
G1 X139.49 Y167.278 E37.82216
G1 X139.14 Y166.592 E37.85802
G1 X138.864 Y165.875 E37.8938
G1 X138.664 Y165.132 E37.92963
G1 X138.542 Y164.372 E37.96547
G1 X138.5 Y163.581 E38.00235
G1 X138.5 Y155.105 E38.39703
G1 X92.991 Y155.105 E40.51612
G1 X92.223 Y155.065 E40.55193
G1 X91.463 Y154.946 E40.58775
