;FLAVOR:Marlin
;TIME:2246
;Filament used: 1.85686m
;Layer height: 0.28
;MINX:46.447
;MINY:80.174
;MINZ:0.28
;MAXX:191.464
;MAXY:143.796
;MAXZ:3.08
;Generated with Cura_SteamEngine 4.11.0
M140 S50
M105
M190 S50
M104 S200
M105
M109 S200
M82 ;absolute extrusion mode
; Ender 3 Custom Start G-code
G92 E0 ; Reset Extruder
G28 ; Home all axes
G1 Z2.0 F3000 ; Move Z Axis up little to prevent scratching of Heat Bed
G1 X0.1 Y20 Z0.3 F5000.0 ; Move to start position
G1 X0.1 Y200.0 Z0.3 F1500.0 E15 ; Draw the first line
G1 X0.4 Y200.0 Z0.3 F5000.0 ; Move to side a little
G1 X0.4 Y20 Z0.3 F1500.0 E30 ; Draw the second line
G92 E0 ; Reset Extruder
G1 Z2.0 F3000 ; Move Z Axis up little to prevent scratching of Heat Bed
G1 X5 Y20 Z0.3 F5000.0 ; Move over to prevent blob squish
G92 E0
G92 E0
G1 F2700 E-5
;LAYER_COUNT:11
;LAYER:0
M107
G0 F6000 X53.702 Y84.438 Z0.28
;TYPE:SKIRT
G1 F2700 E0
G1 F1200 X54.533 Y84.003 E0.04368
G1 X55.398 Y83.641 E0.08734
G1 X56.291 Y83.353 E0.13103
G1 X57.205 Y83.143 E0.1747
G1 X58.133 Y83.012 E0.21834
G1 X58.723 Y82.97 E0.24588
G1 X59.215 Y82.951 E0.26881
G1 X59.539 Y82.944 E0.2839
G1 X121.87 Y82.124 E3.18654
G1 X124.475 Y82.053 E3.30789
G1 X126.994 Y81.913 E3.42536
G1 X129.488 Y81.703 E3.5419
G1 X131.979 Y81.423 E3.65863
G1 X134.493 Y81.068 E3.77685
G1 X136.979 Y80.644 E3.89428
G1 X137.705 Y80.503 E3.92872
G1 X138.472 Y80.365 E3.96501
G1 X139.401 Y80.238 E4.00867
G1 X140.013 Y80.199 E4.03722
G1 X140.283 Y80.189 E4.0498
G1 X140.616 Y80.181 E4.06531
G1 X141.656 Y80.174 E4.11374
G1 X142.543 Y80.182 E4.15504
G1 X143.479 Y80.231 E4.19869
G1 X144.386 Y80.356 E4.24132
G1 X145.639 Y80.582 E4.30061
G1 X148.165 Y81.003 E4.41985
G1 X150.71 Y81.353 E4.53947
G1 X153.164 Y81.62 E4.65441
G1 X155.706 Y81.824 E4.77316
G1 X158.205 Y81.954 E4.88968
G1 X160.757 Y82.013 E5.00855
G1 X178.04 Y82.178 E5.81335
G1 X178.914 Y82.198 E5.85406
G1 X179.85 Y82.26 E5.89774
G1 X180.777 Y82.402 E5.94141
G1 X181.689 Y82.622 E5.98509
G1 X182.578 Y82.919 E6.02874
G1 X183.439 Y83.29 E6.07239
G1 X184.266 Y83.734 E6.1161
G1 X185.051 Y84.246 E6.15974
G1 X185.79 Y84.824 E6.20343
G1 X186.28 Y85.268 E6.23422
G1 X187.045 Y86.004 E6.28365
G1 X187.205 Y86.161 E6.29409
G1 X187.798 Y86.757 E6.33323
G1 X188.307 Y87.281 E6.36725
G1 X188.931 Y87.981 E6.41092
G1 X189.494 Y88.731 E6.45458
G1 X189.99 Y89.527 E6.49826
G1 X190.417 Y90.362 E6.54193
G1 X190.771 Y91.231 E6.58562
G1 X191.05 Y92.126 E6.62927
G1 X191.251 Y93.042 E6.67294
G1 X191.374 Y93.972 E6.71662
G1 X191.413 Y94.638 E6.74769
G1 X191.442 Y95.676 E6.79604
G1 X191.446 Y95.909 E6.80689
G1 X191.464 Y98.735 E6.93848
G1 X191.459 Y99.383 E6.96866
G1 X191.411 Y100.32 E7.01235
G1 X191.285 Y101.249 E7.056
G1 X191.079 Y102.164 E7.09967
G1 X190.796 Y103.058 E7.14334
G1 X190.439 Y103.925 E7.187
G1 X190.008 Y104.758 E7.23067
G1 X189.508 Y105.552 E7.27436
G1 X188.943 Y106.3 E7.31801
G1 X188.514 Y106.789 E7.3483
G1 X187.796 Y107.561 E7.39739
G1 X187.632 Y107.733 E7.40846
G1 X186.974 Y108.409 E7.45239
G1 X186.493 Y108.889 E7.48403
G1 X185.802 Y109.523 E7.52769
G1 X185.059 Y110.095 E7.57136
G1 X184.27 Y110.602 E7.61503
G1 X183.44 Y111.04 E7.65873
G1 X182.577 Y111.406 E7.70238
G1 X181.427 Y111.765 E7.75847
G1 X181 Y111.873 E7.77898
G1 X178.958 Y112.36 E7.87673
G1 X176.552 Y113.006 E7.99273
G1 X174.117 Y113.735 E8.11109
G1 X171.738 Y114.519 E8.22773
G1 X169.395 Y115.367 E8.34375
G1 X167.024 Y116.302 E8.46243
G1 X164.711 Y117.29 E8.57955
G1 X162.424 Y118.344 E8.69681
G1 X160.181 Y119.456 E8.81338
G1 X157.972 Y120.63 E8.92986
G1 X155.743 Y121.897 E9.04925
G1 X153.608 Y123.191 E9.1655
G1 X151.499 Y124.552 E9.28238
G1 X149.424 Y125.977 E9.39959
G1 X147.389 Y127.461 E9.51687
G1 X145.428 Y128.978 E9.63231
G1 X143.196 Y130.834 E9.76748
G1 X142.458 Y131.438 E9.81189
G1 X141.707 Y132 E9.85556
G1 X140.912 Y132.497 E9.89922
G1 X139.82 Y133.037 E9.95595
G1 X138.825 Y133.462 E10.00633
G1 X137.961 Y133.817 E10.04982
G1 X135.641 Y134.848 E10.16804
G1 X133.393 Y135.924 E10.28409
G1 X131.122 Y137.092 E10.403
G1 X128.94 Y138.293 E10.51898
G1 X126.734 Y139.589 E10.63811
G1 X125.263 Y140.502 E10.71873
G1 X124.395 Y141.052 E10.76658
G1 X123.331 Y141.647 E10.82334
G1 X122.613 Y141.997 E10.86054
G1 X121.516 Y142.512 E10.91697
G1 X120.845 Y142.816 E10.95127
G1 X119.975 Y143.166 E10.99494
G1 X119.079 Y143.441 E11.03858
G1 X118.162 Y143.638 E11.08225
G1 X117.232 Y143.757 E11.12591
G1 X116.295 Y143.796 E11.16958
G1 X115.358 Y143.755 E11.21325
G1 X114.427 Y143.634 E11.25697
G1 X113.841 Y143.516 E11.2848
G1 X112.72 Y143.257 E11.33837
G1 X112.291 Y143.152 E11.35894
G1 X109.827 Y142.621 E11.47631
G1 X107.309 Y142.151 E11.59558
G1 X104.867 Y141.771 E11.71066
G1 X102.342 Y141.448 E11.82919
G1 X99.857 Y141.201 E11.94547
G1 X97.33 Y141.023 E12.06343
G1 X94.83 Y140.917 E12.17995
G1 X92.307 Y140.881 E12.29744
G1 X89.784 Y140.917 E12.41494
G1 X87.263 Y141.024 E12.53243
G1 X84.786 Y141.2 E12.64806
G1 X82.25 Y141.452 E12.76673
G1 X79.784 Y141.767 E12.88249
G1 X77.271 Y142.162 E13.00094
G1 X74.779 Y142.625 E13.11896
G1 X72.512 Y143.111 E13.22692
G1 X71.546 Y143.33 E13.27305
G1 X70.623 Y143.498 E13.31673
G1 X69.689 Y143.587 E13.36042
G1 X68.752 Y143.596 E13.40405
G1 X67.816 Y143.525 E13.44776
G1 X66.998 Y143.397 E13.48631
G1 X66.85 Y143.368 E13.49334
G1 X66.486 Y143.29 E13.51067
G1 X65.679 Y143.102 E13.54925
G1 X64.766 Y142.868 E13.59314
G1 X63.868 Y142.596 E13.63683
G1 X62.998 Y142.247 E13.68048
G1 X62.16 Y141.826 E13.72415
G1 X61.36 Y141.335 E13.76786
G1 X60.606 Y140.778 E13.81151
G1 X59.942 Y140.197 E13.85259
G1 X59.657 Y139.921 E13.87107
G1 X59.196 Y139.46 E13.90142
G1 X57.988 Y138.224 E13.9819
G1 X57.403 Y137.609 E14.02142
G1 X56.786 Y136.902 E14.06512
G1 X56.232 Y136.145 E14.1088
G1 X55.744 Y135.344 E14.15247
G1 X55.327 Y134.505 E14.1961
G1 X54.982 Y133.632 E14.23981
G1 X54.728 Y132.792 E14.28067
G1 X54.686 Y132.63 E14.28846
G1 X54.615 Y132.338 E14.30246
G1 X54.515 Y131.904 E14.3232
G1 X54.376 Y131.262 E14.35378
G1 X54.241 Y130.593 E14.38556
G1 X54.097 Y129.686 E14.42832
G1 X53.753 Y127.032 E14.55294
G1 X53.357 Y124.545 E14.6702
G1 X52.894 Y122.085 E14.78676
G1 X52.359 Y119.63 E14.90376
G1 X51.753 Y117.179 E15.02133
G1 X51.073 Y114.733 E15.13954
G1 X50.334 Y112.338 E15.25625
G1 X49.523 Y109.951 E15.37364
G1 X48.655 Y107.615 E15.48968
G1 X47.267 Y104.217 E15.6606
G1 X46.956 Y103.332 E15.70428
G1 X46.722 Y102.424 E15.74794
G1 X46.565 Y101.5 E15.79158
G1 X46.487 Y100.536 E15.83661
G1 X46.473 Y100.1 E15.85693
G1 X46.468 Y99.802 E15.8708
G1 X46.447 Y96.358 E16.03117
G1 X46.452 Y95.671 E16.06316
G1 X46.499 Y94.734 E16.10685
G1 X46.626 Y93.805 E16.15051
G1 X46.831 Y92.89 E16.19417
G1 X47.113 Y91.995 E16.23787
G1 X47.47 Y91.128 E16.28153
G1 X47.901 Y90.295 E16.3252
G1 X48.4 Y89.501 E16.36887
G1 X48.965 Y88.753 E16.41252
G1 X49.341 Y88.32 E16.43922
G1 X49.653 Y87.984 E16.46057
G1 X49.906 Y87.721 E16.47756
G1 X50.974 Y86.634 E16.54852
G1 X51.471 Y86.142 E16.58109
G1 X52.165 Y85.511 E16.62476
G1 X52.911 Y84.941 E16.66848
G1 X53.702 Y84.438 E16.71213
G0 F6000 X53.946 Y84.759
G1 F1200 X54.764 Y84.336 E16.75501
G1 X55.616 Y83.987 E16.79788
G1 X56.495 Y83.713 E16.84075
G1 X57.394 Y83.516 E16.88361
G1 X58.74 Y83.369 E16.94665
G1 X59.224 Y83.351 E16.96921
G1 X59.545 Y83.344 E16.98416
G1 X121.884 Y82.524 E19.88717
G1 X124.475 Y82.453 E20.00787
G1 X127.015 Y82.312 E20.12632
G1 X129.53 Y82.101 E20.24384
G1 X132.044 Y81.818 E20.36164
G1 X134.579 Y81.46 E20.48086
G1 X137.045 Y81.039 E20.59734
G1 X137.776 Y80.897 E20.63202
G1 X138.543 Y80.759 E20.66831
G1 X139.455 Y80.635 E20.71116
G1 X140.028 Y80.598 E20.7379
G1 X140.298 Y80.588 E20.75048
G1 X140.619 Y80.581 E20.76543
G1 X141.659 Y80.574 E20.81386
G1 X142.539 Y80.582 E20.85484
G1 X143.458 Y80.631 E20.89769
G1 X144.315 Y80.749 E20.93797
G1 X145.568 Y80.975 E20.99726
G1 X148.151 Y81.405 E21.11919
G1 X150.614 Y81.744 E21.23496
G1 X153.16 Y82.021 E21.35421
G1 X155.654 Y82.221 E21.47072
G1 X158.21 Y82.354 E21.58989
G1 X160.743 Y82.413 E21.70787
G1 X178.036 Y82.578 E22.51314
G1 X178.905 Y82.598 E22.55362
G1 X179.823 Y82.66 E22.59646
G1 X180.733 Y82.801 E22.63934
G1 X181.627 Y83.02 E22.6822
G1 X182.499 Y83.317 E22.7251
G1 X183.341 Y83.688 E22.76794
G1 X184.149 Y84.13 E22.81083
G1 X184.914 Y84.641 E22.85366
G1 X185.633 Y85.217 E22.89656
G1 X186.003 Y85.556 E22.91993
G1 X186.768 Y86.292 E22.96936
G1 X186.922 Y86.443 E22.9794
G1 X187.511 Y87.035 E23.01829
G1 X188.02 Y87.559 E23.0523
G1 X188.633 Y88.247 E23.09521
G1 X189.183 Y88.985 E23.13807
G1 X189.667 Y89.768 E23.18093
G1 X190.081 Y90.59 E23.22379
G1 X190.423 Y91.445 E23.26667
G1 X190.689 Y92.327 E23.30956
G1 X190.877 Y93.228 E23.35242
G1 X190.987 Y94.142 E23.39529
G1 X191.013 Y94.649 E23.41893
G1 X191.042 Y95.687 E23.46728
G1 X191.046 Y95.911 E23.47771
G1 X191.064 Y98.732 E23.60907
G1 X191.059 Y99.38 E23.63925
G1 X191.012 Y100.299 E23.6821
G1 X190.885 Y101.211 E23.72497
G1 X190.68 Y102.109 E23.76786
G1 X190.397 Y102.985 E23.81073
G1 X190.04 Y103.833 E23.85357
G1 X189.61 Y104.648 E23.89648
G1 X189.111 Y105.421 E23.93932
G1 X188.547 Y106.149 E23.9822
G1 X188.221 Y106.517 E24.0051
G1 X187.503 Y107.289 E24.05419
G1 X187.346 Y107.455 E24.06483
G1 X186.809 Y108.008 E24.10072
G1 X186.211 Y108.606 E24.1401
G1 X185.531 Y109.228 E24.18301
G1 X184.801 Y109.788 E24.22585
G1 X184.024 Y110.282 E24.26873
G1 X183.208 Y110.708 E24.31159
G1 X182.357 Y111.061 E24.35449
G1 X181.329 Y111.378 E24.40458
G1 X180.907 Y111.484 E24.42484
G1 X178.867 Y111.971 E24.5225
G1 X176.439 Y112.622 E24.63955
G1 X173.992 Y113.355 E24.7585
G1 X171.614 Y114.139 E24.87509
G1 X169.248 Y114.995 E24.99225
G1 X166.868 Y115.933 E25.11137
G1 X164.566 Y116.917 E25.22794
G1 X162.244 Y117.987 E25.34699
G1 X159.994 Y119.103 E25.46394
G1 X157.765 Y120.287 E25.58147
G1 X155.543 Y121.55 E25.70048
G1 X153.405 Y122.846 E25.81689
G1 X151.285 Y124.214 E25.93438
G1 X149.184 Y125.657 E26.05306
G1 X147.154 Y127.137 E26.17004
G1 X145.163 Y128.677 E26.28725
G1 X142.943 Y130.524 E26.42172
G1 X142.205 Y131.128 E26.46612
G1 X141.467 Y131.68 E26.50904
G1 X140.685 Y132.165 E26.55189
G1 X139.662 Y132.67 E26.60501
G1 X138.673 Y133.092 E26.65508
G1 X137.782 Y133.458 E26.69993
G1 X135.484 Y134.48 E26.81704
G1 X133.216 Y135.565 E26.93411
G1 X130.952 Y136.729 E27.05265
G1 X128.723 Y137.955 E27.1711
G1 X126.551 Y139.232 E27.28843
G1 X125.081 Y140.144 E27.36898
G1 X124.181 Y140.715 E27.41861
G1 X123.156 Y141.288 E27.47329
G1 X122.442 Y141.635 E27.51026
G1 X121.351 Y142.147 E27.56637
G1 X120.68 Y142.451 E27.60067
G1 X119.826 Y142.794 E27.64353
G1 X118.945 Y143.062 E27.68641
G1 X118.044 Y143.252 E27.72928
G1 X117.131 Y143.364 E27.77212
G1 X116.21 Y143.396 E27.81503
G1 X115.291 Y143.347 E27.85788
G1 X113.93 Y143.126 E27.92208
G1 X112.815 Y142.869 E27.97536
G1 X112.364 Y142.759 E27.99698
G1 X109.879 Y142.223 E28.11535
G1 X107.377 Y141.757 E28.23386
G1 X104.942 Y141.377 E28.34862
G1 X102.395 Y141.052 E28.46818
G1 X99.888 Y140.802 E28.58549
G1 X97.339 Y140.623 E28.70448
G1 X94.853 Y140.517 E28.82034
G1 X92.307 Y140.481 E28.93891
G1 X89.761 Y140.517 E29.05747
G1 X87.252 Y140.624 E29.17441
G1 X84.754 Y140.801 E29.29101
G1 X82.2 Y141.055 E29.41053
G1 X79.704 Y141.374 E29.5277
G1 X77.242 Y141.761 E29.64374
G1 X74.701 Y142.233 E29.76409
G1 X72.405 Y142.725 E29.87343
G1 X71.457 Y142.94 E29.91869
G1 X70.551 Y143.104 E29.96156
G1 X69.635 Y143.189 E30.0044
G1 X68.714 Y143.194 E30.04729
G1 X67.796 Y143.12 E30.09017
G1 X67.075 Y143.004 E30.12417
G1 X66.927 Y142.975 E30.1312
G1 X66.576 Y142.9 E30.14791
G1 X65.771 Y142.712 E30.1864
G1 X65.56 Y142.66 E30.19652
G1 X64.866 Y142.481 E30.2299
G1 X63.985 Y142.213 E30.27277
G1 X63.131 Y141.869 E30.31564
G1 X62.31 Y141.452 E30.35852
G1 X61.528 Y140.966 E30.4014
G1 X60.792 Y140.414 E30.44423
G1 X60.217 Y139.907 E30.47993
G1 X59.94 Y139.638 E30.49791
G1 X59.482 Y139.18 E30.52807
G1 X58.274 Y137.944 E30.60855
G1 X57.693 Y137.333 E30.64781
G1 X57.088 Y136.639 E30.69068
G1 X56.546 Y135.895 E30.73354
G1 X56.07 Y135.107 E30.77641
G1 X55.665 Y134.28 E30.81928
G1 X55.333 Y133.421 E30.86217
G1 X55.115 Y132.691 E30.89764
G1 X55.004 Y132.248 E30.91891
G1 X54.906 Y131.819 E30.9394
G1 X54.768 Y131.183 E30.9697
G1 X54.633 Y130.514 E31.00148
G1 X54.495 Y129.64 E31.04268
G1 X54.151 Y126.984 E31.16739
G1 X53.752 Y124.48 E31.28546
G1 X53.285 Y121.998 E31.40306
G1 X52.752 Y119.554 E31.51954
G1 X52.132 Y117.048 E31.63974
G1 X51.465 Y114.646 E31.75582
G1 X50.709 Y112.196 E31.87521
G1 X49.905 Y109.831 E31.99153
G1 X49.027 Y107.468 E32.10891
G1 X47.638 Y104.069 E32.27989
G1 X47.334 Y103.2 E32.32275
G1 X47.106 Y102.308 E32.36562
G1 X46.956 Y101.4 E32.40848
G1 X46.887 Y100.521 E32.44953
G1 X46.873 Y100.092 E32.46952
G1 X46.868 Y99.8 E32.48312
G1 X46.847 Y96.361 E32.64326
G1 X46.852 Y95.674 E32.67525
G1 X46.899 Y94.754 E32.71814
G1 X47.025 Y93.842 E32.76101
G1 X47.23 Y92.945 E32.80386
G1 X47.512 Y92.069 E32.84671
G1 X47.869 Y91.22 E32.88959
G1 X48.299 Y90.405 E32.9325
G1 X48.797 Y89.631 E32.97536
G1 X49.636 Y88.59 E33.03762
G1 X49.942 Y88.26 E33.05857
G1 X50.191 Y88.001 E33.0753
G1 X51.256 Y86.918 E33.14603
G1 X51.753 Y86.426 E33.17859
G1 X52.434 Y85.807 E33.22144
G1 X53.167 Y85.25 E33.26431
G1 X53.946 Y84.759 E33.30719
G0 F6000 X54.189 Y85.08
G1 F1200 X54.994 Y84.671 E33.34923
G1 X55.832 Y84.334 E33.39129
G1 X56.697 Y84.073 E33.43336
G1 X57.581 Y83.89 E33.4754
G1 X58.758 Y83.769 E33.53049
G1 X59.232 Y83.75 E33.55258
G1 X59.55 Y83.744 E33.56739
G1 X121.901 Y82.924 E36.47097
G1 X124.508 Y82.853 E36.59241
G1 X127.034 Y82.712 E36.71021
G1 X129.575 Y82.499 E36.82895
G1 X132.073 Y82.218 E36.946
G1 X134.63 Y81.856 E37.06625
G1 X137.119 Y81.432 E37.18382
G1 X137.847 Y81.29 E37.21835
G1 X138.614 Y81.152 E37.25464
G1 X139.509 Y81.032 E37.29669
G1 X140.042 Y80.998 E37.32156
G1 X140.312 Y80.988 E37.33414
G1 X140.621 Y80.981 E37.34853
G1 X141.661 Y80.974 E37.39696
G1 X142.535 Y80.982 E37.43766
G1 X143.436 Y81.03 E37.47967
G1 X144.244 Y81.143 E37.51766
G1 X145.509 Y81.371 E37.57751
G1 X148.067 Y81.798 E37.69827
G1 X150.588 Y82.144 E37.81676
G1 X153.117 Y82.419 E37.93522
G1 X155.637 Y82.621 E38.05294
G1 X158.179 Y82.753 E38.17146
G1 X160.731 Y82.813 E38.29033
G1 X178.032 Y82.978 E39.09597
G1 X178.895 Y82.998 E39.13617
G1 X179.796 Y83.059 E39.17822
G1 X180.688 Y83.2 E39.22027
G1 X181.564 Y83.419 E39.26231
G1 X182.418 Y83.715 E39.3044
G1 X183.241 Y84.085 E39.34642
G1 X184.029 Y84.526 E39.38846
G1 X184.775 Y85.036 E39.43054
G1 X185.726 Y85.845 E39.48868
G1 X186.491 Y86.581 E39.53811
G1 X186.639 Y86.726 E39.54776
G1 X187.224 Y87.314 E39.58638
G1 X187.733 Y87.838 E39.6204
G1 X188.333 Y88.513 E39.66245
G1 X188.871 Y89.238 E39.70449
G1 X189.343 Y90.009 E39.74658
G1 X189.745 Y90.818 E39.78865
G1 X190.073 Y91.659 E39.83068
G1 X190.326 Y92.526 E39.87274
G1 X190.501 Y93.412 E39.91479
G1 X190.613 Y94.66 E39.97314
G1 X190.642 Y95.698 E40.02149
G1 X190.646 Y95.914 E40.03155
G1 X190.664 Y98.729 E40.16263
G1 X190.659 Y99.377 E40.1928
G1 X190.612 Y100.279 E40.23486
G1 X190.485 Y101.173 E40.27691
G1 X190.28 Y102.052 E40.31894
G1 X189.998 Y102.91 E40.36099
G1 X189.641 Y103.74 E40.40306
G1 X189.212 Y104.535 E40.44513
G1 X188.715 Y105.288 E40.48714
G1 X187.928 Y106.245 E40.54483
G1 X187.21 Y107.017 E40.59392
G1 X187.059 Y107.176 E40.60413
G1 X186.409 Y107.843 E40.6475
G1 X185.928 Y108.323 E40.67914
G1 X185.261 Y108.932 E40.7212
G1 X184.543 Y109.48 E40.76326
G1 X183.779 Y109.962 E40.80532
G1 X182.976 Y110.374 E40.84735
G1 X182.139 Y110.714 E40.88941
G1 X181.231 Y110.99 E40.9336
G1 X180.814 Y111.094 E40.95362
G1 X178.809 Y111.572 E41.04959
G1 X176.325 Y112.239 E41.16936
G1 X173.889 Y112.968 E41.28776
G1 X171.469 Y113.767 E41.40643
G1 X169.071 Y114.634 E41.52516
G1 X166.73 Y115.556 E41.64232
G1 X164.403 Y116.551 E41.76016
G1 X162.106 Y117.609 E41.87792
G1 X159.793 Y118.756 E41.99814
G1 X157.559 Y119.943 E42.11594
G1 X155.36 Y121.193 E42.23372
G1 X153.186 Y122.511 E42.3521
G1 X151.064 Y123.881 E42.46971
G1 X148.951 Y125.332 E42.58907
G1 X146.896 Y126.83 E42.70748
G1 X144.947 Y128.338 E42.82223
G1 X142.689 Y130.214 E42.95892
G1 X141.951 Y130.818 E43.00333
G1 X141.228 Y131.359 E43.04538
G1 X140.459 Y131.833 E43.08744
G1 X139.505 Y132.302 E43.13694
