;FLAVOR:Marlin
;TIME:3798
;Filament used: 3.64445m
;Layer height: 0.28
;MINX:85.975
;MINY:54.83
;MINZ:0.28
;MAXX:155.275
;MAXY:159.767
;MAXZ:3.08
;Generated with Cura_SteamEngine 4.11.0
M140 S50
M105
M190 S50
M104 S200
M105
M109 S200
M82 ;absolute extrusion mode
; Ender 3 Custom Start G-code
G92 E0 ; Reset Extruder
G28 ; Home all axes
G1 Z2.0 F3000 ; Move Z Axis up little to prevent scratching of Heat Bed
G1 X0.1 Y20 Z0.3 F5000.0 ; Move to start position
G1 X0.1 Y200.0 Z0.3 F1500.0 E15 ; Draw the first line
G1 X0.4 Y200.0 Z0.3 F5000.0 ; Move to side a little
G1 X0.4 Y20 Z0.3 F1500.0 E30 ; Draw the second line
G92 E0 ; Reset Extruder
G1 Z2.0 F3000 ; Move Z Axis up little to prevent scratching of Heat Bed
G1 X5 Y20 Z0.3 F5000.0 ; Move over to prevent blob squish
G92 E0
G92 E0
G1 F2700 E-5
;LAYER_COUNT:11
;LAYER:0
M107
G0 F6000 X92.398 Y58.176 Z0.28
;TYPE:SKIRT
G1 F2700 E0
G1 F1200 X92.881 Y57.552 E0.03674
G1 X93.424 Y56.979 E0.0735
G1 X94.023 Y56.464 E0.11029
G1 X94.671 Y56.013 E0.14705
G1 X95.362 Y55.629 E0.18386
G1 X96.087 Y55.317 E0.22061
G1 X96.84 Y55.08 E0.25737
G1 X97.614 Y54.921 E0.29416
G1 X98.399 Y54.84 E0.33091
G1 X98.801 Y54.83 E0.34963
G1 X111.801 Y54.83 E0.95497
G1 X112.59 Y54.87 E0.99175
G1 X113.37 Y54.989 E1.02849
G1 X114.135 Y55.187 E1.06529
G1 X114.875 Y55.461 E1.10203
G1 X115.584 Y55.809 E1.13881
G1 X116.255 Y56.227 E1.17562
G1 X116.879 Y56.71 E1.21237
G1 X117.452 Y57.253 E1.24912
G1 X117.948 Y57.83 E1.28455
G1 X127.666 Y57.83 E1.73706
G1 X127.881 Y57.552 E1.75343
G1 X128.424 Y56.979 E1.79019
G1 X129.023 Y56.464 E1.82697
G1 X129.671 Y56.013 E1.86373
G1 X130.362 Y55.629 E1.90054
G1 X131.087 Y55.317 E1.9373
G1 X131.84 Y55.08 E1.97405
G1 X132.614 Y54.921 E2.01085
G1 X133.399 Y54.84 E2.04759
G1 X133.801 Y54.83 E2.06632
G1 X143.801 Y54.83 E2.53196
G1 X144.59 Y54.87 E2.56875
G1 X145.37 Y54.989 E2.60549
G1 X146.135 Y55.187 E2.64228
G1 X146.875 Y55.461 E2.67903
G1 X147.584 Y55.809 E2.7158
G1 X148.255 Y56.227 E2.75261
G1 X148.879 Y56.71 E2.78936
G1 X149.452 Y57.253 E2.82612
G1 X149.967 Y57.852 E2.8629
G1 X150.418 Y58.5 E2.89966
G1 X150.802 Y59.191 E2.93647
G1 X151.114 Y59.916 E2.97322
G1 X151.351 Y60.669 E3.00998
G1 X151.51 Y61.443 E3.04678
G1 X151.591 Y62.228 E3.08352
G1 X151.601 Y62.63 E3.10225
G1 X151.601 Y89.13 E4.3362
G1 X151.561 Y89.919 E4.37299
G1 X151.45 Y90.649 E4.40737
G1 X151.51 Y90.943 E4.42134
G1 X151.591 Y91.728 E4.45809
G1 X151.601 Y92.13 E4.47681
G1 X151.601 Y112.63 E5.43138
G1 X151.561 Y113.419 E5.46816
G1 X151.531 Y113.614 E5.47735
G1 X151.929 Y113.862 E5.49919
G1 X152.553 Y114.345 E5.53593
G1 X153.126 Y114.888 E5.57269
G1 X153.641 Y115.487 E5.60947
G1 X154.092 Y116.135 E5.64623
G1 X154.476 Y116.826 E5.68304
G1 X154.788 Y117.551 E5.7198
G1 X155.025 Y118.304 E5.75656
G1 X155.184 Y119.078 E5.79335
G1 X155.265 Y119.863 E5.8301
G1 X155.275 Y120.265 E5.84882
G1 X155.275 Y130.265 E6.31446
G1 X155.235 Y131.054 E6.35125
G1 X155.116 Y131.834 E6.38799
G1 X154.918 Y132.599 E6.42478
G1 X154.644 Y133.339 E6.46153
G1 X154.296 Y134.048 E6.4983
G1 X153.878 Y134.719 E6.53512
G1 X153.395 Y135.343 E6.57186
G1 X152.852 Y135.916 E6.60862
G1 X152.253 Y136.431 E6.6454
G1 X152.056 Y136.568 E6.65657
G1 X152.033 Y136.697 E6.66268
G1 X148.218 Y151.643 E7.38094
G1 X147.984 Y152.397 E7.4177
G1 X147.675 Y153.124 E7.45448
G1 X147.294 Y153.816 E7.49127
G1 X146.846 Y154.466 E7.52803
G1 X146.333 Y155.067 E7.56482
G1 X145.714 Y155.655 E7.60457
G1 X143.598 Y157.455 E7.73393
G1 X142.971 Y157.936 E7.77073
G1 X142.299 Y158.35 E7.80748
G1 X141.589 Y158.695 E7.84424
G1 X140.847 Y158.966 E7.88102
G1 X140.082 Y159.161 E7.91778
G1 X139.24 Y159.283 E7.9574
G1 X134.173 Y159.737 E8.19428
G1 X133.384 Y159.767 E8.23105
G1 X132.596 Y159.718 E8.26781
G1 X131.817 Y159.589 E8.30458
G1 X131.055 Y159.382 E8.34135
G1 X130.317 Y159.099 E8.37815
G1 X129.562 Y158.714 E8.41762
G1 X127.16 Y157.32 E8.54693
G1 X126.498 Y156.89 E8.58369
G1 X125.883 Y156.395 E8.62045
G1 X125.321 Y155.84 E8.65723
G1 X124.818 Y155.231 E8.69401
G1 X124.379 Y154.574 E8.7308
G1 X123.981 Y153.817 E8.77063
G1 X122.161 Y149.837 E8.97441
G1 X121.892 Y149.609 E8.99083
G1 X120.388 Y149.168 E9.06381
G1 X94.756 Y142.299 E10.29946
G1 X94.004 Y142.056 E10.33626
G1 X93.281 Y141.739 E10.37302
G1 X92.594 Y141.35 E10.40978
G1 X91.95 Y140.893 E10.44655
G1 X91.355 Y140.374 E10.48332
G1 X90.816 Y139.797 E10.52008
G1 X90.337 Y139.169 E10.55686
G1 X89.925 Y138.495 E10.59364
G1 X89.583 Y137.784 E10.63038
G1 X89.314 Y137.041 E10.66718
G1 X89.197 Y136.572 E10.68968
G1 X88.697 Y136.185 E10.71912
G1 X88.124 Y135.642 E10.75588
G1 X87.609 Y135.043 E10.79267
G1 X87.158 Y134.395 E10.82943
G1 X86.774 Y133.704 E10.86624
G1 X86.462 Y132.979 E10.90299
G1 X86.225 Y132.226 E10.93975
G1 X86.066 Y131.452 E10.97654
G1 X85.985 Y130.667 E11.01329
G1 X85.975 Y130.265 E11.03202
G1 X85.975 Y120.265 E11.49766
G1 X86.015 Y119.476 E11.53444
G1 X86.134 Y118.696 E11.57118
G1 X86.332 Y117.931 E11.60798
G1 X86.606 Y117.191 E11.64472
G1 X86.954 Y116.482 E11.6815
G1 X87.372 Y115.811 E11.71831
G1 X87.855 Y115.187 E11.75505
G1 X88.398 Y114.614 E11.79181
G1 X88.997 Y114.099 E11.8286
G1 X89.645 Y113.648 E11.86536
G1 X90.336 Y113.264 E11.90217
G1 X90.787 Y113.07 E11.92503
G1 X90.927 Y112.691 E11.94384
G1 X91.001 Y112.54 E11.95167
G1 X91.001 Y92.13 E12.90205
G1 X91.041 Y91.341 E12.93883
G1 X91.152 Y90.611 E12.97322
G1 X91.092 Y90.317 E12.98719
G1 X91.011 Y89.532 E13.02394
G1 X91.001 Y89.13 E13.04266
G1 X91.001 Y62.63 E14.27661
G1 X91.041 Y61.841 E14.3134
G1 X91.16 Y61.061 E14.35014
G1 X91.358 Y60.296 E14.38693
G1 X91.632 Y59.556 E14.42368
G1 X91.98 Y58.847 E14.46045
G1 X92.398 Y58.176 E14.49727
G0 F6000 X92.795 Y58.307
G1 F1200 X93.276 Y57.707 E14.53307
G1 X93.817 Y57.16 E14.5689
G1 X94.412 Y56.672 E14.60473
G1 X95.054 Y56.249 E14.64053
G1 X95.737 Y55.894 E14.67637
G1 X96.452 Y55.613 E14.71214
G1 X97.194 Y55.407 E14.748
G1 X97.952 Y55.279 E14.7838
G1 X98.801 Y55.23 E14.8234
G1 X111.801 Y55.23 E15.42873
G1 X112.569 Y55.27 E15.46454
G1 X113.329 Y55.389 E15.50036
G1 X114.072 Y55.587 E15.53616
G1 X114.791 Y55.861 E15.57199
G1 X115.477 Y56.208 E15.60779
G1 X116.124 Y56.624 E15.64361
G1 X116.724 Y57.105 E15.67941
G1 X117.271 Y57.646 E15.71524
G1 X117.75 Y58.23 E15.75041
G1 X127.857 Y58.23 E16.22103
G1 X128.276 Y57.707 E16.25224
G1 X128.817 Y57.16 E16.28806
G1 X129.412 Y56.672 E16.32389
G1 X130.054 Y56.249 E16.35969
G1 X130.737 Y55.894 E16.39554
G1 X131.452 Y55.613 E16.43131
G1 X132.194 Y55.407 E16.46717
G1 X132.952 Y55.279 E16.50296
G1 X133.801 Y55.23 E16.54256
G1 X143.801 Y55.23 E17.0082
G1 X144.569 Y55.27 E17.04401
G1 X145.329 Y55.389 E17.07983
G1 X146.072 Y55.587 E17.11564
G1 X146.791 Y55.861 E17.15146
G1 X147.477 Y56.208 E17.18726
G1 X148.124 Y56.624 E17.22308
G1 X148.724 Y57.105 E17.25889
G1 X149.271 Y57.646 E17.29471
G1 X149.759 Y58.241 E17.33054
G1 X150.182 Y58.883 E17.36634
G1 X150.537 Y59.566 E17.40219
G1 X150.818 Y60.281 E17.43796
G1 X151.024 Y61.023 E17.47382
G1 X151.152 Y61.781 E17.50961
G1 X151.201 Y62.63 E17.54921
G1 X151.201 Y89.13 E18.78316
G1 X151.161 Y89.898 E18.81897
G1 X151.044 Y90.643 E18.85409
G1 X151.152 Y91.281 E18.88422
G1 X151.201 Y92.13 E18.92382
G1 X151.201 Y112.63 E19.87838
G1 X151.161 Y113.398 E19.91419
G1 X151.096 Y113.815 E19.93384
G1 X151.151 Y113.843 E19.93672
G1 X151.798 Y114.259 E19.97253
G1 X152.398 Y114.74 E20.00834
G1 X152.945 Y115.281 E20.04417
G1 X153.433 Y115.876 E20.08
G1 X153.856 Y116.518 E20.1158
G1 X154.211 Y117.201 E20.15164
G1 X154.492 Y117.916 E20.18741
G1 X154.698 Y118.658 E20.22327
G1 X154.826 Y119.416 E20.25907
G1 X154.875 Y120.265 E20.29866
G1 X154.875 Y130.265 E20.76431
G1 X154.835 Y131.033 E20.80012
G1 X154.716 Y131.793 E20.83594
G1 X154.518 Y132.536 E20.87174
G1 X154.244 Y133.255 E20.90757
G1 X153.897 Y133.941 E20.94337
G1 X153.481 Y134.588 E20.97918
G1 X153 Y135.188 E21.01499
G1 X152.459 Y135.735 E21.05081
G1 X151.864 Y136.223 E21.08665
G1 X151.692 Y136.336 E21.09623
G1 X151.645 Y136.598 E21.10862
G1 X147.83 Y151.544 E21.82689
G1 X147.601 Y152.279 E21.86273
G1 X147.298 Y152.985 E21.89851
G1 X146.922 Y153.657 E21.93436
G1 X146.479 Y154.285 E21.97015
G1 X145.973 Y154.865 E22.00599
G1 X145.455 Y155.351 E22.03906
G1 X143.339 Y157.151 E22.16842
G1 X142.728 Y157.618 E22.20423
G1 X142.072 Y158.019 E22.24003
G1 X141.377 Y158.35 E22.27588
G1 X140.652 Y158.607 E22.31169
G1 X139.905 Y158.788 E22.34748
G1 X139.204 Y158.884 E22.38043
G1 X134.137 Y159.338 E22.61732
G1 X133.369 Y159.367 E22.6531
G1 X132.601 Y159.316 E22.68894
G1 X131.843 Y159.185 E22.72476
G1 X131.103 Y158.977 E22.76055
G1 X130.388 Y158.693 E22.79638
G1 X129.763 Y158.368 E22.82918
G1 X127.361 Y156.974 E22.9585
G1 X126.716 Y156.554 E22.99434
G1 X126.119 Y156.069 E23.03015
G1 X125.575 Y155.525 E23.06598
G1 X125.091 Y154.928 E23.10176
G1 X124.672 Y154.283 E23.13758
G1 X124.345 Y153.651 E23.17071
G1 X122.488 Y149.591 E23.3786
G1 X122.084 Y149.249 E23.40325
G1 X120.517 Y148.789 E23.47929
G1 X94.859 Y141.913 E24.7162
G1 X94.128 Y141.675 E24.75199
G1 X93.425 Y141.363 E24.78781
G1 X92.758 Y140.98 E24.82362
G1 X92.135 Y140.529 E24.85943
G1 X91.561 Y140.017 E24.89525
G1 X91.044 Y139.447 E24.93108
G1 X90.589 Y138.827 E24.96689
G1 X90.201 Y138.163 E25.0027
G1 X89.884 Y137.462 E25.03853
G1 X89.641 Y136.732 E25.07435
G1 X89.554 Y136.337 E25.09319
G1 X89.452 Y136.271 E25.09884
G1 X88.852 Y135.79 E25.13465
G1 X88.305 Y135.249 E25.17047
G1 X87.817 Y134.654 E25.20631
G1 X87.394 Y134.012 E25.24211
G1 X87.039 Y133.329 E25.27795
G1 X86.758 Y132.614 E25.31372
G1 X86.552 Y131.872 E25.34958
G1 X86.424 Y131.114 E25.38537
G1 X86.375 Y130.265 E25.42497
G1 X86.375 Y120.265 E25.89061
G1 X86.415 Y119.497 E25.92642
G1 X86.534 Y118.737 E25.96224
G1 X86.732 Y117.994 E25.99805
G1 X87.006 Y117.275 E26.03388
G1 X87.353 Y116.589 E26.06967
G1 X87.769 Y115.942 E26.10549
G1 X88.25 Y115.342 E26.1413
G1 X88.791 Y114.795 E26.17712
G1 X89.386 Y114.307 E26.21296
G1 X90.028 Y113.884 E26.24876
G1 X90.711 Y113.529 E26.2846
G1 X91.098 Y113.377 E26.30396
G1 X91.327 Y112.775 E26.33395
G1 X91.401 Y112.629 E26.34157
G1 X91.401 Y92.13 E27.29609
G1 X91.441 Y91.362 E27.3319
G1 X91.558 Y90.617 E27.36702
G1 X91.45 Y89.979 E27.39715
G1 X91.401 Y89.13 E27.43675
G1 X91.401 Y62.63 E28.6707
G1 X91.441 Y61.862 E28.70651
G1 X91.56 Y61.102 E28.74233
G1 X91.758 Y60.359 E28.77813
G1 X92.032 Y59.64 E28.81396
G1 X92.379 Y58.954 E28.84976
G1 X92.795 Y58.307 E28.88557
G0 F6000 X93.193 Y58.441
G1 F1200 X93.672 Y57.867 E28.92038
G1 X94.209 Y57.346 E28.95522
G1 X94.799 Y56.887 E28.99003
G1 X95.435 Y56.492 E29.02489
G1 X96.109 Y56.168 E29.05972
G1 X96.814 Y55.918 E29.09455
G1 X97.542 Y55.744 E29.1294
G1 X98.284 Y55.649 E29.16423
G1 X98.801 Y55.63 E29.18832
G1 X111.801 Y55.63 E29.79366
G1 X112.548 Y55.67 E29.82849
G1 X113.286 Y55.789 E29.8633
G1 X114.008 Y55.987 E29.89816
G1 X114.704 Y56.26 E29.93297
G1 X115.367 Y56.607 E29.96782
G1 X115.99 Y57.022 E30.00267
G1 X116.564 Y57.501 E30.03748
G1 X117.085 Y58.038 E30.07232
G1 X117.545 Y58.63 E30.10723
G1 X128.067 Y58.63 E30.59718
G1 X128.193 Y58.441 E30.60776
G1 X128.672 Y57.867 E30.64257
G1 X129.209 Y57.346 E30.67741
G1 X129.799 Y56.887 E30.71222
G1 X130.435 Y56.492 E30.74708
G1 X131.109 Y56.168 E30.7819
G1 X131.814 Y55.918 E30.81673
G1 X132.542 Y55.744 E30.85159
G1 X133.284 Y55.649 E30.88642
G1 X133.801 Y55.63 E30.91051
G1 X143.801 Y55.63 E31.37615
G1 X144.548 Y55.67 E31.41098
G1 X145.286 Y55.789 E31.44579
G1 X146.008 Y55.987 E31.48065
G1 X146.704 Y56.26 E31.51547
G1 X147.367 Y56.607 E31.55031
G1 X147.99 Y57.022 E31.58517
G1 X148.564 Y57.501 E31.61998
G1 X149.085 Y58.038 E31.65482
G1 X149.544 Y58.628 E31.68963
G1 X149.939 Y59.264 E31.72449
G1 X150.263 Y59.938 E31.75931
G1 X150.513 Y60.643 E31.79414
G1 X150.687 Y61.371 E31.82899
G1 X150.782 Y62.113 E31.86383
G1 X150.801 Y62.63 E31.88792
G1 X150.801 Y89.13 E33.12187
G1 X150.761 Y89.877 E33.1567
G1 X150.642 Y90.615 E33.19151
G1 X150.687 Y90.871 E33.20361
G1 X150.782 Y91.613 E33.23844
G1 X150.801 Y92.13 E33.26253
G1 X150.801 Y112.63 E34.2171
G1 X150.761 Y113.377 E34.25193
G1 X150.654 Y114.04 E34.28321
G1 X151.041 Y114.242 E34.30353
G1 X151.664 Y114.657 E34.33839
G1 X152.238 Y115.136 E34.3732
G1 X152.759 Y115.673 E34.40804
G1 X153.218 Y116.263 E34.44285
G1 X153.613 Y116.899 E34.47771
G1 X153.937 Y117.573 E34.51253
G1 X154.187 Y118.278 E34.54736
G1 X154.361 Y119.006 E34.58222
G1 X154.456 Y119.748 E34.61705
G1 X154.475 Y120.265 E34.64114
G1 X154.475 Y130.265 E35.10678
G1 X154.435 Y131.012 E35.14161
G1 X154.316 Y131.75 E35.17642
G1 X154.118 Y132.472 E35.21128
G1 X153.845 Y133.168 E35.2461
G1 X153.498 Y133.831 E35.28094
G1 X153.083 Y134.454 E35.3158
G1 X152.604 Y135.028 E35.35061
G1 X152.067 Y135.549 E35.38545
G1 X151.477 Y136.008 E35.42026
G1 X151.33 Y136.099 E35.42831
G1 X151.258 Y136.499 E35.44723
G1 X147.443 Y151.445 E36.16549
G1 X147.219 Y152.159 E36.20034
G1 X146.921 Y152.845 E36.23516
G1 X146.551 Y153.495 E36.26999
G1 X146.114 Y154.102 E36.30482
G1 X145.614 Y154.659 E36.33967
G1 X145.196 Y155.046 E36.3662
G1 X143.08 Y156.846 E36.49555
G1 X142.485 Y157.299 E36.53037
G1 X141.845 Y157.687 E36.56522
G1 X141.167 Y158.004 E36.60008
G1 X140.46 Y158.247 E36.63489
G1 X139.73 Y158.413 E36.66975
G1 X139.169 Y158.486 E36.69609
G1 X134.102 Y158.94 E36.93298
G1 X133.354 Y158.967 E36.96783
G1 X132.608 Y158.914 E37.00265
G1 X131.872 Y158.781 E37.03748
G1 X131.154 Y158.571 E37.07231
G1 X130.462 Y158.286 E37.10716
G1 X129.963 Y158.022 E37.13345
G1 X127.561 Y156.628 E37.26277
G1 X126.935 Y156.219 E37.29758
G1 X126.357 Y155.745 E37.33239
G1 X125.832 Y155.212 E37.36723
G1 X125.367 Y154.626 E37.40206
G1 X124.967 Y153.993 E37.43693
G1 X124.709 Y153.485 E37.46346
G1 X122.815 Y149.342 E37.67558
G1 X122.278 Y148.888 E37.70832
G1 X120.606 Y148.398 E37.78945
G1 X94.963 Y141.526 E39.02563
G1 X94.252 Y141.294 E39.06045
G1 X93.569 Y140.988 E39.0953
G1 X92.924 Y140.61 E39.13012
G1 X92.322 Y140.166 E39.16495
G1 X91.771 Y139.66 E39.19978
G1 X91.277 Y139.098 E39.23462
G1 X90.846 Y138.486 E39.26948
G1 X90.483 Y137.833 E39.30427
G1 X90.192 Y137.144 E39.33909
G1 X89.975 Y136.427 E39.37398
G1 X89.912 Y136.09 E39.38994
G1 X89.586 Y135.873 E39.40817
G1 X89.012 Y135.394 E39.44299
G1 X88.491 Y134.857 E39.47783
G1 X88.032 Y134.267 E39.51263
G1 X87.637 Y133.631 E39.5475
G1 X87.313 Y132.957 E39.58232
G1 X87.063 Y132.252 E39.61715
G1 X86.889 Y131.524 E39.652
G1 X86.794 Y130.782 E39.68683
G1 X86.775 Y130.265 E39.71092
G1 X86.775 Y120.265 E40.17657
G1 X86.815 Y119.518 E40.2114
G1 X86.934 Y118.78 E40.24621
G1 X87.132 Y118.058 E40.28107
G1 X87.405 Y117.362 E40.31588
G1 X87.752 Y116.699 E40.35073
G1 X88.167 Y116.076 E40.38558
G1 X88.646 Y115.502 E40.42039
G1 X89.183 Y114.981 E40.45523
G1 X89.773 Y114.522 E40.49004
G1 X90.409 Y114.127 E40.5249
G1 X91.083 Y113.803 E40.55972
G1 X91.418 Y113.684 E40.57628
G1 X91.453 Y113.558 E40.58237
G1 X91.726 Y112.862 E40.61718
G1 X91.804 Y112.713 E40.62501
G1 X91.801 Y112.63 E40.62888
G1 X91.801 Y92.13 E41.58344
G1 X91.841 Y91.383 E41.61828
G1 X91.96 Y90.645 E41.65309
G1 X91.915 Y90.389 E41.66519
G1 X91.82 Y89.647 E41.70002
G1 X91.801 Y89.13 E41.72411
G1 X91.801 Y62.63 E42.95806
G1 X91.841 Y61.883 E42.9929
G1 X91.96 Y61.145 E43.0277
G1 X92.158 Y60.423 E43.06257
G1 X92.431 Y59.727 E43.09738
G1 X92.778 Y59.064 E43.13222
G1 X93.193 Y58.441 E43.16708
G0 F6000 X93.59 Y58.58
G1 F1200 X94.066 Y58.032 E43.20088
G1 X94.6 Y57.539 E43.23472
G1 X95.185 Y57.109 E43.26853
G1 X95.814 Y56.745 E43.30237
G1 X96.479 Y56.452 E43.3362
G1 X97.172 Y56.234 E43.37003
G1 X97.884 Y56.094 E43.40382
G1 X98.801 Y56.03 E43.44662
G1 X111.801 Y56.03 E44.05196
G1 X112.526 Y56.07 E44.08577
G1 X113.243 Y56.189 E44.11961
G1 X113.942 Y56.387 E44.15344
G1 X114.615 Y56.66 E44.18726
G1 X115.254 Y57.005 E44.22107
G1 X115.851 Y57.419 E44.2549
G1 X116.399 Y57.895 E44.2887
G1 X116.892 Y58.429 E44.32254
G1 X117.322 Y59.014 E44.35635
G1 X117.331 Y59.03 E44.35721
G1 X128.278 Y59.03 E44.86694
G1 X128.59 Y58.58 E44.89244
G1 X129.066 Y58.032 E44.92624
G1 X129.6 Y57.539 E44.96008
G1 X130.185 Y57.109 E44.99389
G1 X130.814 Y56.745 E45.02773
G1 X131.479 Y56.452 E45.06157
G1 X132.172 Y56.234 E45.09539
G1 X132.884 Y56.094 E45.12918
G1 X133.801 Y56.03 E45.17199
