;FLAVOR:Marlin
;TIME:1471
;Filament used: 1.12892m
;Layer height: 0.28
;MINX:98.914
;MINY:72.497
;MINZ:0.28
;MAXX:138.514
;MAXY:148.097
;MAXZ:3.08
;Generated with Cura_SteamEngine 4.11.0
M140 S50
M105
M190 S50
M104 S200
M105
M109 S200
M82 ;absolute extrusion mode
; Ender 3 Custom Start G-code
G92 E0 ; Reset Extruder
G28 ; Home all axes
G1 Z2.0 F3000 ; Move Z Axis up little to prevent scratching of Heat Bed
G1 X0.1 Y20 Z0.3 F5000.0 ; Move to start position
G1 X0.1 Y200.0 Z0.3 F1500.0 E15 ; Draw the first line
G1 X0.4 Y200.0 Z0.3 F5000.0 ; Move to side a little
G1 X0.4 Y20 Z0.3 F1500.0 E30 ; Draw the second line
G92 E0 ; Reset Extruder
G1 Z2.0 F3000 ; Move Z Axis up little to prevent scratching of Heat Bed
G1 X5 Y20 Z0.3 F5000.0 ; Move over to prevent blob squish
G92 E0
G92 E0
G1 F2700 E-5
;LAYER_COUNT:11
;LAYER:0
M107
G0 F6000 X100.311 Y75.843 Z0.28
;TYPE:SKIRT
G1 F2700 E0
G1 F1200 X100.794 Y75.219 E0.03674
G1 X101.337 Y74.646 E0.0735
G1 X101.936 Y74.131 E0.11029
G1 X102.584 Y73.68 E0.14705
G1 X103.275 Y73.296 E0.18386
G1 X104 Y72.984 E0.22061
G1 X104.753 Y72.747 E0.25737
G1 X105.527 Y72.588 E0.29416
G1 X106.312 Y72.507 E0.33091
G1 X106.714 Y72.497 E0.34963
G1 X130.714 Y72.497 E1.46717
G1 X131.503 Y72.537 E1.50396
G1 X132.283 Y72.656 E1.5407
G1 X133.048 Y72.854 E1.5775
G1 X133.788 Y73.128 E1.61424
G1 X134.497 Y73.476 E1.65102
G1 X135.168 Y73.894 E1.68783
G1 X135.792 Y74.377 E1.72457
G1 X136.365 Y74.92 E1.76133
G1 X136.88 Y75.519 E1.79811
G1 X137.331 Y76.167 E1.83488
G1 X137.715 Y76.858 E1.87169
G1 X138.027 Y77.583 E1.90844
G1 X138.264 Y78.336 E1.9452
G1 X138.423 Y79.11 E1.98199
G1 X138.504 Y79.895 E2.01874
G1 X138.514 Y80.297 E2.03746
G1 X138.514 Y88.297 E2.40998
G1 X138.474 Y89.086 E2.44676
G1 X138.355 Y89.866 E2.4835
G1 X138.157 Y90.631 E2.5203
G1 X137.883 Y91.371 E2.55704
G1 X137.535 Y92.08 E2.59382
G1 X137.117 Y92.751 E2.63063
G1 X136.634 Y93.375 E2.66737
G1 X136.091 Y93.948 E2.70413
G1 X135.514 Y94.444 E2.73956
G1 X135.514 Y112.794 E3.59401
G1 X135.474 Y113.583 E3.6308
G1 X135.363 Y114.313 E3.66518
G1 X135.423 Y114.607 E3.67915
G1 X135.504 Y115.392 E3.7159
G1 X135.514 Y115.789 E3.73439
G1 X135.792 Y116.004 E3.75076
G1 X136.365 Y116.547 E3.78752
G1 X136.88 Y117.146 E3.8243
G1 X137.331 Y117.794 E3.86106
G1 X137.715 Y118.485 E3.89787
G1 X138.027 Y119.21 E3.93462
G1 X138.264 Y119.963 E3.97138
G1 X138.423 Y120.737 E4.00818
G1 X138.504 Y121.522 E4.04492
G1 X138.514 Y121.924 E4.06365
G1 X138.514 Y127.297 E4.31384
G1 X138.474 Y128.086 E4.35062
G1 X138.355 Y128.866 E4.38736
G1 X138.157 Y129.631 E4.42416
G1 X137.883 Y130.371 E4.4609
G1 X137.535 Y131.08 E4.49768
G1 X137.117 Y131.751 E4.53449
G1 X136.634 Y132.375 E4.57123
G1 X136.091 Y132.948 E4.60799
G1 X135.492 Y133.463 E4.64478
G1 X134.844 Y133.914 E4.68154
G1 X134.153 Y134.298 E4.71835
G1 X133.428 Y134.61 E4.7551
G1 X132.675 Y134.847 E4.79186
G1 X131.901 Y135.006 E4.82865
G1 X131.514 Y135.046 E4.84677
G1 X131.514 Y140.297 E5.09128
G1 X131.474 Y141.086 E5.12806
G1 X131.355 Y141.866 E5.1648
G1 X131.157 Y142.631 E5.2016
G1 X130.883 Y143.371 E5.23834
G1 X130.535 Y144.08 E5.27512
G1 X130.117 Y144.751 E5.31193
G1 X129.634 Y145.375 E5.34867
G1 X129.091 Y145.948 E5.38543
G1 X128.492 Y146.463 E5.42222
G1 X127.844 Y146.914 E5.45898
G1 X127.153 Y147.298 E5.49579
G1 X126.428 Y147.61 E5.53254
G1 X125.675 Y147.847 E5.5693
G1 X124.901 Y148.006 E5.60609
G1 X124.116 Y148.087 E5.64284
G1 X123.714 Y148.097 E5.66157
G1 X106.714 Y148.097 E6.45316
G1 X105.925 Y148.057 E6.48994
G1 X105.145 Y147.938 E6.52668
G1 X104.38 Y147.74 E6.56348
G1 X103.64 Y147.466 E6.60022
G1 X102.931 Y147.118 E6.637
G1 X102.26 Y146.7 E6.67381
G1 X101.636 Y146.217 E6.71055
G1 X101.063 Y145.674 E6.74731
G1 X100.548 Y145.075 E6.7841
G1 X100.097 Y144.427 E6.82086
G1 X99.713 Y143.736 E6.85767
G1 X99.401 Y143.011 E6.89442
G1 X99.164 Y142.258 E6.93118
G1 X99.005 Y141.484 E6.96797
G1 X98.924 Y140.699 E7.00472
G1 X98.914 Y140.297 E7.02344
G1 X98.914 Y132.797 E7.37267
G1 X98.954 Y132.008 E7.40946
G1 X99.073 Y131.228 E7.4462
G1 X99.271 Y130.463 E7.483
G1 X99.545 Y129.723 E7.51974
G1 X99.893 Y129.014 E7.55652
G1 X100.311 Y128.343 E7.59333
G1 X100.794 Y127.719 E7.63007
G1 X101.337 Y127.146 E7.66683
G1 X101.914 Y126.65 E7.70226
G1 X101.914 Y103.797 E8.76639
G1 X101.954 Y103.008 E8.80318
G1 X102.065 Y102.278 E8.83756
G1 X102.005 Y101.984 E8.85153
G1 X101.924 Y101.199 E8.88828
G1 X101.914 Y100.797 E8.907
G1 X101.914 Y91.432 E9.34308
G1 X101.636 Y91.217 E9.35944
G1 X101.063 Y90.674 E9.3962
G1 X100.548 Y90.075 E9.43298
G1 X100.097 Y89.427 E9.46975
G1 X99.713 Y88.736 E9.50656
G1 X99.401 Y88.011 E9.54331
G1 X99.164 Y87.258 E9.58007
G1 X99.005 Y86.484 E9.61686
G1 X98.924 Y85.699 E9.65361
G1 X98.914 Y85.297 E9.67233
G1 X98.914 Y80.297 E9.90515
G1 X98.954 Y79.508 E9.94194
G1 X99.073 Y78.728 E9.97868
G1 X99.271 Y77.963 E10.01548
G1 X99.545 Y77.223 E10.05222
G1 X99.893 Y76.514 E10.089
G1 X100.311 Y75.843 E10.12581
G0 F6000 X100.708 Y75.974
G1 F1200 X101.189 Y75.374 E10.16161
G1 X101.73 Y74.827 E10.19744
G1 X102.325 Y74.339 E10.23327
G1 X102.967 Y73.916 E10.26907
G1 X103.65 Y73.561 E10.30491
G1 X104.365 Y73.28 E10.34069
G1 X105.107 Y73.074 E10.37654
G1 X105.865 Y72.946 E10.41234
G1 X106.714 Y72.897 E10.45194
G1 X130.714 Y72.897 E11.56948
G1 X131.482 Y72.937 E11.60529
G1 X132.242 Y73.056 E11.64111
G1 X132.985 Y73.254 E11.67691
G1 X133.704 Y73.528 E11.71274
G1 X134.39 Y73.875 E11.74854
G1 X135.037 Y74.291 E11.78435
G1 X135.637 Y74.772 E11.82016
G1 X136.184 Y75.313 E11.85599
G1 X136.672 Y75.908 E11.89182
G1 X137.095 Y76.55 E11.92762
G1 X137.45 Y77.233 E11.96346
G1 X137.731 Y77.948 E11.99923
G1 X137.937 Y78.69 E12.03509
G1 X138.065 Y79.448 E12.07089
G1 X138.114 Y80.297 E12.11049
G1 X138.114 Y88.297 E12.483
G1 X138.074 Y89.065 E12.51881
G1 X137.955 Y89.825 E12.55463
G1 X137.757 Y90.568 E12.59043
G1 X137.483 Y91.287 E12.62626
G1 X137.136 Y91.973 E12.66206
G1 X136.72 Y92.62 E12.69788
G1 X136.239 Y93.22 E12.73368
G1 X135.698 Y93.767 E12.76951
G1 X135.114 Y94.246 E12.80468
G1 X135.114 Y112.794 E13.66835
G1 X135.074 Y113.562 E13.70416
G1 X134.957 Y114.307 E13.73928
G1 X135.065 Y114.945 E13.76941
G1 X135.114 Y115.794 E13.809
G1 X135.114 Y115.98 E13.81767
G1 X135.637 Y116.399 E13.84887
G1 X136.184 Y116.94 E13.88469
G1 X136.672 Y117.535 E13.92053
G1 X137.095 Y118.177 E13.95633
G1 X137.45 Y118.86 E13.99217
G1 X137.731 Y119.575 E14.02794
G1 X137.937 Y120.317 E14.0638
G1 X138.065 Y121.075 E14.09959
G1 X138.114 Y121.924 E14.13919
G1 X138.114 Y127.297 E14.38938
G1 X138.074 Y128.065 E14.42519
G1 X137.955 Y128.825 E14.46101
G1 X137.757 Y129.568 E14.49682
G1 X137.483 Y130.287 E14.53264
G1 X137.136 Y130.973 E14.56844
G1 X136.72 Y131.62 E14.60426
G1 X136.239 Y132.22 E14.64007
G1 X135.698 Y132.767 E14.67589
G1 X135.103 Y133.255 E14.71172
G1 X134.461 Y133.678 E14.74752
G1 X133.778 Y134.033 E14.78337
G1 X133.063 Y134.314 E14.81914
G1 X132.321 Y134.52 E14.855
G1 X131.563 Y134.648 E14.89079
G1 X131.114 Y134.674 E14.91173
G1 X131.114 Y140.297 E15.17356
G1 X131.074 Y141.065 E15.20937
G1 X130.955 Y141.825 E15.24519
G1 X130.757 Y142.568 E15.281
G1 X130.483 Y143.287 E15.31683
G1 X130.136 Y143.973 E15.35262
G1 X129.72 Y144.62 E15.38844
G1 X129.239 Y145.22 E15.42425
G1 X128.698 Y145.767 E15.46007
G1 X128.103 Y146.255 E15.4959
G1 X127.461 Y146.678 E15.5317
G1 X126.778 Y147.033 E15.56755
G1 X126.063 Y147.314 E15.60332
G1 X125.321 Y147.52 E15.63918
G1 X124.563 Y147.648 E15.67497
G1 X123.714 Y147.697 E15.71457
G1 X106.714 Y147.697 E16.50616
G1 X105.946 Y147.657 E16.54197
G1 X105.186 Y147.538 E16.57779
G1 X104.443 Y147.34 E16.6136
G1 X103.724 Y147.066 E16.64942
G1 X103.038 Y146.719 E16.68522
G1 X102.391 Y146.303 E16.72104
G1 X101.791 Y145.822 E16.75685
G1 X101.244 Y145.281 E16.79267
G1 X100.756 Y144.686 E16.8285
G1 X100.333 Y144.044 E16.8643
G1 X99.978 Y143.361 E16.90015
G1 X99.697 Y142.646 E16.93592
G1 X99.491 Y141.904 E16.97178
G1 X99.363 Y141.146 E17.00757
G1 X99.314 Y140.297 E17.04717
G1 X99.314 Y132.797 E17.3964
G1 X99.354 Y132.029 E17.43221
G1 X99.473 Y131.269 E17.46803
G1 X99.671 Y130.526 E17.50383
G1 X99.945 Y129.807 E17.53966
G1 X100.292 Y129.121 E17.57546
G1 X100.708 Y128.474 E17.61128
G1 X101.189 Y127.874 E17.64709
G1 X101.73 Y127.327 E17.68291
G1 X102.314 Y126.848 E17.71808
G1 X102.314 Y103.797 E18.79143
G1 X102.354 Y103.029 E18.82724
G1 X102.471 Y102.284 E18.86236
G1 X102.363 Y101.646 E18.89249
G1 X102.314 Y100.797 E18.93209
G1 X102.314 Y91.241 E19.37705
G1 X101.791 Y90.822 E19.40826
G1 X101.244 Y90.281 E19.44408
G1 X100.756 Y89.686 E19.47991
G1 X100.333 Y89.044 E19.51571
G1 X99.978 Y88.361 E19.55156
G1 X99.697 Y87.646 E19.58733
G1 X99.491 Y86.904 E19.62319
G1 X99.363 Y86.146 E19.65898
G1 X99.314 Y85.297 E19.69858
G1 X99.314 Y80.297 E19.9314
G1 X99.354 Y79.529 E19.96721
G1 X99.473 Y78.769 E20.00303
G1 X99.671 Y78.026 E20.03884
G1 X99.945 Y77.307 E20.07466
G1 X100.292 Y76.621 E20.11046
G1 X100.708 Y75.974 E20.14628
G0 F6000 X101.106 Y76.108
G1 F1200 X101.585 Y75.534 E20.18109
G1 X102.122 Y75.013 E20.21593
G1 X102.712 Y74.554 E20.25074
G1 X103.348 Y74.159 E20.2856
G1 X104.022 Y73.835 E20.32042
G1 X104.727 Y73.585 E20.35525
G1 X105.455 Y73.411 E20.3901
G1 X106.197 Y73.316 E20.42494
G1 X106.714 Y73.297 E20.44903
G1 X130.714 Y73.297 E21.56657
G1 X131.461 Y73.337 E21.6014
G1 X132.199 Y73.456 E21.63621
G1 X132.921 Y73.654 E21.67107
G1 X133.617 Y73.927 E21.70588
G1 X134.28 Y74.274 E21.74073
G1 X134.903 Y74.689 E21.77558
G1 X135.477 Y75.168 E21.8104
G1 X135.998 Y75.705 E21.84523
G1 X136.457 Y76.295 E21.88004
G1 X136.852 Y76.931 E21.9149
G1 X137.176 Y77.605 E21.94973
G1 X137.426 Y78.31 E21.98456
G1 X137.6 Y79.038 E22.01941
G1 X137.695 Y79.78 E22.05424
G1 X137.714 Y80.297 E22.07833
G1 X137.714 Y88.297 E22.45085
G1 X137.674 Y89.044 E22.48568
G1 X137.555 Y89.782 E22.52049
G1 X137.357 Y90.504 E22.55535
G1 X137.084 Y91.2 E22.59016
G1 X136.737 Y91.863 E22.62501
G1 X136.322 Y92.486 E22.65986
G1 X135.843 Y93.06 E22.69467
G1 X135.306 Y93.581 E22.72951
G1 X134.714 Y94.041 E22.76442
G1 X134.714 Y112.794 E23.63764
G1 X134.674 Y113.541 E23.67247
G1 X134.555 Y114.279 E23.70728
G1 X134.6 Y114.535 E23.71939
G1 X134.695 Y115.277 E23.75422
G1 X134.714 Y115.794 E23.77831
G1 X134.714 Y116.19 E23.79675
G1 X134.903 Y116.316 E23.80733
G1 X135.477 Y116.795 E23.84214
G1 X135.998 Y117.332 E23.87698
G1 X136.457 Y117.922 E23.91178
G1 X136.852 Y118.558 E23.94665
G1 X137.176 Y119.232 E23.98147
G1 X137.426 Y119.937 E24.0163
G1 X137.6 Y120.665 E24.05115
G1 X137.695 Y121.407 E24.08598
G1 X137.714 Y121.924 E24.11007
G1 X137.714 Y127.297 E24.36026
G1 X137.674 Y128.044 E24.3951
G1 X137.555 Y128.782 E24.42991
G1 X137.357 Y129.504 E24.46477
G1 X137.084 Y130.2 E24.49958
G1 X136.737 Y130.863 E24.53442
G1 X136.322 Y131.486 E24.56928
G1 X135.843 Y132.06 E24.60409
G1 X135.306 Y132.581 E24.63893
G1 X134.716 Y133.04 E24.67374
G1 X134.08 Y133.435 E24.7086
G1 X133.406 Y133.759 E24.74342
G1 X132.701 Y134.009 E24.77825
G1 X131.973 Y134.183 E24.81311
G1 X131.231 Y134.278 E24.84794
G1 X130.714 Y134.297 E24.87203
G1 X130.714 Y140.297 E25.15141
G1 X130.674 Y141.044 E25.18625
G1 X130.555 Y141.782 E25.22106
G1 X130.357 Y142.504 E25.25592
G1 X130.084 Y143.2 E25.29073
G1 X129.737 Y143.863 E25.32557
G1 X129.322 Y144.486 E25.36043
G1 X128.843 Y145.06 E25.39524
G1 X128.306 Y145.581 E25.43008
G1 X127.716 Y146.04 E25.46489
G1 X127.08 Y146.435 E25.49975
G1 X126.406 Y146.759 E25.53457
G1 X125.701 Y147.009 E25.5694
G1 X124.973 Y147.183 E25.60426
G1 X124.231 Y147.278 E25.63909
G1 X123.714 Y147.297 E25.66318
G1 X106.714 Y147.297 E26.45477
G1 X105.967 Y147.257 E26.4896
G1 X105.229 Y147.138 E26.52441
G1 X104.507 Y146.94 E26.55927
G1 X103.811 Y146.667 E26.59409
G1 X103.148 Y146.32 E26.62893
G1 X102.525 Y145.905 E26.66379
G1 X101.951 Y145.426 E26.6986
G1 X101.43 Y144.889 E26.73344
G1 X100.971 Y144.299 E26.76825
G1 X100.576 Y143.663 E26.80311
G1 X100.252 Y142.989 E26.83793
G1 X100.002 Y142.284 E26.87276
G1 X99.828 Y141.556 E26.90761
G1 X99.733 Y140.814 E26.94245
G1 X99.714 Y140.297 E26.96654
G1 X99.714 Y132.797 E27.31577
G1 X99.754 Y132.05 E27.3506
G1 X99.873 Y131.312 E27.38541
G1 X100.071 Y130.59 E27.42027
G1 X100.344 Y129.894 E27.45508
G1 X100.691 Y129.231 E27.48993
G1 X101.106 Y128.608 E27.52478
G1 X101.585 Y128.034 E27.5596
G1 X102.122 Y127.513 E27.59444
G1 X102.714 Y127.053 E27.62935
G1 X102.714 Y103.797 E28.71224
G1 X102.754 Y103.05 E28.74708
G1 X102.873 Y102.312 E28.78188
G1 X102.828 Y102.056 E28.79399
G1 X102.733 Y101.314 E28.82882
G1 X102.714 Y100.797 E28.85291
G1 X102.714 Y91.031 E29.30766
G1 X102.525 Y90.905 E29.31823
G1 X101.951 Y90.426 E29.35304
G1 X101.43 Y89.889 E29.38788
G1 X100.971 Y89.299 E29.42269
G1 X100.576 Y88.663 E29.45755
G1 X100.252 Y87.989 E29.49237
G1 X100.002 Y87.284 E29.52721
G1 X99.828 Y86.556 E29.56206
G1 X99.733 Y85.814 E29.59689
G1 X99.714 Y85.297 E29.62098
G1 X99.714 Y80.297 E29.8538
G1 X99.754 Y79.55 E29.88864
G1 X99.873 Y78.812 E29.92344
G1 X100.071 Y78.09 E29.9583
G1 X100.344 Y77.394 E29.99312
G1 X100.691 Y76.731 E30.02796
G1 X101.106 Y76.108 E30.06282
G0 F6000 X101.503 Y76.247
G1 F1200 X101.979 Y75.699 E30.09662
G1 X102.513 Y75.206 E30.13046
G1 X103.098 Y74.776 E30.16427
G1 X103.727 Y74.412 E30.19811
G1 X104.392 Y74.119 E30.23194
G1 X105.085 Y73.901 E30.26577
G1 X105.797 Y73.761 E30.29956
G1 X106.714 Y73.697 E30.34236
G1 X130.714 Y73.697 E31.4599
G1 X131.439 Y73.737 E31.49371
G1 X132.156 Y73.856 E31.52756
G1 X132.855 Y74.054 E31.56139
G1 X133.528 Y74.327 E31.5952
G1 X134.167 Y74.672 E31.62902
G1 X134.764 Y75.086 E31.66285
G1 X135.312 Y75.562 E31.69665
G1 X135.805 Y76.096 E31.73049
G1 X136.235 Y76.681 E31.7643
G1 X136.599 Y77.31 E31.79814
G1 X136.892 Y77.975 E31.83197
G1 X137.11 Y78.668 E31.8658
G1 X137.25 Y79.38 E31.89959
G1 X137.314 Y80.297 E31.94239
G1 X137.314 Y88.297 E32.31491
G1 X137.274 Y89.022 E32.34872
G1 X137.155 Y89.739 E32.38256
G1 X136.957 Y90.438 E32.41639
G1 X136.684 Y91.111 E32.45021
G1 X136.339 Y91.75 E32.48402
G1 X135.925 Y92.347 E32.51785
G1 X135.449 Y92.895 E32.55165
G1 X134.915 Y93.388 E32.58549
G1 X134.33 Y93.818 E32.6193
G1 X134.314 Y93.827 E32.62015
G1 X134.314 Y112.794 E33.50334
G1 X134.274 Y113.519 E33.53715
G1 X134.155 Y114.236 E33.57099
G1 X134.137 Y114.301 E33.57413
G1 X134.25 Y114.877 E33.60146
G1 X134.314 Y115.794 E33.64427
G1 X134.314 Y116.401 E33.67253
G1 X134.764 Y116.713 E33.69803
G1 X135.312 Y117.189 E33.73183
G1 X135.805 Y117.723 E33.76567
G1 X136.235 Y118.308 E33.79948
G1 X136.599 Y118.937 E33.83332
G1 X136.892 Y119.602 E33.86715
G1 X137.11 Y120.295 E33.90098
G1 X137.25 Y121.007 E33.93477
G1 X137.314 Y121.924 E33.97757
G1 X137.314 Y127.297 E34.22776
G1 X137.274 Y128.022 E34.26157
G1 X137.155 Y128.739 E34.29542
G1 X136.957 Y129.438 E34.32925
G1 X136.684 Y130.111 E34.36306
G1 X136.339 Y130.75 E34.39688
G1 X135.925 Y131.347 E34.43071
G1 X135.449 Y131.895 E34.46451
G1 X134.915 Y132.388 E34.49835
G1 X134.33 Y132.818 E34.53215
G1 X133.701 Y133.182 E34.56599
G1 X133.036 Y133.475 E34.59983
G1 X132.343 Y133.693 E34.63366
G1 X131.631 Y133.833 E34.66745
G1 X130.714 Y133.897 E34.71025
G1 X130.314 Y133.897 E34.72888
G1 X130.314 Y140.297 E35.02689
G1 X130.274 Y141.022 E35.0607
G1 X130.155 Y141.739 E35.09454
G1 X129.957 Y142.438 E35.12837
G1 X129.684 Y143.111 E35.16219
G1 X129.339 Y143.75 E35.196
G1 X128.925 Y144.347 E35.22983
G1 X128.449 Y144.895 E35.26363
G1 X127.915 Y145.388 E35.29747
G1 X127.33 Y145.818 E35.33128
G1 X126.701 Y146.182 E35.36512
G1 X126.036 Y146.475 E35.39896
G1 X125.343 Y146.693 E35.43278
G1 X124.631 Y146.833 E35.46657
G1 X123.714 Y146.897 E35.50938
G1 X106.714 Y146.897 E36.30097
G1 X105.989 Y146.857 E36.33478
G1 X105.272 Y146.738 E36.36862
G1 X104.573 Y146.54 E36.40245
G1 X103.9 Y146.267 E36.43627
G1 X103.261 Y145.922 E36.47008
G1 X102.664 Y145.508 E36.50391
G1 X102.116 Y145.032 E36.53771
G1 X101.623 Y144.498 E36.57155
G1 X101.193 Y143.913 E36.60536
G1 X100.829 Y143.284 E36.6392
G1 X100.536 Y142.619 E36.67304
G1 X100.318 Y141.926 E36.70686
G1 X100.178 Y141.214 E36.74065
G1 X100.114 Y140.297 E36.78346
G1 X100.114 Y132.797 E37.13269
G1 X100.154 Y132.072 E37.1665
G1 X100.273 Y131.355 E37.20034
G1 X100.471 Y130.656 E37.23417
