;FLAVOR:Marlin
;TIME:6493
;Filament used: 3.28032m
;Layer height: 0.2
;MINX:56.652
;MINY:75.47
;MINZ:0.2
;MAXX:178.235
;MAXY:171.851
;MAXZ:3
;Generated with Cura_SteamEngine 4.11.0
M140 S50
M105
M190 S50
M104 S200
M105
M109 S200
M82 ;absolute extrusion mode
; Ender 3 Custom Start G-code
G92 E0 ; Reset Extruder
G28 ; Home all axes
G1 Z2.0 F3000 ; Move Z Axis up little to prevent scratching of Heat Bed
G1 X0.1 Y20 Z0.3 F5000.0 ; Move to start position
G1 X0.1 Y200.0 Z0.3 F1500.0 E15 ; Draw the first line
G1 X0.4 Y200.0 Z0.3 F5000.0 ; Move to side a little
G1 X0.4 Y20 Z0.3 F1500.0 E30 ; Draw the second line
G92 E0 ; Reset Extruder
G1 Z2.0 F3000 ; Move Z Axis up little to prevent scratching of Heat Bed
G1 X5 Y20 Z0.3 F5000.0 ; Move over to prevent blob squish
G92 E0
G92 E0
G1 F2700 E-5
;LAYER_COUNT:15
;LAYER:0
M107
G0 F6000 X87.248 Y109.24 Z0.2
;TYPE:SKIRT
G1 F2700 E0
G1 F1200 X87.158 Y109.399 E0.00608
G1 X86.727 Y110.074 E0.03271
G1 X87.46 Y110.711 E0.06501
G1 X87.83 Y111.079 E0.08237
G1 X88.029 Y111.281 E0.0918
G1 X88.554 Y111.871 E0.11807
G1 X88.736 Y112.123 E0.12841
G1 X91.514 Y112.123 E0.2208
G1 X93.226 Y110.411 E0.30133
G1 X91.484 Y108.613 E0.3846
G1 X88.352 Y108.563 E0.48878
G1 X88.29 Y108.612 E0.49141
G1 X87.452 Y109.131 E0.52419
G1 X87.248 Y109.24 E0.53189
G0 F6000 X86.986 Y108.926
G1 F1200 X86.96 Y108.938 E0.53284
G1 X86.81 Y109.202 E0.54294
G1 X86.396 Y109.85 E0.56851
G1 X86.152 Y110.156 E0.58153
G1 X86.5 Y110.399 E0.59565
G1 X87.178 Y110.995 E0.62567
G1 X87.545 Y111.36 E0.64289
G1 X87.744 Y111.562 E0.65232
G1 X88.254 Y112.137 E0.67788
G1 X88.531 Y112.523 E0.69368
G1 X91.678 Y112.523 E0.79835
G1 X93.787 Y110.414 E0.89756
G1 X91.658 Y108.216 E0.99933
G1 X88.214 Y108.161 E1.1139
G1 X87.993 Y108.332 E1.12319
G1 X87.263 Y108.778 E1.15164
G1 X86.986 Y108.926 E1.16209
G0 F6000 X86.798 Y108.573
G1 F1200 X86.665 Y108.635 E1.16697
G1 X86.617 Y108.731 E1.17054
G1 X86.462 Y109.004 E1.18098
G1 X86.059 Y109.634 E1.20585
G1 X85.59 Y110.217 E1.23074
G1 X85.559 Y110.248 E1.2322
G1 X85.71 Y110.332 E1.23795
G1 X86.319 Y110.765 E1.2628
G1 X86.896 Y111.278 E1.28848
G1 X87.26 Y111.64 E1.30555
G1 X87.459 Y111.842 E1.31498
G1 X87.954 Y112.403 E1.33987
G1 X88.324 Y112.923 E1.36109
G1 X91.844 Y112.923 E1.47817
G1 X94.348 Y110.419 E1.59595
G1 X91.829 Y107.818 E1.71638
G1 X88.081 Y107.759 E1.84105
G1 X87.697 Y108.05 E1.85708
G1 X87.075 Y108.425 E1.88124
G1 X86.798 Y108.573 E1.89168
G0 F6000 X86.609 Y108.22
G1 F1200 X86.372 Y108.33 E1.90037
G1 X86.269 Y108.534 E1.90797
G1 X86.114 Y108.807 E1.91841
G1 X85.722 Y109.418 E1.94256
G1 X85.264 Y109.982 E1.96672
G1 X84.904 Y110.337 E1.98354
G1 X84.918 Y110.343 E1.98405
G1 X85.549 Y110.704 E2.00823
G1 X86.136 Y111.131 E2.03237
G1 X86.614 Y111.562 E2.05378
G1 X86.975 Y111.921 E2.07071
G1 X87.174 Y112.123 E2.08014
G1 X87.654 Y112.668 E2.1043
G1 X88.072 Y113.262 E2.12845
G1 X88.106 Y113.323 E2.13078
G1 X92.01 Y113.323 E2.26062
G1 X94.909 Y110.424 E2.39698
G1 X92 Y107.421 E2.53604
G1 X87.955 Y107.357 E2.6706
G1 X87.403 Y107.765 E2.69343
G1 X86.886 Y108.072 E2.71343
G1 X86.609 Y108.22 E2.72387
G0 F6000 X86.421 Y107.867
G1 F1200 X86.084 Y108.023 E2.73622
G1 X85.922 Y108.336 E2.74794
G1 X85.767 Y108.609 E2.75839
G1 X85.385 Y109.201 E2.78182
G1 X84.938 Y109.745 E2.80524
G1 X84.433 Y110.235 E2.82864
G1 X84.157 Y110.448 E2.84024
G1 X84.778 Y110.72 E2.86279
G1 X85.386 Y111.075 E2.8862
G1 X85.95 Y111.497 E2.90963
G1 X86.332 Y111.846 E2.92684
G1 X86.69 Y112.202 E2.94363
G1 X86.889 Y112.404 E2.95306
G1 X87.354 Y112.933 E2.97649
G1 X87.755 Y113.511 E2.99989
G1 X87.869 Y113.723 E3.00789
G1 X92.176 Y113.723 E3.15114
G1 X95.41 Y110.489 E3.30326
G1 X95.481 Y110.426 E3.30642
G1 X95.354 Y110.308 E3.31219
G1 X92.173 Y107.023 E3.46428
G1 X87.804 Y106.954 E3.60961
G1 X87.681 Y107.066 E3.61514
G1 X87.11 Y107.478 E3.63856
G1 X86.698 Y107.719 E3.65443
G1 X86.421 Y107.867 E3.66488
G0 F6000 X86.232 Y107.515
G1 F1200 X85.783 Y107.722 E3.68132
G1 X85.746 Y107.812 E3.68456
G1 X85.574 Y108.139 E3.69685
G1 X85.419 Y108.412 E3.70729
G1 X85.048 Y108.983 E3.72994
G1 X84.614 Y109.507 E3.75257
G1 X84.12 Y109.976 E3.77523
G1 X83.576 Y110.385 E3.79786
G1 X83.245 Y110.586 E3.81074
G1 X83.364 Y110.616 E3.81482
G1 X84.014 Y110.819 E3.83747
G1 X84.636 Y111.097 E3.86013
G1 X85.221 Y111.446 E3.88279
G1 X85.76 Y111.861 E3.90541
G1 X86.05 Y112.13 E3.91857
G1 X86.405 Y112.483 E3.93522
G1 X86.604 Y112.685 E3.94465
G1 X87.052 Y113.197 E3.96728
G1 X87.438 Y113.758 E3.98993
G1 X87.63 Y114.123 E4.00365
G1 X92.342 Y114.123 E4.16037
G1 X95.693 Y110.772 E4.31799
G1 X96.079 Y110.429 E4.33516
G1 X95.98 Y110.352 E4.33934
G1 X95.641 Y110.029 E4.35491
G1 X92.345 Y106.626 E4.51248
G1 X87.652 Y106.552 E4.66859
G1 X87.377 Y106.798 E4.68086
G1 X86.819 Y107.188 E4.7035
G1 X86.509 Y107.367 E4.71541
G1 X86.232 Y107.515 E4.72586
G0 F6000 X86.044 Y107.162
G1 F1200 X85.462 Y107.429 E4.74715
G1 X85.226 Y107.941 E4.7659
G1 X85.071 Y108.214 E4.77635
G1 X84.712 Y108.765 E4.79822
G1 X84.29 Y109.268 E4.82006
G1 X83.809 Y109.715 E4.8419
G1 X83.019 Y110.257 E4.87376
G1 X82.598 Y110.492 E4.8898
G1 X82.341 Y110.633 E4.89955
G1 X82.242 Y110.68 E4.90319
G1 X82.374 Y110.835 E4.90996
G1 X82.963 Y110.928 E4.9298
G1 X83.268 Y111.004 E4.94025
G1 X83.894 Y111.202 E4.96209
G1 X84.492 Y111.474 E4.98394
G1 X85.053 Y111.816 E5.00579
G1 X85.768 Y112.413 E5.03677
G1 X86.12 Y112.763 E5.05328
G1 X86.319 Y112.965 E5.06271
G1 X86.751 Y113.46 E5.08457
G1 X87.119 Y114.004 E5.10641
G1 X87.385 Y114.523 E5.12581
G1 X92.508 Y114.523 E5.2962
G1 X95.976 Y111.055 E5.45932
G1 X96.468 Y110.619 E5.48119
G1 X96.74 Y110.432 E5.49217
G1 X96.649 Y110.375 E5.49574
G1 X95.928 Y109.751 E5.52745
G1 X92.516 Y106.229 E5.69055
G1 X87.507 Y106.149 E5.85717
G1 X87.074 Y106.527 E5.87629
G1 X86.321 Y107.014 E5.90612
G1 X86.044 Y107.162 E5.91656
G0 F6000 X85.855 Y106.809
G1 F1200 X85.28 Y107.071 E5.93758
G1 X85.18 Y107.102 E5.94106
G1 X84.878 Y107.744 E5.96466
G1 X84.723 Y108.017 E5.9751
G1 X84.377 Y108.546 E5.99612
G1 X83.967 Y109.027 E6.01714
G1 X83.499 Y109.452 E6.03817
G1 X82.823 Y109.908 E6.06529
G1 X82.406 Y110.142 E6.08119
G1 X82.149 Y110.283 E6.09094
G1 X81.592 Y110.544 E6.1114
G1 X81.683 Y110.639 E6.11578
G1 X82.091 Y111.121 E6.13678
G1 X82.14 Y111.197 E6.13979
G1 X82.866 Y111.316 E6.16426
G1 X83.171 Y111.392 E6.17471
G1 X83.773 Y111.584 E6.19573
G1 X84.347 Y111.849 E6.21676
G1 X84.882 Y112.186 E6.23779
G1 X85.486 Y112.697 E6.2641
G1 X85.835 Y113.044 E6.28047
G1 X86.034 Y113.246 E6.2899
G1 X86.448 Y113.723 E6.31091
G1 X86.799 Y114.249 E6.33194
G1 X87.08 Y114.815 E6.35296
G1 X87.116 Y114.923 E6.35675
G1 X92.672 Y114.923 E6.54154
G1 X96.258 Y111.337 E6.71021
G1 X96.733 Y110.92 E6.73124
G1 X97.256 Y110.565 E6.75226
G1 X97.521 Y110.43 E6.76215
G1 X97.314 Y110.328 E6.76983
G1 X96.787 Y109.979 E6.79085
G1 X96.216 Y109.473 E6.81623
G1 X92.689 Y105.831 E6.98485
G1 X87.342 Y105.747 E7.16272
G1 X87.254 Y105.843 E7.16705
G1 X86.773 Y106.253 E7.18807
G1 X86.132 Y106.661 E7.21334
G1 X85.855 Y106.809 E7.22379
G0 F6000 X85.667 Y106.456
G1 F1200 X85.114 Y106.706 E7.24397
G1 X84.867 Y106.781 E7.25256
G1 X84.804 Y106.975 E7.25934
G1 X84.53 Y107.546 E7.28041
G1 X84.375 Y107.819 E7.29085
G1 X84.042 Y108.326 E7.31102
G1 X83.645 Y108.784 E7.33118
G1 X83.191 Y109.186 E7.35135
G1 X82.627 Y109.559 E7.37384
G1 X82.214 Y109.791 E7.3896
G1 X81.957 Y109.932 E7.39935
G1 X81.407 Y110.188 E7.41952
G1 X80.824 Y110.37 E7.43984
G1 X81.177 Y110.689 E7.45566
G1 X81.395 Y110.916 E7.46613
G1 X81.785 Y111.38 E7.48629
G1 X81.915 Y111.584 E7.49433
G1 X82.116 Y111.591 E7.50102
G1 X82.769 Y111.704 E7.52307
G1 X83.074 Y111.78 E7.53352
G1 X83.652 Y111.966 E7.55372
G1 X84.2 Y112.225 E7.57388
G1 X84.709 Y112.554 E7.59403
G1 X85.204 Y112.981 E7.61578
G1 X85.55 Y113.325 E7.632
G1 X85.749 Y113.527 E7.64144
G1 X86.145 Y113.986 E7.6616
G1 X86.477 Y114.493 E7.68175
G1 X86.74 Y115.039 E7.70191
G1 X86.832 Y115.323 E7.71184
G1 X92.838 Y115.323 E7.9116
G1 X96.541 Y111.62 E8.08578
G1 X96.997 Y111.221 E8.10593
G1 X97.502 Y110.885 E8.12611
G1 X98.046 Y110.618 E8.14626
G1 X98.606 Y110.43 E8.16591
G1 X98.537 Y110.415 E8.16826
G1 X97.967 Y110.21 E8.1884
G1 X97.428 Y109.931 E8.20859
G1 X96.931 Y109.584 E8.22875
G1 X96.503 Y109.194 E8.24801
G1 X92.861 Y105.434 E8.42212
G1 X87.168 Y105.344 E8.61149
G1 X86.94 Y105.59 E8.62265
G1 X86.473 Y105.977 E8.64282
G1 X85.944 Y106.308 E8.66357
G1 X85.667 Y106.456 E8.67402
G0 F6000 X85.478 Y106.103
G1 F1200 X84.95 Y106.341 E8.69328
G1 X84.554 Y106.456 E8.707
G1 X84.403 Y106.899 E8.72256
G1 X84.182 Y107.349 E8.73924
G1 X84.027 Y107.622 E8.74968
G1 X83.707 Y108.105 E8.76895
G1 X83.324 Y108.539 E8.7882
G1 X82.884 Y108.916 E8.80747
G1 X82.431 Y109.21 E8.82544
G1 X82.021 Y109.44 E8.84107
G1 X81.764 Y109.581 E8.85082
G1 X81.238 Y109.824 E8.87009
G1 X80.684 Y109.992 E8.88935
G1 X80.112 Y110.083 E8.90861
G1 X79.668 Y110.094 E8.92338
G1 X80.03 Y110.28 E8.93692
G1 X80.504 Y110.613 E8.95619
G1 X80.888 Y110.966 E8.97354
G1 X81.106 Y111.193 E8.984
G1 X81.478 Y111.637 E9.00327
G1 X81.689 Y111.975 E9.01652
G1 X82.153 Y111.997 E9.03197
G1 X82.673 Y112.093 E9.04956
G1 X82.978 Y112.169 E9.06001
G1 X83.529 Y112.347 E9.07927
G1 X84.05 Y112.6 E9.09854
G1 X84.532 Y112.922 E9.11782
G1 X84.922 Y113.265 E9.13509
G1 X85.265 Y113.605 E9.15115
G1 X85.464 Y113.807 E9.16059
G1 X85.841 Y114.247 E9.17986
G1 X86.154 Y114.735 E9.19914
G1 X86.397 Y115.261 E9.21841
G1 X86.542 Y115.723 E9.23452
G1 X93.004 Y115.723 E9.44944
G1 X96.824 Y111.903 E9.62912
G1 X97.261 Y111.523 E9.64839
G1 X97.746 Y111.206 E9.66766
G1 X98.27 Y110.959 E9.68692
G1 X98.823 Y110.787 E9.70619
G1 X99.395 Y110.692 E9.72547
G1 X99.794 Y110.673 E9.73876
G1 X108.788 Y110.673 E10.0379
G1 X108.975 Y110.686 E10.04413
G1 X109.15 Y110.51 E10.05239
G1 X108.892 Y110.325 E10.06295
G1 X108.735 Y110.336 E10.06818
G1 X99.74 Y110.193 E10.3674
G1 X99.163 Y110.144 E10.38666
G1 X98.598 Y110.016 E10.40592
G1 X98.056 Y109.812 E10.42519
G1 X97.547 Y109.534 E10.44448
G1 X97.082 Y109.19 E10.46371
G1 X96.79 Y108.916 E10.47703
G1 X93.032 Y105.037 E10.65666
G1 X86.998 Y104.941 E10.85738
G1 X86.627 Y105.335 E10.87538
G1 X86.176 Y105.698 E10.89464
G1 X85.755 Y105.955 E10.91104
G1 X85.478 Y106.103 E10.92149
G0 F6000 X85.29 Y105.751
G1 F1200 X84.786 Y105.974 E10.93982
G1 X84.256 Y106.123 E10.95813
G1 X84.224 Y106.127 E10.9592
G1 X84.189 Y106.3 E10.96507
G1 X84.002 Y106.818 E10.98339
G1 X83.835 Y107.151 E10.99578
G1 X83.68 Y107.424 E11.00622
G1 X83.373 Y107.882 E11.02456
G1 X83.004 Y108.291 E11.04288
G1 X82.58 Y108.643 E11.06121
G1 X82.235 Y108.861 E11.07478
G1 X81.829 Y109.09 E11.09029
G1 X81.572 Y109.231 E11.10004
G1 X81.071 Y109.46 E11.11836
G1 X80.542 Y109.614 E11.13668
G1 X79.996 Y109.691 E11.15502
G1 X79.599 Y109.696 E11.16823
G1 X79.285 Y109.684 E11.17868
G1 X78.737 Y109.623 E11.19702
G1 X78.194 Y109.48 E11.2157
G1 X78.075 Y109.614 E11.22166
G1 X77.699 Y109.931 E11.23801
G1 X77.757 Y109.936 E11.23995
G1 X78.13 Y110.014 E11.25262
G1 X78.588 Y110.135 E11.26838
G1 X78.862 Y110.21 E11.27783
G1 X79.382 Y110.393 E11.29616
G1 X79.869 Y110.65 E11.31448
G1 X80.314 Y110.975 E11.33281
G1 X80.6 Y111.243 E11.34584
G1 X80.818 Y111.47 E11.35631
G1 X81.17 Y111.894 E11.37464
G1 X81.456 Y112.364 E11.39294
G1 X81.636 Y112.368 E11.39893
G1 X82.186 Y112.405 E11.41726
G1 X82.576 Y112.481 E11.43048
G1 X82.881 Y112.557 E11.44093
G1 X83.404 Y112.728 E11.45923
G1 X83.898 Y112.974 E11.47759
G1 X84.35 Y113.288 E11.49589
G1 X84.64 Y113.548 E11.50885
G1 X84.98 Y113.886 E11.52479
G1 X85.179 Y114.088 E11.53422
G1 X85.536 Y114.508 E11.55256
G1 X85.829 Y114.974 E11.57087
G1 X86.051 Y115.479 E11.58921
G1 X86.161 Y115.845 E11.60192
G1 X86.23 Y116.123 E11.61145
G1 X93.17 Y116.123 E11.84228
G1 X97.107 Y112.186 E12.02746
G1 X97.524 Y111.826 E12.04578
G1 X97.988 Y111.529 E12.06411
G1 X98.491 Y111.303 E12.08245
G1 X99.021 Y111.152 E12.10078
G1 X99.794 Y111.073 E12.12662
G1 X108.788 Y111.073 E12.42576
G1 X109.129 Y111.098 E12.43714
G1 X109.802 Y110.424 E12.46881
G1 X109.374 Y110.186 E12.4851
G1 X109.045 Y109.919 E12.4992
G1 X108.742 Y109.937 E12.50929
G1 X99.747 Y109.794 E12.8085
G1 X99.198 Y109.745 E12.82684
G1 X98.662 Y109.617 E12.84516
G1 X98.15 Y109.414 E12.86348
G1 X97.673 Y109.138 E12.88181
G1 X97.077 Y108.638 E12.90769
G1 X93.205 Y104.64 E13.0928
G1 X86.799 Y104.539 E13.30589
G1 X86.698 Y104.681 E13.31169
G1 X86.316 Y105.078 E13.33001
G1 X85.88 Y105.415 E13.34834
G1 X85.567 Y105.603 E13.36049
G1 X85.29 Y105.751 E13.37093
G0 F6000 X85.101 Y105.398
G1 F1200 X84.624 Y105.607 E13.38825
G1 X84.121 Y105.742 E13.40557
G1 X83.892 Y105.766 E13.41323
G1 X83.788 Y106.246 E13.42957
G1 X83.487 Y106.954 E13.45516
G1 X83.332 Y107.227 E13.4656
G1 X83.04 Y107.659 E13.48294
G1 X82.686 Y108.041 E13.50026
G1 X82.278 Y108.365 E13.51759
G1 X82.04 Y108.513 E13.52691
G1 X81.636 Y108.739 E13.54231
G1 X81.379 Y108.88 E13.55206
G1 X80.905 Y109.095 E13.56937
G1 X80.403 Y109.235 E13.5867
G1 X79.885 Y109.296 E13.60405
G1 X79.614 Y109.297 E13.61306
G1 X79.3 Y109.285 E13.62352
G1 X78.782 Y109.225 E13.64086
G1 X78.28 Y109.087 E13.65818
G1 X78.093 Y108.994 E13.66512
G1 X77.755 Y109.367 E13.68186
G1 X77.35 Y109.694 E13.69918
G1 X77.124 Y109.837 E13.70807
G1 X76.853 Y109.994 E13.71849
G1 X76.384 Y110.22 E13.73581
G1 X75.885 Y110.371 E13.75315
G1 X75.117 Y110.452 E13.77883
G1 X74.643 Y110.447 E13.7946
G1 X74.347 Y110.44 E13.80444
G1 X73.828 Y110.388 E13.82179
G1 X73.324 Y110.257 E13.83911
G1 X72.619 Y109.921 E13.86509
G1 X72.353 Y109.754 E13.87553
G1 X71.934 Y109.443 E13.89289
G1 X71.568 Y109.073 E13.9102
G1 X71.45 Y108.896 E13.91728
G1 X70.974 Y109.049 E13.9339
G1 X70.46 Y109.13 E13.95121
G1 X70.198 Y109.141 E13.95993
G1 X69.883 Y109.142 E13.97041
G1 X69.363 Y109.104 E13.98775
G1 X68.855 Y108.986 E14.0051
G1 X68.143 Y108.669 E14.03102
G1 X67.737 Y108.429 E14.04671
G1 X67.487 Y108.277 E14.05644
G1 X67.063 Y107.973 E14.07379
G1 X66.692 Y107.608 E14.0911
G1 X66.252 Y106.97 E14.11688
G1 X66.104 Y106.692 E14.12735
G1 X65.895 Y106.214 E14.1447
G1 X65.761 Y105.711 E14.16202
G1 X65.737 Y105.487 E14.16951
G1 X65.258 Y105.383 E14.18581
G1 X64.55 Y105.082 E14.2114
G1 X64.277 Y104.927 E14.22184
G1 X63.845 Y104.635 E14.23919
G1 X63.463 Y104.281 E14.25651
G1 X63.139 Y103.873 E14.27384
G1 X62.991 Y103.635 E14.28316
G1 X62.768 Y103.236 E14.29836
G1 X62.627 Y102.98 E14.30808
G1 X62.411 Y102.506 E14.32541
G1 X62.27 Y102.004 E14.34275
G1 X62.208 Y101.487 E14.36007
G1 X62.207 Y101.21 E14.36928
G1 X62.219 Y100.896 E14.37973
G1 X62.279 Y100.378 E14.39708
G1 X62.417 Y99.876 E14.41439
G1 X62.51 Y99.689 E14.42134
G1 X62.137 Y99.351 E14.43808
G1 X61.81 Y98.946 E14.45539
G1 X61.664 Y98.716 E14.46445
G1 X61.507 Y98.444 E14.4749
G1 X61.282 Y97.974 E14.49223
G1 X61.131 Y97.475 E14.50957
G1 X61.052 Y96.712 E14.53508
G1 X61.057 Y96.237 E14.55088
G1 X61.064 Y95.942 E14.5607
G1 X61.116 Y95.424 E14.57801
G1 X61.247 Y94.919 E14.59537
G1 X61.58 Y94.22 E14.62112
G1 X61.747 Y93.953 E14.63159
G1 X62.057 Y93.534 E14.64893
G1 X62.427 Y93.167 E14.66626
G1 X62.606 Y93.037 E14.67362
G1 X62.455 Y92.569 E14.68997
G1 X62.374 Y92.055 E14.70728
G1 X62.363 Y91.793 E14.716
G1 X62.362 Y91.478 E14.72648
G1 X62.4 Y90.958 E14.74382
G1 X62.518 Y90.45 E14.76117
G1 X62.835 Y89.738 E14.78709
G1 X63.078 Y89.326 E14.803
G1 X63.23 Y89.077 E14.8127
G1 X63.535 Y88.655 E14.83002
G1 X63.901 Y88.284 E14.84735
G1 X64.526 Y87.852 E14.87262
G1 X64.804 Y87.703 E14.88311
G1 X65.281 Y87.493 E14.90045
G1 X65.784 Y87.358 E14.91777
G1 X66.017 Y87.333 E14.92556
G1 X66.121 Y86.853 E14.9419
G1 X66.425 Y86.141 E14.96765
G1 X66.58 Y85.869 E14.97806
G1 X66.872 Y85.437 E14.9954
G1 X67.226 Y85.055 E15.01273
G1 X67.635 Y84.732 E15.03006
G1 X67.869 Y84.587 E15.03922
G1 X68.268 Y84.364 E15.05442
G1 X68.524 Y84.223 E15.06414
G1 X68.998 Y84.007 E15.08147
G1 X69.5 Y83.866 E15.09881
G1 X70.017 Y83.804 E15.11613
G1 X70.283 Y83.803 E15.12497
G1 X70.597 Y83.814 E15.13542
G1 X71.115 Y83.872 E15.15276
G1 X71.618 Y84.009 E15.1701
G1 X71.82 Y84.099 E15.17746
G1 X72.153 Y83.732 E15.19394
G1 X72.558 Y83.405 E15.21125
G1 X72.788 Y83.259 E15.22031
G1 X73.06 Y83.102 E15.23076
G1 X73.53 Y82.877 E15.24809
G1 X74.029 Y82.726 E15.26543
G1 X74.792 Y82.647 E15.29094
