;FLAVOR:Marlin
;TIME:5573
;Filament used: 4.67906m
;Layer height: 0.28
;MINX:62.9
;MINY:54.793
;MINZ:0.28
;MAXX:168.961
;MAXY:163.302
;MAXZ:3.08
;Generated with Cura_SteamEngine 4.11.0
M140 S50
M105
M190 S50
M104 S200
M105
M109 S200
M82 ;absolute extrusion mode
; Ender 3 Custom Start G-code
G92 E0 ; Reset Extruder
G28 ; Home all axes
G1 Z2.0 F3000 ; Move Z Axis up little to prevent scratching of Heat Bed
G1 X0.1 Y20 Z0.3 F5000.0 ; Move to start position
G1 X0.1 Y200.0 Z0.3 F1500.0 E15 ; Draw the first line
G1 X0.4 Y200.0 Z0.3 F5000.0 ; Move to side a little
G1 X0.4 Y20 Z0.3 F1500.0 E30 ; Draw the second line
G92 E0 ; Reset Extruder
G1 Z2.0 F3000 ; Move Z Axis up little to prevent scratching of Heat Bed
G1 X5 Y20 Z0.3 F5000.0 ; Move over to prevent blob squish
G92 E0
G92 E0
G1 F2700 E-5
;LAYER_COUNT:11
;LAYER:0
M107
G0 F6000 X68.12 Y58.397 Z0.28
;TYPE:SKIRT
G1 F2700 E0
G1 F1200 X68.645 Y57.807 E0.03677
G1 X69.227 Y57.273 E0.07355
G1 X69.86 Y56.801 E0.11032
G1 X70.538 Y56.395 E0.14712
G1 X71.253 Y56.06 E0.18389
G1 X71.998 Y55.799 E0.22064
G1 X72.445 Y55.682 E0.24216
G1 X75.429 Y54.992 E0.38477
G1 X76.206 Y54.853 E0.42153
G1 X76.994 Y54.793 E0.45833
G1 X77.783 Y54.814 E0.49508
G1 X78.566 Y54.914 E0.53183
G1 X79.335 Y55.093 E0.5686
G1 X80.083 Y55.349 E0.60541
G1 X80.501 Y55.531 E0.62664
G1 X83.049 Y56.727 E0.75771
G1 X159.566 Y58.231 E4.32135
G1 X160.354 Y58.286 E4.35813
G1 X161.132 Y58.421 E4.3949
G1 X161.893 Y58.634 E4.43169
G1 X162.628 Y58.922 E4.46845
G1 X163.33 Y59.284 E4.50523
G1 X163.992 Y59.714 E4.54199
G1 X164.607 Y60.21 E4.57878
G1 X165.01 Y60.597 E4.6048
G1 X166.758 Y62.398 E4.72166
G1 X167.279 Y62.991 E4.75842
G1 X167.737 Y63.635 E4.79522
G1 X168.127 Y64.321 E4.83196
G1 X168.446 Y65.043 E4.86871
G1 X168.691 Y65.794 E4.9055
G1 X168.858 Y66.566 E4.94228
G1 X168.946 Y67.351 E4.97906
G1 X168.961 Y67.906 E5.00491
G1 X168.918 Y72.294 E5.20925
G1 X168.87 Y73.083 E5.24605
G1 X168.743 Y73.862 E5.2828
G1 X168.537 Y74.625 E5.31961
G1 X168.256 Y75.362 E5.35633
G1 X167.902 Y76.068 E5.39311
G1 X167.478 Y76.734 E5.42987
G1 X166.988 Y77.354 E5.46667
G1 X166.605 Y77.761 E5.49269
G1 X164.82 Y79.528 E5.60965
G1 X164.232 Y80.055 E5.64641
G1 X163.593 Y80.519 E5.68319
G1 X162.91 Y80.916 E5.71997
G1 X162.191 Y81.242 E5.75673
G1 X161.443 Y81.494 E5.79348
G1 X160.673 Y81.669 E5.83025
G1 X159.889 Y81.765 E5.86703
G1 X159.333 Y81.785 E5.89294
G1 X158.161 Y81.785 E5.94751
G1 X158.202 Y82.027 E5.95894
G1 X158.256 Y82.943 E6.00167
G1 X158.256 Y112.194 E7.36372
G1 X159.926 Y115.211 E7.52429
G1 X160.273 Y115.921 E7.56108
G1 X160.547 Y116.662 E7.59787
G1 X160.744 Y117.426 E7.63461
G1 X160.863 Y118.207 E7.6714
G1 X160.902 Y118.996 E7.70818
G1 X160.861 Y119.784 E7.74492
G1 X160.766 Y120.438 E7.7757
G1 X160.168 Y123.6 E7.92554
G1 X159.982 Y124.368 E7.96234
G1 X159.72 Y125.113 E7.99911
G1 X159.383 Y125.827 E8.03587
G1 X158.976 Y126.504 E8.07266
G1 X158.503 Y127.136 E8.10941
G1 X157.968 Y127.717 E8.14619
G1 X157.481 Y128.156 E8.17672
G1 X153.041 Y131.836 E8.44525
G1 X152.409 Y132.309 E8.48201
G1 X151.731 Y132.715 E8.5188
G1 X151.017 Y133.051 E8.55555
G1 X150.272 Y133.312 E8.5923
G1 X149.504 Y133.497 E8.62909
G1 X148.721 Y133.603 E8.66588
G1 X148.064 Y133.631 E8.6965
G1 X144.848 Y133.631 E8.84625
G1 X144.059 Y133.591 E8.88304
G1 X143.279 Y133.472 E8.91978
G1 X142.514 Y133.274 E8.95657
G1 X141.774 Y133 E8.99332
G1 X141.147 Y132.692 E9.02585
G1 X140.601 Y133.014 E9.05536
G1 X139.976 Y133.306 E9.08748
G1 X139.214 Y133.622 E9.1259
G1 X138.47 Y133.887 E9.16267
G1 X137.703 Y134.076 E9.19946
G1 X136.921 Y134.186 E9.23623
G1 X136.226 Y134.217 E9.26862
G1 X129.441 Y134.217 E9.58456
G1 X129.558 Y134.719 E9.60856
G1 X129.658 Y135.502 E9.64532
G1 X129.681 Y136.098 E9.67309
G1 X129.681 Y149.905 E10.316
G1 X129.641 Y150.694 E10.35279
G1 X129.522 Y151.474 E10.38953
G1 X129.324 Y152.239 E10.42632
G1 X129.05 Y152.979 E10.46307
G1 X128.702 Y153.688 E10.49984
G1 X128.284 Y154.359 E10.53665
G1 X127.801 Y154.983 E10.5734
G1 X127.396 Y155.42 E10.60114
G1 X121.799 Y161.017 E10.96971
G1 X121.213 Y161.547 E11.00651
G1 X120.577 Y162.014 E11.04325
G1 X119.897 Y162.415 E11.08001
G1 X119.179 Y162.745 E11.1168
G1 X118.432 Y163 E11.15355
G1 X117.663 Y163.179 E11.19032
G1 X116.879 Y163.279 E11.22712
G1 X116.284 Y163.302 E11.25485
G1 X90.915 Y163.302 E12.43614
G1 X90.126 Y163.262 E12.47292
G1 X89.346 Y163.143 E12.50966
G1 X88.581 Y162.945 E12.54646
G1 X87.841 Y162.671 E12.5832
G1 X87.017 Y162.258 E12.62612
G1 X82.889 Y159.876 E12.84804
G1 X82.225 Y159.447 E12.88485
G1 X81.609 Y158.953 E12.92162
G1 X81.046 Y158.4 E12.95837
G1 X80.541 Y157.792 E12.99517
G1 X80.031 Y157.018 E13.03833
G1 X75.567 Y149.282 E13.45422
G1 X75.208 Y148.579 E13.49098
G1 X74.921 Y147.844 E13.52772
G1 X74.71 Y147.082 E13.56454
G1 X74.577 Y146.304 E13.60129
G1 X74.523 Y145.384 E13.6442
G1 X74.523 Y140.619 E13.86608
G1 X74.563 Y139.83 E13.90287
G1 X74.682 Y139.05 E13.93961
G1 X74.88 Y138.285 E13.9764
G1 X75.154 Y137.545 E14.01315
G1 X75.567 Y136.721 E14.05607
G1 X77.411 Y133.525 E14.22788
G1 X76.882 Y133.306 E14.25454
G1 X76.169 Y132.967 E14.2913
G1 X75.494 Y132.558 E14.32805
G1 X74.863 Y132.082 E14.36486
G1 X74.355 Y131.616 E14.39695
G1 X73.23 Y130.491 E14.47104
G1 X72.7 Y129.905 E14.50783
G1 X72.233 Y129.269 E14.54457
G1 X71.832 Y128.589 E14.58133
G1 X71.539 Y127.961 E14.6136
G1 X71.223 Y127.198 E14.65205
G1 X70.958 Y126.454 E14.68883
G1 X70.769 Y125.687 E14.72561
G1 X70.66 Y124.905 E14.76238
G1 X70.629 Y124.213 E14.79463
G1 X70.629 Y82.76 E16.72486
G1 X70.664 Y82.067 E16.75717
G1 X70.003 Y81.705 E16.79226
G1 X69.352 Y81.259 E16.829
G1 X68.749 Y80.748 E16.86581
G1 X68.201 Y80.18 E16.90256
G1 X67.907 Y79.821 E16.92417
G1 X64.523 Y75.432 E17.18223
G1 X64.073 Y74.783 E17.219
G1 X63.691 Y74.092 E17.25577
G1 X63.381 Y73.365 E17.29257
G1 X63.146 Y72.611 E17.32935
G1 X62.988 Y71.838 E17.36608
G1 X62.909 Y71.052 E17.40287
G1 X62.9 Y70.59 E17.42438
G1 X62.931 Y67.524 E17.56716
G1 X62.979 Y66.736 E17.60392
G1 X63.107 Y65.957 E17.64068
G1 X63.312 Y65.194 E17.67747
G1 X63.594 Y64.456 E17.71425
G1 X63.949 Y63.751 E17.75101
G1 X64.373 Y63.085 E17.78777
G1 X64.649 Y62.719 E17.80912
G1 X68.12 Y58.397 E18.06723
G0 F6000 X68.432 Y58.647
G1 F1200 X68.944 Y58.073 E18.10305
G1 X69.513 Y57.556 E18.13885
G1 X70.133 Y57.1 E18.17469
G1 X70.797 Y56.711 E18.21052
G1 X71.497 Y56.393 E18.24632
G1 X72.535 Y56.071 E18.29693
G1 X75.519 Y55.381 E18.43954
G1 X76.276 Y55.247 E18.47534
G1 X77.043 Y55.192 E18.51114
G1 X77.812 Y55.218 E18.54697
G1 X78.574 Y55.322 E18.58278
G1 X79.321 Y55.506 E18.61861
G1 X80.331 Y55.893 E18.66897
G1 X82.954 Y57.125 E18.80391
G1 X159.558 Y58.63 E22.3716
G1 X160.326 Y58.685 E22.40745
G1 X161.083 Y58.82 E22.44326
G1 X161.822 Y59.032 E22.47906
G1 X162.535 Y59.32 E22.51486
G1 X163.215 Y59.68 E22.55069
G1 X163.853 Y60.109 E22.58649
G1 X164.444 Y60.602 E22.62233
G1 X164.723 Y60.875 E22.6405
G1 X166.471 Y62.676 E22.75737
G1 X166.977 Y63.255 E22.79318
G1 X167.421 Y63.884 E22.82903
G1 X167.797 Y64.555 E22.86484
G1 X168.101 Y65.261 E22.90063
G1 X168.33 Y65.995 E22.93644
G1 X168.482 Y66.749 E22.97225
G1 X168.554 Y67.515 E23.00808
G1 X168.561 Y67.903 E23.02615
G1 X168.518 Y72.291 E23.23048
G1 X168.47 Y73.058 E23.26627
G1 X168.343 Y73.817 E23.3021
G1 X168.138 Y74.558 E23.3379
G1 X167.857 Y75.274 E23.37372
G1 X167.504 Y75.957 E23.40952
G1 X167.081 Y76.6 E23.44535
G1 X166.594 Y77.195 E23.48116
G1 X166.324 Y77.477 E23.49934
G1 X164.539 Y79.244 E23.61629
G1 X163.965 Y79.756 E23.65211
G1 X163.341 Y80.206 E23.68793
G1 X162.674 Y80.588 E23.72372
G1 X161.97 Y80.899 E23.75956
G1 X161.238 Y81.136 E23.79539
G1 X160.486 Y81.295 E23.83118
G1 X159.721 Y81.375 E23.86699
G1 X159.333 Y81.385 E23.88506
G1 X157.69 Y81.385 E23.96157
G1 X157.814 Y82.153 E23.99779
G1 X157.856 Y82.943 E24.03463
G1 X157.856 Y112.298 E25.40152
G1 X159.576 Y115.405 E25.56689
G1 X159.913 Y116.097 E25.60273
G1 X160.177 Y116.819 E25.63852
G1 X160.364 Y117.565 E25.67434
G1 X160.472 Y118.327 E25.71017
G1 X160.501 Y119.095 E25.74596
G1 X160.45 Y119.863 E25.7818
G1 X160.373 Y120.364 E25.8054
G1 X159.775 Y123.526 E25.95525
G1 X159.593 Y124.273 E25.99105
G1 X159.334 Y124.998 E26.0269
G1 X159.002 Y125.691 E26.06268
G1 X158.6 Y126.347 E26.0985
G1 X158.131 Y126.957 E26.13433
G1 X157.602 Y127.515 E26.17014
G1 X157.226 Y127.848 E26.19352
G1 X152.786 Y131.528 E26.46205
G1 X152.169 Y131.988 E26.49789
G1 X151.508 Y132.381 E26.53369
G1 X150.81 Y132.703 E26.56949
G1 X150.081 Y132.951 E26.60534
G1 X149.332 Y133.122 E26.64112
G1 X148.568 Y133.214 E26.67695
G1 X148.064 Y133.231 E26.70043
G1 X144.848 Y133.231 E26.85018
G1 X144.08 Y133.191 E26.88599
G1 X143.32 Y133.072 E26.92181
G1 X142.577 Y132.874 E26.95762
G1 X141.858 Y132.6 E26.99344
G1 X141.172 Y132.253 E27.02924
G1 X141.13 Y132.226 E27.03157
G1 X141.027 Y132.301 E27.0375
G1 X140.362 Y132.687 E27.0733
G1 X139.823 Y132.937 E27.10097
G1 X139.061 Y133.253 E27.13938
G1 X138.336 Y133.51 E27.1752
G1 X137.588 Y133.691 E27.21103
G1 X136.826 Y133.793 E27.24683
G1 X136.226 Y133.817 E27.27479
G1 X128.91 Y133.817 E27.61546
G1 X129.022 Y134.156 E27.63208
G1 X129.185 Y134.908 E27.66791
G1 X129.269 Y135.672 E27.7037
G1 X129.281 Y136.098 E27.72354
G1 X129.281 Y149.905 E28.36646
G1 X129.241 Y150.673 E28.40226
G1 X129.122 Y151.433 E28.43808
G1 X128.924 Y152.176 E28.47389
G1 X128.65 Y152.895 E28.50972
G1 X128.303 Y153.581 E28.54551
G1 X127.887 Y154.228 E28.58133
G1 X127.406 Y154.828 E28.61714
G1 X127.114 Y155.138 E28.63697
G1 X121.517 Y160.735 E29.00554
G1 X120.945 Y161.249 E29.04135
G1 X120.323 Y161.702 E29.07718
G1 X119.658 Y162.088 E29.11298
G1 X118.956 Y162.403 E29.14881
G1 X118.225 Y162.643 E29.18464
G1 X117.474 Y162.806 E29.22042
G1 X116.709 Y162.89 E29.25626
G1 X116.284 Y162.902 E29.27606
G1 X90.915 Y162.902 E30.45734
G1 X90.147 Y162.862 E30.49315
G1 X89.387 Y162.743 E30.52897
G1 X88.644 Y162.545 E30.56478
G1 X87.925 Y162.271 E30.60061
G1 X87.217 Y161.911 E30.63759
G1 X83.089 Y159.529 E30.85951
G1 X82.443 Y159.111 E30.89534
G1 X81.845 Y158.628 E30.93113
G1 X81.3 Y158.085 E30.96696
G1 X80.814 Y157.489 E31.00277
G1 X80.378 Y156.819 E31.03999
G1 X75.914 Y149.083 E31.45588
G1 X75.564 Y148.397 E31.49174
G1 X75.288 Y147.679 E31.52756
G1 X75.088 Y146.937 E31.56334
G1 X74.966 Y146.177 E31.59918
G1 X74.923 Y145.384 E31.63616
G1 X74.923 Y140.619 E31.85804
G1 X74.963 Y139.851 E31.89385
G1 X75.082 Y139.091 E31.92967
G1 X75.28 Y138.348 E31.96548
G1 X75.554 Y137.629 E32.00131
G1 X75.914 Y136.92 E32.03833
G1 X77.989 Y133.324 E32.23165
G1 X77.797 Y133.253 E32.24119
G1 X77.035 Y132.937 E32.2796
G1 X76.341 Y132.605 E32.31542
G1 X75.685 Y132.204 E32.35122
G1 X75.074 Y131.737 E32.38703
G1 X74.637 Y131.334 E32.41471
G1 X73.512 Y130.209 E32.48879
G1 X72.998 Y129.637 E32.5246
G1 X72.545 Y129.015 E32.56043
G1 X72.159 Y128.35 E32.59624
G1 X71.908 Y127.808 E32.62405
G1 X71.592 Y127.045 E32.6625
G1 X71.335 Y126.32 E32.69832
G1 X71.155 Y125.572 E32.73415
G1 X71.053 Y124.809 E32.76999
G1 X71.029 Y124.213 E32.79776
G1 X71.029 Y82.76 E34.72799
G1 X71.069 Y81.992 E34.7638
G1 X71.096 Y81.818 E34.772
G1 X70.834 Y81.706 E34.78527
G1 X70.162 Y81.333 E34.82106
G1 X69.531 Y80.892 E34.8569
G1 X68.95 Y80.388 E34.89272
G1 X68.224 Y79.576 E34.94344
G1 X64.84 Y75.187 E35.2015
G1 X64.402 Y74.555 E35.2373
G1 X64.033 Y73.88 E35.27312
G1 X63.736 Y73.171 E35.30892
G1 X63.514 Y72.434 E35.34476
G1 X63.369 Y71.679 E35.38056
G1 X63.3 Y70.594 E35.43118
G1 X63.331 Y67.528 E35.57395
G1 X63.379 Y66.761 E35.60974
G1 X63.506 Y66.002 E35.64557
G1 X63.711 Y65.261 E35.68137
G1 X63.993 Y64.545 E35.71721
G1 X64.346 Y63.862 E35.75301
G1 X64.961 Y62.969 E35.80349
G1 X68.432 Y58.647 E36.06161
G0 F6000 X68.744 Y58.898
G1 F1200 X69.243 Y58.34 E36.09647
G1 X69.799 Y57.839 E36.13132
G1 X70.404 Y57.401 E36.1661
G1 X71.054 Y57.029 E36.20097
G1 X71.739 Y56.729 E36.23579
G1 X72.625 Y56.461 E36.27889
G1 X75.609 Y55.771 E36.42151
G1 X76.346 Y55.642 E36.45635
G1 X77.092 Y55.592 E36.49116
G1 X77.84 Y55.622 E36.52602
G1 X78.58 Y55.731 E36.56085
G1 X79.304 Y55.919 E36.59568
G1 X80.161 Y56.255 E36.63854
G1 X82.861 Y57.523 E36.77744
G1 X159.551 Y59.03 E40.34914
G1 X160.297 Y59.085 E40.38397
G1 X161.033 Y59.219 E40.4188
G1 X161.75 Y59.431 E40.45362
G1 X162.441 Y59.718 E40.48846
G1 X163.097 Y60.077 E40.52328
G1 X163.711 Y60.504 E40.5581
G1 X164.436 Y61.154 E40.60344
G1 X166.184 Y62.955 E40.72031
G1 X166.676 Y63.519 E40.75516
G1 X167.104 Y64.132 E40.78997
G1 X167.465 Y64.787 E40.8248
G1 X167.754 Y65.477 E40.85963
G1 X167.967 Y66.194 E40.89446
G1 X168.103 Y66.93 E40.92931
G1 X168.161 Y67.899 E40.97451
G1 X168.118 Y72.287 E41.17885
G1 X168.07 Y73.033 E41.21366
G1 X167.944 Y73.77 E41.24847
G1 X167.739 Y74.49 E41.28333
G1 X167.459 Y75.184 E41.31818
G1 X167.106 Y75.843 E41.35299
G1 X166.685 Y76.462 E41.38785
G1 X166.043 Y77.193 E41.43315
G1 X164.258 Y78.96 E41.5501
G1 X163.699 Y79.457 E41.58493
G1 X163.09 Y79.892 E41.61978
G1 X162.438 Y80.259 E41.65462
G1 X161.751 Y80.554 E41.68943
G1 X161.036 Y80.775 E41.72428
G1 X160.302 Y80.918 E41.7591
G1 X159.333 Y80.985 E41.80433
G1 X157.169 Y80.985 E41.9051
G1 X157.313 Y81.538 E41.9317
G1 X157.424 Y82.277 E41.9665
G1 X157.456 Y82.943 E41.99755
G1 X157.456 Y112.402 E43.36928
G1 X159.226 Y115.599 E43.53944
G1 X159.553 Y116.272 E43.57428
G1 X159.806 Y116.976 E43.60912
G1 X159.983 Y117.703 E43.64396
G1 X160.081 Y118.444 E43.67876
G1 X160.099 Y119.192 E43.7136
G1 X159.98 Y120.29 E43.76503
G1 X159.382 Y123.452 E43.91487
G1 X159.204 Y124.178 E43.94968
G1 X158.949 Y124.882 E43.98455
G1 X158.621 Y125.554 E44.01937
G1 X158.223 Y126.187 E44.05418
G1 X157.76 Y126.775 E44.08903
G1 X156.971 Y127.54 E44.1402
G1 X152.531 Y131.22 E44.40873
G1 X151.93 Y131.666 E44.44358
G1 X151.286 Y132.046 E44.4784
G1 X150.604 Y132.354 E44.51324
G1 X149.893 Y132.588 E44.5481
G1 X149.162 Y132.744 E44.5829
G1 X148.064 Y132.831 E44.63419
G1 X144.848 Y132.831 E44.78394
G1 X144.101 Y132.791 E44.81877
G1 X143.363 Y132.672 E44.85358
G1 X142.641 Y132.474 E44.88844
G1 X141.945 Y132.201 E44.92326
G1 X141.282 Y131.854 E44.9581
G1 X141.119 Y131.74 E44.96736
G1 X140.775 Y131.988 E44.98711
G1 X140.125 Y132.359 E45.02196
G1 X139.669 Y132.567 E45.0453
G1 X138.907 Y132.883 E45.08371
G1 X138.202 Y133.132 E45.11852
G1 X137.474 Y133.305 E45.15337
G1 X136.732 Y133.399 E45.18819
G1 X136.226 Y133.417 E45.21177
G1 X128.338 Y133.417 E45.57907
G1 X128.438 Y133.646 E45.5907
G1 X128.662 Y134.36 E45.62555
G1 X128.809 Y135.094 E45.66041
G1 X128.881 Y136.098 E45.70728
G1 X128.881 Y149.905 E46.35019
G1 X128.841 Y150.652 E46.38502
G1 X128.722 Y151.39 E46.41983
G1 X128.524 Y152.112 E46.45469
G1 X128.251 Y152.808 E46.4895
G1 X127.904 Y153.471 E46.52435
G1 X127.489 Y154.094 E46.5592
G1 X126.831 Y154.855 E46.60605
G1 X121.234 Y160.452 E46.97462
G1 X120.677 Y160.952 E47.00947
G1 X120.071 Y161.389 E47.04426
G1 X119.421 Y161.76 E47.07911
G1 X118.735 Y162.059 E47.11396
G1 X118.021 Y162.283 E47.1488
G1 X117.288 Y162.43 E47.18361
G1 X116.284 Y162.502 E47.23048
G1 X90.915 Y162.502 E48.41177
G1 X90.168 Y162.462 E48.4466
G1 X89.43 Y162.343 E48.48141
G1 X88.708 Y162.145 E48.51627
G1 X88.012 Y161.872 E48.55109
G1 X87.416 Y161.565 E48.5823
G1 X83.288 Y159.183 E48.80423
G1 X82.661 Y158.775 E48.83906
G1 X82.081 Y158.302 E48.87391
G1 X81.555 Y157.771 E48.90871
G1 X81.089 Y157.186 E48.94354
G1 X80.724 Y156.619 E48.97494
G1 X76.26 Y148.883 E49.39083
G1 X75.921 Y148.216 E49.42567
G1 X75.656 Y147.516 E49.46052
G1 X75.466 Y146.793 E49.49533
G1 X75.355 Y146.053 E49.53017
G1 X75.323 Y145.384 E49.56136
G1 X75.323 Y140.619 E49.78324
G1 X75.363 Y139.872 E49.81807
G1 X75.482 Y139.134 E49.85288
G1 X75.68 Y138.412 E49.88774
G1 X75.953 Y137.716 E49.92255
G1 X76.26 Y137.12 E49.95377
G1 X78.579 Y133.102 E50.16979
G1 X78.425 Y133.06 E50.17722
G1 X77.951 Y132.883 E50.20078
G1 X77.189 Y132.567 E50.2392
G1 X76.514 Y132.244 E50.27404
G1 X75.877 Y131.851 E50.30889
G1 X75.287 Y131.392 E50.3437
G1 X74.92 Y131.051 E50.36703
G1 X73.795 Y129.926 E50.44111
G1 X73.295 Y129.369 E50.47596
G1 X72.858 Y128.763 E50.51075
G1 X72.487 Y128.113 E50.5456
G1 X72.278 Y127.654 E50.56909
G1 X71.962 Y126.891 E50.60754
G1 X71.713 Y126.186 E50.64236
G1 X71.541 Y125.458 E50.67719
