;FLAVOR:Marlin
;TIME:4688
;Filament used: 3.84754m
;Layer height: 0.28
;MINX:67.731
;MINY:73.456
;MINZ:0.28
;MAXX:181.999
;MAXY:169.585
;MAXZ:3.08
;Generated with Cura_SteamEngine 4.11.0
M140 S50
M105
M190 S50
M104 S200
M105
M109 S200
M82 ;absolute extrusion mode
; Ender 3 Custom Start G-code
G92 E0 ; Reset Extruder
G28 ; Home all axes
G1 Z2.0 F3000 ; Move Z Axis up little to prevent scratching of Heat Bed
G1 X0.1 Y20 Z0.3 F5000.0 ; Move to start position
G1 X0.1 Y200.0 Z0.3 F1500.0 E15 ; Draw the first line
G1 X0.4 Y200.0 Z0.3 F5000.0 ; Move to side a little
G1 X0.4 Y20 Z0.3 F1500.0 E30 ; Draw the second line
G92 E0 ; Reset Extruder
G1 Z2.0 F3000 ; Move Z Axis up little to prevent scratching of Heat Bed
G1 X5 Y20 Z0.3 F5000.0 ; Move over to prevent blob squish
G92 E0
G92 E0
G1 F2700 E-5
;LAYER_COUNT:11
;LAYER:0
M107
G0 F6000 X73.775 Y76.559 Z0.28
;TYPE:SKIRT
G1 F2700 E0
G1 F1200 X74.476 Y75.936 E0.04367
G1 X75.228 Y75.376 E0.08733
G1 X76.025 Y74.881 E0.13102
G1 X76.861 Y74.456 E0.17468
G1 X77.73 Y74.104 E0.21834
G1 X78.626 Y73.827 E0.26201
G1 X79.543 Y73.628 E0.30571
G1 X80.473 Y73.507 E0.34937
G1 X81.051 Y73.472 E0.37634
G1 X81.436 Y73.462 E0.39427
G1 X81.979 Y73.456 E0.41956
G1 X166.324 Y73.457 E4.34701
G1 X167.027 Y73.467 E4.37975
G1 X167.964 Y73.52 E4.42345
G1 X168.892 Y73.653 E4.46711
G1 X169.806 Y73.865 E4.51079
G1 X170.698 Y74.153 E4.55444
G1 X171.563 Y74.517 E4.59814
G1 X172.08 Y74.778 E4.62511
G1 X172.372 Y74.935 E4.64055
G1 X172.666 Y75.099 E4.65622
G1 X173.897 Y75.811 E4.72244
G1 X174.462 Y76.148 E4.75307
G1 X175.246 Y76.662 E4.79672
G1 X175.984 Y77.241 E4.8404
G1 X176.669 Y77.881 E4.88405
G1 X177.298 Y78.578 E4.92777
G1 X177.865 Y79.325 E4.97144
G1 X178.235 Y79.895 E5.00308
G1 X178.773 Y80.783 E5.05143
G1 X178.891 Y80.982 E5.0622
G1 X180.192 Y83.235 E5.18335
G1 X180.595 Y83.956 E5.22181
G1 X181.017 Y84.794 E5.2655
G1 X181.366 Y85.664 E5.30915
G1 X181.639 Y86.562 E5.35285
G1 X181.835 Y87.479 E5.39651
G1 X181.952 Y88.409 E5.44016
G1 X181.984 Y88.998 E5.46763
G1 X181.994 Y89.345 E5.48379
G1 X181.999 Y89.662 E5.49855
G1 X181.998 Y91.064 E5.56384
G1 X181.987 Y91.771 E5.59676
G1 X181.932 Y92.707 E5.64042
G1 X181.798 Y93.636 E5.68413
G1 X181.509 Y94.81 E5.74043
G1 X181.118 Y96.088 E5.80266
G1 X181.012 Y96.418 E5.8188
G1 X180.32 Y98.796 E5.93412
G1 X179.679 Y101.256 E6.05249
G1 X179.112 Y103.716 E6.17004
G1 X178.613 Y106.199 E6.28797
G1 X178.193 Y108.65 E6.40377
G1 X178.052 Y109.545 E6.44595
G1 X177.685 Y112.123 E6.56721
G1 X177.402 Y114.613 E6.6839
G1 X177.188 Y117.119 E6.80101
G1 X177.046 Y119.636 E6.9184
G1 X176.974 Y122.131 E7.03463
G1 X176.974 Y124.655 E7.15216
G1 X177.045 Y127.205 E7.27094
G1 X177.185 Y129.671 E7.38595
G1 X177.4 Y132.206 E7.50442
G1 X177.683 Y134.696 E7.62111
G1 X178.044 Y137.241 E7.7408
G1 X178.246 Y138.478 E7.79916
G1 X178.262 Y138.585 E7.8042
G1 X178.378 Y139.879 E7.8647
G1 X178.388 Y140.209 E7.88007
G1 X178.393 Y140.542 E7.89558
G1 X178.392 Y145.034 E8.10474
G1 X178.382 Y145.737 E8.13748
G1 X178.329 Y146.674 E8.18118
G1 X178.196 Y147.602 E8.22484
G1 X177.984 Y148.516 E8.26852
G1 X177.696 Y149.408 E8.31217
G1 X177.332 Y150.273 E8.35587
G1 X176.754 Y151.342 E8.41246
G1 X176.09 Y152.419 E8.47137
G1 X175.938 Y152.659 E8.4846
G1 X174.631 Y154.847 E8.60328
G1 X173.421 Y157.009 E8.71864
G1 X172.246 Y159.257 E8.83675
G1 X171.143 Y161.519 E8.95394
G1 X170.801 Y162.274 E8.99253
G1 X170.341 Y163.253 E9.0429
G1 X169.906 Y164.084 E9.08658
G1 X169.402 Y164.875 E9.13025
G1 X168.833 Y165.62 E9.1739
G1 X168.202 Y166.314 E9.21758
G1 X167.514 Y166.952 E9.26127
G1 X166.775 Y167.529 E9.30492
G1 X165.989 Y168.041 E9.3486
G1 X165.162 Y168.484 E9.39229
G1 X164.301 Y168.854 E9.43593
G1 X163.411 Y169.151 E9.47962
G1 X162.499 Y169.37 E9.52329
G1 X161.572 Y169.511 E9.56695
G1 X160.726 Y169.57 E9.60644
G1 X160.404 Y169.58 E9.62144
G1 X160.063 Y169.585 E9.63732
G1 X143.944 Y169.584 E10.38789
G1 X143.24 Y169.574 E10.42067
G1 X142.303 Y169.521 E10.46437
G1 X141.375 Y169.388 E10.50803
G1 X140.461 Y169.176 E10.55172
G1 X139.569 Y168.888 E10.59536
G1 X138.704 Y168.524 E10.63906
G1 X138.171 Y168.255 E10.66686
G1 X137.749 Y168.027 E10.6892
G1 X135.472 Y166.84 E10.80877
G1 X133.179 Y165.724 E10.92751
G1 X130.921 Y164.705 E11.04286
G1 X128.541 Y163.707 E11.16304
G1 X126.231 Y162.82 E11.27826
G1 X123.863 Y161.984 E11.39519
G1 X121.451 Y161.208 E11.51317
G1 X119.061 Y160.513 E11.62907
G1 X116.6 Y159.873 E11.74748
G1 X114.121 Y159.3 E11.86595
G1 X111.713 Y158.818 E11.9803
G1 X109.195 Y158.388 E12.09925
G1 X106.696 Y158.032 E12.21679
G1 X104.216 Y157.749 E12.33302
G1 X101.701 Y157.535 E12.45055
G1 X99.219 Y157.394 E12.56631
G1 X96.632 Y157.321 E12.68682
G1 X95.334 Y157.312 E12.74726
G1 X89.715 Y157.312 E13.0089
G1 X88.844 Y157.3 E13.04946
G1 X87.907 Y157.245 E13.09317
G1 X86.979 Y157.111 E13.13683
G1 X86.066 Y156.898 E13.18048
G1 X85.174 Y156.608 E13.22416
G1 X84.31 Y156.243 E13.26783
G1 X83.48 Y155.806 E13.31151
G1 X82.691 Y155.3 E13.35516
G1 X81.947 Y154.728 E13.39886
G1 X81.255 Y154.095 E13.44253
G1 X80.619 Y153.406 E13.48619
G1 X80.044 Y152.664 E13.5299
G1 X79.535 Y151.877 E13.57354
G1 X79.094 Y151.049 E13.61722
G1 X78.726 Y150.187 E13.66087
G1 X78.433 Y149.296 E13.70454
G1 X78.216 Y148.383 E13.74824
G1 X78.078 Y147.456 E13.79188
G1 X78.021 Y146.6 E13.83183
G1 X78.012 Y146.269 E13.84724
G1 X78.008 Y145.97 E13.86117
G1 X78.009 Y140.858 E14.0992
G1 X78.031 Y139.298 E14.17185
G1 X78.031 Y136.724 E14.29171
G1 X77.959 Y134.166 E14.41087
G1 X77.818 Y131.682 E14.52672
G1 X77.606 Y129.189 E14.64322
G1 X77.319 Y126.668 E14.76137
G1 X76.966 Y124.186 E14.8781
G1 X76.536 Y121.681 E14.99645
G1 X76.043 Y119.219 E15.11337
G1 X75.49 Y116.815 E15.22823
G1 X74.849 Y114.355 E15.34661
G1 X74.139 Y111.91 E15.46516
G1 X73.367 Y109.513 E15.58242
G1 X72.533 Y107.152 E15.69901
G1 X71.634 Y104.816 E15.81557
G1 X70.658 Y102.484 E15.93328
G1 X69.622 Y100.188 E16.05057
G1 X68.897 Y98.687 E16.12819
G1 X68.526 Y97.826 E16.17185
G1 X68.23 Y96.936 E16.21552
G1 X68.096 Y96.425 E16.24012
G1 X68.028 Y96.136 E16.25394
G1 X67.853 Y95.215 E16.2976
G1 X67.756 Y94.282 E16.34127
G1 X67.737 Y93.741 E16.36648
G1 X67.731 Y93.175 E16.39284
G1 X67.732 Y87.69 E16.64824
G1 X67.742 Y86.99 E16.68084
G1 X67.795 Y86.054 E16.72449
G1 X67.928 Y85.125 E16.76819
G1 X68.14 Y84.211 E16.81188
G1 X68.429 Y83.319 E16.85554
G1 X68.792 Y82.455 E16.89918
G1 X69.228 Y81.624 E16.94288
G1 X69.733 Y80.834 E16.98654
G1 X70.304 Y80.089 E17.03025
G1 X70.676 Y79.666 E17.05648
G1 X70.817 Y79.514 E17.06613
G1 X71.019 Y79.302 E17.07977
G1 X71.283 Y79.034 E17.09728
G1 X73.288 Y77.03 E17.22928
G1 X73.775 Y76.559 E17.26083
G0 F6000 X74.053 Y76.847
G1 F1200 X74.742 Y76.236 E17.30371
G1 X75.481 Y75.687 E17.34658
G1 X76.265 Y75.205 E17.38943
G1 X77.088 Y74.792 E17.43231
G1 X77.944 Y74.453 E17.47518
G1 X78.826 Y74.189 E17.51805
G1 X79.728 Y74.002 E17.56094
G1 X81.064 Y73.872 E17.62345
G1 X81.44 Y73.862 E17.64096
G1 X81.979 Y73.856 E17.66606
G1 X166.319 Y73.857 E21.59328
G1 X167.022 Y73.867 E21.62602
G1 X167.941 Y73.92 E21.66889
G1 X168.852 Y74.053 E21.71176
G1 X169.748 Y74.264 E21.75462
G1 X170.622 Y74.552 E21.79747
G1 X171.469 Y74.915 E21.84038
G1 X171.891 Y75.13 E21.86243
G1 X172.183 Y75.287 E21.87787
G1 X172.466 Y75.445 E21.89296
G1 X173.692 Y76.154 E21.95891
G1 X174.257 Y76.491 E21.98954
G1 X175.026 Y76.997 E22.0324
G1 X175.749 Y77.567 E22.07527
G1 X176.42 Y78.198 E22.11816
G1 X177.033 Y78.885 E22.16104
G1 X177.584 Y79.622 E22.20389
G1 X177.893 Y80.102 E22.23047
G1 X178.431 Y80.99 E22.27881
G1 X178.544 Y81.182 E22.28919
G1 X179.923 Y83.572 E22.41767
G1 X180.246 Y84.151 E22.44854
G1 X180.659 Y84.974 E22.49142
G1 X180.999 Y85.829 E22.53427
G1 X181.264 Y86.711 E22.57715
G1 X181.451 Y87.612 E22.62
G1 X181.56 Y88.527 E22.6629
G1 X181.585 Y89.01 E22.68543
G1 X181.595 Y89.357 E22.70159
G1 X181.599 Y89.662 E22.71579
G1 X181.598 Y91.058 E22.7808
G1 X181.587 Y91.765 E22.81372
G1 X181.532 Y92.684 E22.85659
G1 X181.399 Y93.595 E22.89946
G1 X181.127 Y94.694 E22.95218
G1 X180.788 Y95.805 E23.00627
G1 X180.636 Y96.279 E23.02944
G1 X179.932 Y98.698 E23.14676
G1 X179.288 Y101.17 E23.2657
G1 X178.724 Y103.619 E23.38273
G1 X178.221 Y106.119 E23.50147
G1 X177.791 Y108.634 E23.62028
G1 X177.654 Y109.503 E23.66124
G1 X177.29 Y112.057 E23.78137
G1 X177.005 Y114.563 E23.89881
G1 X176.789 Y117.1 E24.01737
G1 X176.647 Y119.603 E24.13411
G1 X176.574 Y122.155 E24.25299
G1 X176.574 Y124.666 E24.36991
G1 X176.645 Y127.205 E24.48818
G1 X176.788 Y129.727 E24.60581
G1 X177.002 Y132.249 E24.72366
G1 X177.283 Y134.726 E24.83974
G1 X177.651 Y137.319 E24.96169
G1 X177.85 Y138.537 E25.01916
G1 X177.866 Y138.644 E25.0242
G1 X177.978 Y139.891 E25.0825
G1 X177.988 Y140.221 E25.09787
G1 X177.993 Y140.542 E25.11282
G1 X177.992 Y145.029 E25.32175
G1 X177.982 Y145.732 E25.35449
G1 X177.929 Y146.651 E25.39736
G1 X177.796 Y147.562 E25.44023
G1 X177.585 Y148.458 E25.48309
G1 X177.297 Y149.332 E25.52594
G1 X176.934 Y150.179 E25.56885
G1 X176.413 Y151.133 E25.61946
G1 X175.753 Y152.204 E25.67804
G1 X175.6 Y152.445 E25.69133
G1 X174.282 Y154.653 E25.81107
G1 X173.068 Y156.822 E25.92681
G1 X171.883 Y159.089 E26.04593
G1 X170.783 Y161.343 E26.16271
G1 X170.439 Y162.104 E26.2016
G1 X169.979 Y163.083 E26.25197
G1 X169.551 Y163.898 E26.29483
G1 X169.055 Y164.674 E26.33772
G1 X168.493 Y165.403 E26.38058
G1 X167.87 Y166.081 E26.42345
G1 X167.19 Y166.702 E26.46633
G1 X166.46 Y167.262 E26.50918
G1 X165.683 Y167.756 E26.55205
G1 X164.866 Y168.181 E26.59493
G1 X164.016 Y168.534 E26.63779
G1 X163.138 Y168.811 E26.68066
G1 X162.239 Y169.012 E26.72355
G1 X161.327 Y169.133 E26.76639
G1 X160.714 Y169.17 E26.79499
G1 X160.392 Y169.18 E26.80999
G1 X160.063 Y169.185 E26.82531
G1 X143.949 Y169.184 E27.57565
G1 X143.245 Y169.174 E27.60843
G1 X142.326 Y169.121 E27.65129
G1 X141.415 Y168.988 E27.69416
G1 X140.519 Y168.777 E27.73703
G1 X139.645 Y168.489 E27.77988
G1 X138.799 Y168.126 E27.82274
G1 X138.361 Y167.903 E27.84563
G1 X137.973 Y167.693 E27.86617
G1 X135.625 Y166.469 E27.98947
G1 X133.368 Y165.371 E28.10634
G1 X131.061 Y164.33 E28.22419
G1 X128.713 Y163.345 E28.34276
G1 X126.359 Y162.441 E28.46017
G1 X123.982 Y161.602 E28.57755
G1 X121.579 Y160.829 E28.69509
G1 X119.168 Y160.128 E28.81201
G1 X116.676 Y159.479 E28.93191
G1 X114.224 Y158.913 E29.04909
G1 X111.753 Y158.419 E29.16643
G1 X109.282 Y157.996 E29.28316
G1 X106.761 Y157.637 E29.40174
G1 X104.259 Y157.352 E29.51899
G1 X101.721 Y157.136 E29.6376
G1 X99.219 Y156.994 E29.75429
G1 X96.646 Y156.921 E29.87415
G1 X95.336 Y156.912 E29.93515
G1 X89.715 Y156.912 E30.19689
G1 X88.85 Y156.9 E30.23717
G1 X87.931 Y156.845 E30.28004
G1 X87.02 Y156.711 E30.32291
G1 X86.124 Y156.499 E30.36579
G1 X85.25 Y156.209 E30.40867
G1 X84.405 Y155.845 E30.45151
G1 X83.594 Y155.409 E30.49438
G1 X82.824 Y154.904 E30.53726
G1 X82.101 Y154.334 E30.58013
G1 X81.43 Y153.704 E30.62299
G1 X80.816 Y153.017 E30.66589
G1 X80.265 Y152.28 E30.70874
G1 X79.779 Y151.498 E30.75161
G1 X79.363 Y150.677 E30.79447
G1 X79.019 Y149.823 E30.83734
G1 X78.751 Y148.942 E30.88022
G1 X78.561 Y148.041 E30.9231
G1 X78.449 Y147.128 E30.96593
G1 X78.421 Y146.589 E30.99106
G1 X78.412 Y146.258 E31.00648
G1 X78.408 Y145.97 E31.01989
G1 X78.409 Y140.864 E31.25765
G1 X78.431 Y139.304 E31.33029
G1 X78.431 Y136.713 E31.45094
G1 X78.359 Y134.168 E31.5695
G1 X78.217 Y131.663 E31.68633
G1 X77.999 Y129.108 E31.80573
G1 X77.719 Y126.633 E31.92171
G1 X77.362 Y124.133 E32.0393
G1 X76.929 Y121.606 E32.15869
G1 X76.439 Y119.164 E32.27466
G1 X75.871 Y116.69 E32.39286
G1 X75.229 Y114.224 E32.51151
G1 X74.525 Y111.803 E32.62892
G1 X73.753 Y109.405 E32.74622
G1 X72.908 Y107.011 E32.86443
G1 X72 Y104.654 E32.98205
G1 X71.033 Y102.344 E33.09866
G1 X69.966 Y99.98 E33.21943
G1 X69.258 Y98.513 E33.29528
G1 X68.894 Y97.668 E33.33812
G1 X68.605 Y96.794 E33.38098
G1 X68.486 Y96.334 E33.40311
G1 X68.418 Y96.045 E33.41693
G1 X68.246 Y95.14 E33.45983
G1 X68.153 Y94.224 E33.5027
G1 X68.137 Y93.737 E33.52539
G1 X68.131 Y93.175 E33.55156
G1 X68.132 Y87.696 E33.80668
G1 X68.142 Y86.996 E33.83928
G1 X68.195 Y86.076 E33.88219
G1 X68.328 Y85.165 E33.92506
G1 X68.539 Y84.269 E33.96792
G1 X68.827 Y83.395 E34.01077
G1 X69.19 Y82.549 E34.05364
G1 X69.625 Y81.737 E34.09653
G1 X70.129 Y80.967 E34.13939
G1 X70.97 Y79.938 E34.20127
G1 X71.111 Y79.786 E34.21092
G1 X71.305 Y79.582 E34.22403
G1 X71.566 Y79.317 E34.24135
G1 X73.566 Y77.318 E34.37302
G1 X74.053 Y76.847 E34.40457
G0 F6000 X74.331 Y77.134
G1 F1200 X75.007 Y76.536 E34.44659
G1 X75.734 Y75.999 E34.48868
G1 X76.505 Y75.529 E34.53073
G1 X77.315 Y75.129 E34.57279
G1 X78.157 Y74.803 E34.61483
G1 X79.024 Y74.552 E34.65686
G1 X79.911 Y74.379 E34.69894
G1 X81.078 Y74.272 E34.75351
G1 X81.445 Y74.262 E34.77061
G1 X81.979 Y74.256 E34.79547
G1 X166.313 Y74.257 E38.72242
G1 X167.016 Y74.267 E38.75516
G1 X167.918 Y74.32 E38.79723
G1 X168.811 Y74.452 E38.83926
G1 X169.689 Y74.663 E38.88131
G1 X170.545 Y74.951 E38.92337
G1 X171.701 Y75.482 E38.9826
G1 X171.993 Y75.639 E38.99804
G1 X172.266 Y75.791 E39.01259
G1 X173.487 Y76.498 E39.07829
G1 X174.052 Y76.835 E39.10892
G1 X174.806 Y77.331 E39.15094
G1 X175.514 Y77.893 E39.19304
G1 X176.169 Y78.514 E39.23506
G1 X176.767 Y79.192 E39.27716
G1 X177.302 Y79.919 E39.31919
G1 X177.551 Y80.31 E39.34078
G1 X178.089 Y81.198 E39.38912
G1 X178.198 Y81.382 E39.39908
G1 X179.574 Y83.767 E39.52729
G1 X179.897 Y84.346 E39.55816
G1 X180.301 Y85.153 E39.60019
G1 X180.633 Y85.993 E39.64225
G1 X180.889 Y86.859 E39.6843
G1 X181.067 Y87.745 E39.72638
G1 X181.185 Y89.021 E39.78605
G1 X181.195 Y89.368 E39.80221
G1 X181.199 Y89.662 E39.8159
G1 X181.198 Y91.052 E39.88063
G1 X181.187 Y91.759 E39.91355
G1 X181.133 Y92.66 E39.95558
G1 X180.999 Y93.553 E39.99763
G1 X180.744 Y94.577 E40.04677
G1 X180.405 Y95.688 E40.10085
G1 X180.257 Y96.15 E40.12344
G1 X179.547 Y98.59 E40.24177
G1 X178.897 Y101.085 E40.36183
G1 X178.335 Y103.522 E40.47828
G1 X177.83 Y106.038 E40.59777
G1 X177.394 Y108.582 E40.71796
G1 X177.258 Y109.451 E40.75892
G1 X176.891 Y112.027 E40.88008
G1 X176.607 Y114.52 E40.99691
G1 X176.392 Y117.044 E41.11487
G1 X176.247 Y119.604 E41.23426
G1 X176.174 Y122.143 E41.35254
G1 X176.174 Y124.677 E41.47053
G1 X176.245 Y127.205 E41.58829
G1 X176.389 Y129.745 E41.70675
G1 X176.605 Y132.295 E41.82592
G1 X176.893 Y134.83 E41.94472
G1 X177.249 Y137.337 E42.06263
G1 X177.455 Y138.597 E42.12208
G1 X177.471 Y138.704 E42.12711
G1 X177.578 Y139.903 E42.18317
G1 X177.588 Y140.233 E42.19854
G1 X177.593 Y140.542 E42.21293
G1 X177.592 Y145.023 E42.42158
G1 X177.582 Y145.726 E42.45432
G1 X177.529 Y146.628 E42.49639
G1 X177.397 Y147.521 E42.53843
G1 X177.186 Y148.399 E42.58048
G1 X176.898 Y149.255 E42.62253
G1 X176.536 Y150.082 E42.66457
G1 X176.072 Y150.923 E42.70929
G1 X175.415 Y151.99 E42.76764
G1 X175.252 Y152.248 E42.78185
G1 X173.947 Y154.432 E42.90032
G1 X172.707 Y156.648 E43.01856
G1 X171.526 Y158.908 E43.1373
G1 X170.423 Y161.169 E43.25444
G1 X170.077 Y161.934 E43.29353
G1 X169.617 Y162.913 E43.3439
G1 X169.197 Y163.712 E43.38593
G1 X168.708 Y164.472 E43.42801
G1 X168.154 Y165.185 E43.47006
G1 X167.539 Y165.846 E43.5121
G1 X166.867 Y166.45 E43.55417
G1 X166.145 Y166.993 E43.59624
G1 X165.378 Y167.469 E43.63827
G1 X164.572 Y167.876 E43.68032
G1 X163.733 Y168.21 E43.72237
G1 X162.868 Y168.468 E43.7644
G1 X161.983 Y168.649 E43.80646
G1 X160.702 Y168.77 E43.86637
G1 X160.38 Y168.78 E43.88137
G1 X160.063 Y168.785 E43.89614
G1 X143.955 Y168.784 E44.64619
G1 X143.251 Y168.774 E44.67898
G1 X142.35 Y168.721 E44.721
G1 X141.456 Y168.589 E44.76308
G1 X140.578 Y168.378 E44.80513
G1 X139.722 Y168.09 E44.84719
G1 X138.551 Y167.551 E44.90721
G1 X138.141 Y167.33 E44.9289
G1 X135.806 Y166.112 E45.05153
G1 X133.53 Y165.005 E45.16938
G1 X131.232 Y163.967 E45.2868
G1 X128.846 Y162.967 E45.40726
G1 X126.532 Y162.078 E45.52269
G1 X124.1 Y161.219 E45.64279
G1 X121.698 Y160.447 E45.76027
G1 X119.243 Y159.733 E45.87932
G1 X116.795 Y159.096 E45.99711
G1 X114.321 Y158.525 E46.11534
G1 X111.834 Y158.027 E46.23344
G1 X109.328 Y157.599 E46.35182
G1 X106.831 Y157.243 E46.46927
G1 X104.267 Y156.951 E46.58943
G1 X101.779 Y156.739 E46.7057
