;FLAVOR:Marlin
;TIME:4247
;Filament used: 3.73911m
;Layer height: 0.28
;MINX:91.5
;MINY:84
;MINZ:0.28
;MAXX:143.5
;MAXY:151
;MAXZ:17.92
;Generated with Cura_SteamEngine 4.11.0
M140 S50
M105
M190 S50
M104 S200
M105
M109 S200
M82 ;absolute extrusion mode
; Ender 3 Custom Start G-code
G92 E0 ; Reset Extruder
G28 ; Home all axes
G1 Z2.0 F3000 ; Move Z Axis up little to prevent scratching of Heat Bed
G1 X0.1 Y20 Z0.3 F5000.0 ; Move to start position
G1 X0.1 Y200.0 Z0.3 F1500.0 E15 ; Draw the first line
G1 X0.4 Y200.0 Z0.3 F5000.0 ; Move to side a little
G1 X0.4 Y20 Z0.3 F1500.0 E30 ; Draw the second line
G92 E0 ; Reset Extruder
G1 Z2.0 F3000 ; Move Z Axis up little to prevent scratching of Heat Bed
G1 X5 Y20 Z0.3 F5000.0 ; Move over to prevent blob squish
G92 E0
G92 E0
G1 F2700 E-5
;LAYER_COUNT:64
;LAYER:0
M107
G0 F6000 X94.698 Y87.264 Z0.28
;TYPE:SKIRT
G1 F2700 E0
G1 F1200 X95.386 Y86.627 E0.04366
G1 X96.126 Y86.051 E0.08732
G1 X96.912 Y85.539 E0.131
G1 X97.739 Y85.097 E0.17467
G1 X98.601 Y84.727 E0.21835
G1 X99.491 Y84.431 E0.26202
G1 X100.403 Y84.213 E0.30568
G1 X101.33 Y84.072 E0.34935
G1 X102.201 Y84.013 E0.39
G1 X102.522 Y84.004 E0.40495
G1 X102.83 Y84 E0.41929
G1 X131.793 Y84 E1.76793
G1 X132.649 Y84.011 E1.80779
G1 X133.585 Y84.065 E1.85145
G1 X134.513 Y84.197 E1.8951
G1 X135.427 Y84.409 E1.93879
G1 X136.319 Y84.698 E1.98245
G1 X137.184 Y85.061 E2.02613
G1 X138.014 Y85.497 E2.06978
G1 X138.805 Y86.002 E2.11348
G1 X139.549 Y86.573 E2.15715
G1 X140.242 Y87.205 E2.20083
G1 X140.879 Y87.893 E2.24448
G1 X141.454 Y88.634 E2.28816
G1 X141.965 Y89.42 E2.33181
G1 X142.407 Y90.248 E2.37552
G1 X142.776 Y91.11 E2.41918
G1 X143.071 Y92 E2.46284
G1 X143.289 Y92.912 E2.5065
G1 X143.429 Y93.84 E2.5502
G1 X143.487 Y94.701 E2.59038
G1 X143.496 Y95.021 E2.60529
G1 X143.5 Y95.33 E2.61968
G1 X143.499 Y139.4 E4.67176
G1 X143.49 Y140.127 E4.70562
G1 X143.439 Y141.064 E4.74931
G1 X143.307 Y141.992 E4.79296
G1 X143.098 Y142.906 E4.83662
G1 X142.811 Y143.799 E4.8803
G1 X142.449 Y144.665 E4.924
G1 X142.015 Y145.496 E4.96766
G1 X141.511 Y146.287 E5.01133
G1 X140.942 Y147.032 E5.05498
G1 X140.311 Y147.727 E5.09869
G1 X139.624 Y148.365 E5.14235
G1 X138.885 Y148.942 E5.186
G1 X138.099 Y149.454 E5.22968
G1 X137.273 Y149.897 E5.27333
G1 X136.411 Y150.269 E5.31704
G1 X135.522 Y150.565 E5.36067
G1 X134.61 Y150.785 E5.40436
G1 X133.683 Y150.926 E5.44802
G1 X132.799 Y150.987 E5.48928
G1 X132.478 Y150.996 E5.50423
G1 X132.17 Y151 E5.51858
G1 X103.065 Y150.999 E6.87383
G1 X102.367 Y150.99 E6.90633
G1 X101.431 Y150.938 E6.94998
G1 X100.502 Y150.806 E6.99368
G1 X99.588 Y150.596 E7.03735
G1 X98.695 Y150.309 E7.08102
G1 X97.83 Y149.946 E7.1247
G1 X96.999 Y149.512 E7.16836
G1 X96.208 Y149.008 E7.21203
G1 X95.463 Y148.438 E7.25571
G1 X94.769 Y147.807 E7.29939
G1 X94.132 Y147.12 E7.34301
G1 X93.555 Y146.38 E7.3867
G1 X93.043 Y145.594 E7.43038
G1 X92.6 Y144.767 E7.47407
G1 X92.229 Y143.906 E7.51773
G1 X91.933 Y143.016 E7.5614
G1 X91.714 Y142.104 E7.60507
G1 X91.573 Y141.177 E7.64873
G1 X91.513 Y140.288 E7.69022
G1 X91.504 Y139.955 E7.70574
G1 X91.5 Y139.658 E7.71957
G1 X91.501 Y95.525 E9.77458
G1 X91.51 Y94.86 E9.80555
G1 X91.563 Y93.924 E9.84921
G1 X91.695 Y92.995 E9.8929
G1 X91.906 Y92.081 E9.93658
G1 X92.194 Y91.189 E9.98022
G1 X92.557 Y90.324 E10.0239
G1 X92.992 Y89.493 E10.06758
G1 X93.496 Y88.703 E10.11121
G1 X94.066 Y87.958 E10.15489
G1 X94.698 Y87.264 E10.1986
G0 F6000 X95.089 Y87.439
G1 F1200 X95.774 Y86.823 E10.2415
G1 X96.51 Y86.27 E10.28437
G1 X97.291 Y85.782 E10.32725
G1 X98.111 Y85.364 E10.3701
G1 X98.965 Y85.019 E10.41299
G1 X99.845 Y84.749 E10.45585
G1 X100.745 Y84.557 E10.49871
G1 X101.659 Y84.443 E10.5416
G1 X102.212 Y84.413 E10.56738
G1 X102.533 Y84.404 E10.58234
G1 X102.83 Y84.4 E10.59617
G1 X131.793 Y84.4 E11.94481
G1 X132.643 Y84.411 E11.98439
G1 X133.562 Y84.464 E12.02725
G1 X134.473 Y84.597 E12.07012
G1 X135.369 Y84.808 E12.11298
G1 X136.243 Y85.096 E12.15583
G1 X137.09 Y85.459 E12.19874
G1 X137.901 Y85.894 E12.2416
G1 X138.671 Y86.398 E12.28445
G1 X139.395 Y86.967 E12.32733
G1 X140.067 Y87.597 E12.37022
G1 X140.682 Y88.282 E12.41308
G1 X141.235 Y89.018 E12.45595
G1 X141.722 Y89.799 E12.49881
G1 X142.139 Y90.62 E12.54169
G1 X142.484 Y91.474 E12.58457
G1 X142.753 Y92.354 E12.62742
G1 X142.945 Y93.255 E12.67032
G1 X143.058 Y94.168 E12.71316
G1 X143.087 Y94.712 E12.73852
G1 X143.096 Y95.032 E12.75343
G1 X143.1 Y95.33 E12.76731
G1 X143.099 Y139.395 E14.81916
G1 X143.09 Y140.122 E14.85301
G1 X143.039 Y141.041 E14.89587
G1 X142.908 Y141.953 E14.93877
G1 X142.698 Y142.849 E14.98163
G1 X142.412 Y143.724 E15.02449
G1 X142.051 Y144.571 E15.06736
G1 X141.617 Y145.383 E15.11023
G1 X141.115 Y146.155 E15.15311
G1 X140.547 Y146.88 E15.196
G1 X139.919 Y147.553 E15.23886
G1 X139.235 Y148.169 E15.28172
G1 X138.5 Y148.723 E15.32458
G1 X137.72 Y149.212 E15.36745
G1 X136.9 Y149.631 E15.41033
G1 X136.047 Y149.977 E15.45319
G1 X135.167 Y150.248 E15.49607
G1 X134.267 Y150.441 E15.53893
G1 X133.353 Y150.556 E15.58182
G1 X132.788 Y150.587 E15.60817
G1 X132.467 Y150.596 E15.62312
G1 X132.17 Y150.6 E15.63695
G1 X103.07 Y150.599 E16.99197
G1 X102.372 Y150.59 E17.02448
G1 X101.453 Y150.538 E17.06734
G1 X100.542 Y150.407 E17.11019
G1 X99.646 Y150.197 E17.15305
G1 X98.771 Y149.91 E17.19592
G1 X97.924 Y149.548 E17.23882
G1 X97.112 Y149.114 E17.28169
G1 X96.341 Y148.612 E17.32453
G1 X95.616 Y148.044 E17.36741
G1 X94.943 Y147.415 E17.41031
G1 X94.328 Y146.731 E17.45314
G1 X93.774 Y145.996 E17.496
G1 X93.286 Y145.215 E17.53888
G1 X92.867 Y144.395 E17.58176
G1 X92.521 Y143.542 E17.62462
G1 X92.251 Y142.662 E17.66748
G1 X92.058 Y141.761 E17.71039
G1 X91.944 Y140.848 E17.75323
G1 X91.913 Y140.277 E17.77986
G1 X91.904 Y139.944 E17.79537
G1 X91.9 Y139.658 E17.80869
G1 X91.901 Y95.531 E19.86343
G1 X91.91 Y94.866 E19.89439
G1 X91.962 Y93.946 E19.9373
G1 X92.094 Y93.035 E19.98016
G1 X92.305 Y92.139 E20.02303
G1 X92.592 Y91.264 E20.06591
G1 X92.955 Y90.418 E20.10877
G1 X93.389 Y89.606 E20.15165
G1 X93.892 Y88.835 E20.19451
G1 X94.461 Y88.111 E20.23739
G1 X95.089 Y87.439 E20.28022
G0 F6000 X95.481 Y87.617
G1 F1200 X96.162 Y87.024 E20.32226
G1 X96.894 Y86.494 E20.36435
G1 X97.669 Y86.031 E20.40638
G1 X98.482 Y85.638 E20.44843
G1 X99.327 Y85.318 E20.4905
G1 X100.196 Y85.075 E20.53252
G1 X101.084 Y84.909 E20.57459
G1 X102.223 Y84.813 E20.62781
G1 X102.544 Y84.804 E20.64276
G1 X102.83 Y84.8 E20.65608
G1 X131.793 Y84.8 E22.00472
G1 X132.637 Y84.811 E22.04402
G1 X133.539 Y84.864 E22.0861
G1 X134.432 Y84.996 E22.12813
G1 X135.31 Y85.207 E22.17018
G1 X136.166 Y85.495 E22.21223
G1 X136.993 Y85.857 E22.25427
G1 X137.785 Y86.292 E22.29634
G1 X138.536 Y86.794 E22.33841
G1 X139.239 Y87.361 E22.38046
G1 X139.889 Y87.988 E22.42252
G1 X140.481 Y88.67 E22.46457
G1 X141.011 Y89.401 E22.50661
G1 X141.473 Y90.177 E22.54866
G1 X141.866 Y90.99 E22.59071
G1 X142.184 Y91.835 E22.63275
G1 X142.427 Y92.705 E22.67481
G1 X142.592 Y93.593 E22.71687
G1 X142.687 Y94.723 E22.76967
G1 X142.696 Y95.043 E22.78458
G1 X142.7 Y95.33 E22.79795
G1 X142.699 Y139.39 E24.84956
G1 X142.69 Y140.117 E24.88342
G1 X142.639 Y141.019 E24.92549
G1 X142.508 Y141.913 E24.96756
G1 X142.299 Y142.791 E25.00958
G1 X142.013 Y143.648 E25.05165
G1 X141.652 Y144.476 E25.09371
G1 X141.22 Y145.268 E25.13572
G1 X140.719 Y146.02 E25.1778
G1 X140.153 Y146.724 E25.21986
G1 X139.528 Y147.375 E25.26188
G1 X138.847 Y147.969 E25.30396
G1 X138.116 Y148.5 E25.34603
G1 X137.342 Y148.964 E25.38805
G1 X136.529 Y149.358 E25.43012
G1 X135.685 Y149.678 E25.47215
G1 X134.815 Y149.923 E25.51424
G1 X133.928 Y150.089 E25.55626
G1 X132.777 Y150.187 E25.61005
G1 X132.456 Y150.196 E25.625
G1 X132.17 Y150.2 E25.63832
G1 X103.075 Y150.199 E26.9931
G1 X102.377 Y150.19 E27.02561
G1 X101.476 Y150.139 E27.06763
G1 X100.582 Y150.007 E27.10971
G1 X99.704 Y149.798 E27.15173
G1 X98.847 Y149.511 E27.19382
G1 X98.02 Y149.15 E27.23583
G1 X97.227 Y148.717 E27.27791
G1 X96.476 Y148.216 E27.31994
G1 X95.772 Y147.65 E27.36201
G1 X95.121 Y147.024 E27.40406
G1 X94.528 Y146.343 E27.44611
G1 X93.998 Y145.612 E27.48815
G1 X93.534 Y144.837 E27.53021
G1 X93.14 Y144.024 E27.57228
G1 X92.82 Y143.18 E27.61431
G1 X92.576 Y142.31 E27.65638
G1 X92.41 Y141.422 E27.69845
G1 X92.313 Y140.267 E27.75242
G1 X92.304 Y139.934 E27.76793
G1 X92.3 Y139.658 E27.78078
G1 X92.301 Y95.536 E29.83529
G1 X92.31 Y94.871 E29.86626
G1 X92.362 Y93.969 E29.90833
G1 X92.494 Y93.076 E29.95036
G1 X92.704 Y92.198 E29.9924
G1 X92.991 Y91.341 E30.03448
G1 X93.353 Y90.514 E30.07652
G1 X93.786 Y89.722 E30.11855
G1 X94.288 Y88.971 E30.16061
G1 X94.855 Y88.267 E30.2027
G1 X95.481 Y87.617 E30.24472
G1 F2700 E25.24472
;MESH:base.STL
G0 F6000 X102.92 Y94.335
G0 X102.92 Y95.42
G0 X103.282 Y139.218
G0 X131.9 Y139.4
;TYPE:WALL-INNER
G1 F2700 E30.24472
G1 F1200 X103.1 Y139.4 E31.58577
G1 X103.1 Y95.6 E33.62528
G1 X131.9 Y95.6 E34.96633
G1 X131.9 Y139.4 E37.00584
G0 F6000 X132.3 Y139.8
;TYPE:WALL-OUTER
G1 F1200 X102.7 Y139.8 E38.38414
G1 X102.7 Y95.2 E40.46091
G1 X132.3 Y95.2 E41.83921
G1 X132.3 Y139.8 E43.91597
G0 F6000 X132.03 Y139.53
G0 X131.79 Y139.01
G0 X131.51 Y139.01
;TYPE:SKIN
G1 F1200 X103.49 Y139.01 E45.2207
G1 X103.49 Y95.99 E47.22389
G1 X131.51 Y95.99 E48.52862
G1 X131.51 Y139.01 E50.53181
G0 F6000 X131.79 Y139.01
G0 X103.777 Y139.29
G0 X103.777 Y138.849
G1 F1200 X103.649 Y138.721 E50.54024
G0 F6000 X103.649 Y138.155
G1 F1200 X104.342 Y138.849 E50.58591
G0 F6000 X104.908 Y138.849
G1 F1200 X103.649 Y137.59 E50.66881
G0 F6000 X103.649 Y137.024
G1 F1200 X105.474 Y138.849 E50.78899
G0 F6000 X106.039 Y138.849
G1 F1200 X103.649 Y136.458 E50.94641
G0 F6000 X103.649 Y135.893
G1 F1200 X106.605 Y138.849 E51.14107
G0 F6000 X107.171 Y138.849
G1 F1200 X103.649 Y135.327 E51.373
G0 F6000 X103.649 Y134.761
G1 F1200 X107.736 Y138.849 E51.64217
G0 F6000 X108.302 Y138.849
G1 F1200 X103.649 Y134.196 E51.94858
G0 F6000 X103.649 Y133.63
G1 F1200 X108.868 Y138.849 E52.29226
G0 F6000 X109.433 Y138.849
G1 F1200 X103.649 Y133.064 E52.67318
G0 F6000 X103.649 Y132.499
G1 F1200 X109.999 Y138.849 E53.09133
G0 F6000 X110.565 Y138.849
G1 F1200 X103.649 Y131.933 E53.54676
G0 F6000 X103.649 Y131.367
G1 F1200 X111.131 Y138.849 E54.03947
G0 F6000 X111.696 Y138.849
G1 F1200 X103.649 Y130.802 E54.56938
G0 F6000 X103.649 Y130.236
G1 F1200 X112.262 Y138.849 E55.13656
G0 F6000 X112.828 Y138.849
G1 F1200 X103.649 Y129.67 E55.74101
G0 F6000 X103.649 Y129.104
G1 F1200 X113.393 Y138.849 E56.3827
G0 F6000 X113.959 Y138.849
G1 F1200 X103.649 Y128.539 E57.06163
G0 F6000 X103.649 Y127.973
G1 F1200 X114.525 Y138.849 E57.77783
G0 F6000 X115.09 Y138.849
G1 F1200 X103.649 Y127.407 E58.53128
G0 F6000 X103.649 Y126.842
G1 F1200 X115.656 Y138.849 E59.32196
G0 F6000 X116.222 Y138.849
G1 F1200 X103.649 Y126.276 E60.14991
G0 F6000 X103.649 Y125.71
G1 F1200 X116.787 Y138.849 E61.0151
G0 F6000 X117.353 Y138.849
G1 F1200 X103.649 Y125.145 E61.91754
G0 F6000 X103.649 Y124.579
G1 F1200 X117.919 Y138.849 E62.85724
G0 F6000 X118.484 Y138.849
G1 F1200 X103.649 Y124.013 E63.83418
G0 F6000 X103.649 Y123.448
G1 F1200 X119.05 Y138.849 E64.84837
G0 F6000 X119.616 Y138.849
G1 F1200 X103.649 Y122.882 E65.89982
G0 F6000 X103.649 Y122.316
G1 F1200 X120.181 Y138.849 E66.98851
G0 F6000 X120.747 Y138.849
G1 F1200 X103.649 Y121.751 E68.11445
G0 F6000 X103.649 Y121.185
G1 F1200 X121.313 Y138.849 E69.27765
G0 F6000 X121.879 Y138.849
G1 F1200 X103.649 Y120.619 E70.47813
G0 F6000 X103.649 Y120.054
G1 F1200 X122.444 Y138.849 E71.71581
G0 F6000 X123.01 Y138.849
G1 F1200 X103.649 Y119.488 E72.99076
G0 F6000 X103.649 Y118.922
G1 F1200 X123.576 Y138.849 E74.30299
G0 F6000 X124.141 Y138.849
G1 F1200 X103.649 Y118.356 E75.65246
G0 F6000 X103.649 Y117.791
G1 F1200 X124.707 Y138.849 E77.03916
G0 F6000 X125.273 Y138.849
G1 F1200 X103.649 Y117.225 E78.46314
G0 F6000 X103.649 Y116.659
G1 F1200 X125.838 Y138.849 E79.92436
G0 F6000 X126.404 Y138.849
G1 F1200 X103.649 Y116.094 E81.42281
G0 F6000 X103.649 Y115.528
G1 F1200 X126.97 Y138.849 E82.95854
G0 F6000 X127.535 Y138.849
G1 F1200 X103.649 Y114.962 E84.53151
G0 F6000 X103.649 Y114.397
G1 F1200 X128.101 Y138.849 E86.14171
G0 F6000 X128.667 Y138.849
G1 F1200 X103.649 Y113.831 E87.78919
G0 F6000 X103.649 Y113.265
G1 F1200 X129.232 Y138.849 E89.47391
G0 F6000 X129.798 Y138.849
G1 F1200 X103.649 Y112.7 E91.19586
G0 F6000 X103.649 Y112.134
G1 F1200 X130.364 Y138.849 E92.95509
G0 F6000 X130.93 Y138.849
G1 F1200 X103.649 Y111.568 E94.75159
G0 F6000 X103.649 Y111.003
G1 F1200 X131.35 Y138.703 E96.57572
G0 F6000 X131.35 Y138.138
G1 F1200 X103.649 Y110.437 E98.39988
G0 F6000 X103.649 Y109.871
G1 F1200 X131.35 Y137.572 E100.22403
G0 F6000 X131.35 Y137.006
G1 F1200 X103.649 Y109.305 E102.04819
G0 F6000 X103.649 Y108.74
G1 F1200 X131.35 Y136.441 E103.87235
G0 F6000 X131.35 Y135.875
G1 F1200 X103.649 Y108.174 E105.69651
G0 F6000 X103.649 Y107.608
G1 F1200 X131.35 Y135.309 E107.52067
G0 F6000 X131.35 Y134.744
G1 F1200 X103.649 Y107.043 E109.34483
G0 F6000 X103.649 Y106.477
G1 F1200 X131.35 Y134.178 E111.16898
G0 F6000 X131.35 Y133.612
G1 F1200 X103.649 Y105.911 E112.99314
G0 F6000 X103.649 Y105.346
G1 F1200 X131.35 Y133.047 E114.8173
G0 F6000 X131.35 Y132.481
G1 F1200 X103.649 Y104.78 E116.64146
G0 F6000 X103.649 Y104.214
G1 F1200 X131.35 Y131.915 E118.46562
G0 F6000 X131.35 Y131.35
G1 F1200 X103.649 Y103.649 E120.28977
G0 F6000 X103.649 Y103.083
G1 F1200 X131.35 Y130.784 E122.11393
G0 F6000 X131.35 Y130.218
G1 F1200 X103.649 Y102.517 E123.93809
G0 F6000 X103.649 Y101.952
G1 F1200 X131.35 Y129.652 E125.76222
G0 F6000 X131.35 Y129.087
G1 F1200 X103.649 Y101.386 E127.58637
G0 F6000 X103.649 Y100.82
G1 F1200 X131.35 Y128.521 E129.41053
G0 F6000 X131.35 Y127.955
G1 F1200 X103.649 Y100.255 E131.23466
G0 F6000 X103.649 Y99.689
G1 F1200 X131.35 Y127.39 E133.05882
G0 F6000 X131.35 Y126.824
G1 F1200 X103.649 Y99.123 E134.88297
G0 F6000 X103.649 Y98.557
G1 F1200 X131.35 Y126.258 E136.70713
G0 F6000 X131.35 Y125.693
G1 F1200 X103.649 Y97.992 E138.53129
G0 F6000 X103.649 Y97.426
G1 F1200 X131.35 Y125.127 E140.35545
G0 F6000 X131.35 Y124.561
G1 F1200 X103.649 Y96.86 E142.17961
G0 F6000 X103.649 Y96.295
G1 F1200 X131.35 Y123.996 E144.00376
G0 F6000 X131.35 Y123.43
G1 F1200 X104.069 Y96.149 E145.80027
G0 F6000 X104.634 Y96.149
G1 F1200 X131.35 Y122.864 E147.55953
G0 F6000 X131.35 Y122.299
G1 F1200 X105.2 Y96.149 E149.28155
G0 F6000 X105.766 Y96.149
G1 F1200 X131.35 Y121.733 E150.9663
G0 F6000 X131.35 Y121.167
G1 F1200 X106.331 Y96.149 E152.61381
G0 F6000 X106.897 Y96.149
G1 F1200 X131.35 Y120.602 E154.22408
G0 F6000 X131.35 Y120.036
G1 F1200 X107.463 Y96.149 E155.79708
G0 F6000 X108.028 Y96.149
G1 F1200 X131.35 Y119.47 E157.33284
G0 F6000 X131.35 Y118.904
G1 F1200 X108.594 Y96.149 E158.83133
G0 F6000 X109.16 Y96.149
G1 F1200 X131.35 Y118.339 E160.29258
G0 F6000 X131.35 Y117.773
G1 F1200 X109.726 Y96.149 E161.71656
G0 F6000 X110.291 Y96.149
G1 F1200 X131.35 Y117.207 E163.1033
G0 F6000 X131.35 Y116.642
G1 F1200 X110.857 Y96.149 E164.45279
G0 F6000 X111.423 Y96.149
G1 F1200 X131.35 Y116.076 E165.76502
G0 F6000 X131.35 Y115.51
G1 F1200 X111.988 Y96.149 E167.04001
G0 F6000 X112.554 Y96.149
G1 F1200 X131.35 Y114.945 E168.27776
G0 F6000 X131.35 Y114.379
G1 F1200 X113.12 Y96.149 E169.47823
G0 F6000 X113.685 Y96.149
G1 F1200 X131.35 Y113.813 E170.64147
G0 F6000 X131.35 Y113.248
G1 F1200 X114.251 Y96.149 E171.76747
G0 F6000 X114.817 Y96.149
G1 F1200 X131.35 Y112.682 E172.8562
G0 F6000 X131.35 Y112.116
G1 F1200 X115.382 Y96.149 E173.90768
G0 F6000 X115.948 Y96.149
G1 F1200 X131.35 Y111.551 E174.92193
G0 F6000 X131.35 Y110.985
G1 F1200 X116.514 Y96.149 E175.89891
G0 F6000 X117.079 Y96.149
G1 F1200 X131.35 Y110.419 E176.83864
G0 F6000 X131.35 Y109.853
G1 F1200 X117.645 Y96.149 E177.74111
G0 F6000 X118.211 Y96.149
G1 F1200 X131.35 Y109.288 E178.60633
G0 F6000 X131.35 Y108.722
G1 F1200 X118.776 Y96.149 E179.43432
G0 F6000 X119.342 Y96.149
G1 F1200 X131.35 Y108.156 E180.22504
G0 F6000 X131.35 Y107.591
G1 F1200 X119.908 Y96.149 E180.97851
G0 F6000 X120.474 Y96.149
G1 F1200 X131.35 Y107.025 E181.69471
G0 F6000 X131.35 Y106.459
G1 F1200 X121.039 Y96.149 E182.37368
G0 F6000 X121.605 Y96.149
