;FLAVOR:Marlin
;TIME:2908
;Filament used: 2.17998m
;Layer height: 0.2
;MINX:77.832
;MINY:80.701
;MINZ:0.2
;MAXX:141.102
;MAXY:139.306
;MAXZ:16
;Generated with Cura_SteamEngine 4.11.0
M140 S60
M105
M190 S60
M104 S200
M105
M109 S200
M82 ;absolute extrusion mode
; Ender 3 Custom Start G-code
G92 E0 ; Reset Extruder
M92 E97;
G28 ; Home all axes
G1 Z2.0 F3000 ; Move Z Axis up little to prevent scratching of Heat Bed
G1 X0.1 Y20 Z0.3 F5000.0 ; Move to start position
G1 X0.1 Y200.0 Z0.3 F1500.0 E15 ; Draw the first line
G1 X0.4 Y200.0 Z0.3 F5000.0 ; Move to side a little
G1 X0.4 Y20 Z0.3 F1500.0 E30 ; Draw the second line
G92 E0 ; Reset Extruder
G1 Z2.0 F3000 ; Move Z Axis up little to prevent scratching of Heat Bed
G1 X5 Y20 Z0.3 F5000.0 ; Move over to prevent blob squish
G92 E0
G92 E0
G1 F1500 E-6.5
;LAYER_COUNT:80
;LAYER:0
M107
G0 F6000 X83.992 Y86.848 Z0.2
;TYPE:SKIRT
G1 F1500 E0
G1 F1200 X84.704 Y86.17 E0.04349
G1 X85.382 Y85.58 E0.08325
G1 X86.111 Y84.998 E0.12451
G1 X86.799 Y84.495 E0.16221
G1 X87.623 Y83.947 E0.20599
G1 X88.473 Y83.436 E0.24986
G1 X89.222 Y83.025 E0.28766
G1 X89.474 Y82.899 E0.30012
G1 X89.978 Y82.663 E0.32474
G1 X90.795 Y82.305 E0.36419
G1 X91.686 Y81.96 E0.40646
G1 X92.573 Y81.66 E0.44788
G1 X92.971 Y81.533 E0.46636
G1 X93.486 Y81.39 E0.49001
G1 X93.886 Y81.289 E0.50826
G1 X94.353 Y81.182 E0.52945
G1 X94.803 Y81.089 E0.54978
G1 X95.313 Y80.996 E0.57271
G1 X95.522 Y80.963 E0.58207
G1 X96.052 Y80.892 E0.60572
G1 X97.112 Y80.777 E0.65289
G1 X97.983 Y80.718 E0.69151
G1 X98.437 Y80.705 E0.7116
G1 X98.909 Y80.701 E0.73248
G1 X99.33 Y80.707 E0.7511
G1 X99.795 Y80.724 E0.77169
G1 X100.042 Y80.738 E0.78263
G1 X100.611 Y80.785 E0.80789
G1 X101.356 Y80.866 E0.84104
G1 X103.931 Y81.109 E0.95545
G1 X106.466 Y81.277 E1.06783
G1 X108.977 Y81.372 E1.17899
G1 X111.469 Y81.395 E1.28923
G1 X113.997 Y81.347 E1.40108
G1 X116.512 Y81.229 E1.51245
G1 X118.29 Y81.089 E1.59135
G1 X119.029 Y81.037 E1.62412
G1 X119.801 Y80.995 E1.65832
G1 X120.295 Y80.98 E1.68018
G1 X120.709 Y80.977 E1.6985
G1 X121.197 Y80.985 E1.72009
G1 X121.628 Y81.001 E1.73917
G1 X122.095 Y81.028 E1.75986
G1 X122.308 Y81.045 E1.76931
G1 X122.862 Y81.103 E1.79395
G1 X123.717 Y81.215 E1.8321
G1 X124.676 Y81.384 E1.87517
G1 X125.283 Y81.519 E1.90268
G1 X125.752 Y81.634 E1.92404
G1 X126.492 Y81.833 E1.95794
G1 X127.314 Y82.09 E1.99604
G1 X127.7 Y82.227 E2.01416
G1 X128.125 Y82.387 E2.03424
G1 X128.309 Y82.461 E2.04302
G1 X128.853 Y82.697 E2.06925
G1 X129.741 Y83.111 E2.11259
G1 X130.149 Y83.312 E2.13271
G1 X130.549 Y83.527 E2.1528
G1 X130.915 Y83.734 E2.1714
G1 X131.349 Y83.993 E2.19376
G1 X131.701 Y84.214 E2.21214
G1 X132.098 Y84.475 E2.23316
G1 X132.43 Y84.704 E2.251
G1 X132.8 Y84.971 E2.27118
G1 X132.974 Y85.102 E2.28082
G1 X133.427 Y85.462 E2.30641
G1 X134.165 Y86.081 E2.34902
G1 X134.469 Y86.345 E2.36683
G1 X134.846 Y86.699 E2.38971
G1 X135.144 Y86.992 E2.4082
G1 X135.47 Y87.327 E2.42888
G1 X135.754 Y87.631 E2.44728
G1 X136.093 Y88.011 E2.46981
G1 X136.35 Y88.313 E2.48735
G1 X136.648 Y88.678 E2.50819
G1 X136.786 Y88.855 E2.51812
G1 X137.122 Y89.309 E2.5431
G1 X137.699 Y90.133 E2.5876
G1 X138.178 Y90.88 E2.62686
G1 X138.297 Y91.083 E2.63727
G1 X138.564 Y91.566 E2.66168
G1 X139.029 Y92.459 E2.70622
G1 X139.406 Y93.261 E2.74542
G1 X139.49 Y93.46 E2.75497
G1 X139.689 Y93.966 E2.77903
G1 X139.992 Y94.796 E2.81811
G1 X140.29 Y95.741 E2.86194
G1 X140.453 Y96.354 E2.89
G1 X140.559 Y96.79 E2.90985
G1 X140.71 Y97.468 E2.94058
G1 X140.792 Y97.873 E2.95886
G1 X140.875 Y98.375 E2.98137
G1 X140.932 Y98.779 E2.99941
G1 X140.991 Y99.279 E3.02168
G1 X141.03 Y99.691 E3.03999
G1 X141.063 Y100.143 E3.06004
G1 X141.084 Y100.537 E3.07749
G1 X141.1 Y101.031 E3.09936
G1 X141.102 Y101.272 E3.11002
G1 X141.092 Y101.834 E3.13488
G1 X141.052 Y102.767 E3.17619
G1 X141.029 Y103.146 E3.19299
G1 X140.936 Y104.349 E3.24636
G1 X140.77 Y106.961 E3.36214
G1 X140.682 Y109.493 E3.47421
G1 X140.662 Y111.331 E3.55553
G1 X140.661 Y127.46 E4.26901
G1 X140.65 Y128.189 E4.30126
G1 X140.596 Y129.125 E4.34273
G1 X140.462 Y130.054 E4.38425
G1 X140.25 Y130.967 E4.42572
G1 X139.96 Y131.859 E4.46721
G1 X139.596 Y132.723 E4.50868
G1 X139.16 Y133.554 E4.55019
G1 X138.654 Y134.343 E4.59166
G1 X138.083 Y135.087 E4.63314
G1 X137.45 Y135.78 E4.67466
G1 X136.761 Y136.416 E4.71614
G1 X136.02 Y136.991 E4.75763
G1 X135.233 Y137.501 E4.79911
G1 X134.406 Y137.942 E4.84057
G1 X133.543 Y138.311 E4.88209
G1 X132.653 Y138.605 E4.92356
G1 X131.741 Y138.823 E4.96504
G1 X130.813 Y138.961 E5.00654
G1 X129.961 Y139.019 E5.04431
G1 X129.642 Y139.028 E5.05843
G1 X129.332 Y139.032 E5.07215
G1 X115.271 Y139.032 E5.69415
G1 X112.663 Y139.069 E5.80953
G1 X110.171 Y139.175 E5.91986
G1 X109.775 Y139.201 E5.93742
G1 X108.452 Y139.278 E5.99604
G1 X108.122 Y139.293 E6.01065
G1 X107.802 Y139.302 E6.02481
G1 X107.493 Y139.306 E6.03848
G1 X90.388 Y139.305 E6.79514
G1 X89.69 Y139.296 E6.82602
G1 X88.754 Y139.244 E6.86749
G1 X87.825 Y139.112 E6.909
G1 X86.911 Y138.902 E6.95048
G1 X86.018 Y138.615 E6.99198
G1 X85.153 Y138.252 E7.03347
G1 X84.322 Y137.818 E7.07494
G1 X83.531 Y137.314 E7.11643
G1 X82.786 Y136.744 E7.15793
G1 X82.092 Y136.113 E7.19942
G1 X81.455 Y135.426 E7.24086
G1 X80.878 Y134.686 E7.28237
G1 X80.366 Y133.9 E7.32387
G1 X79.923 Y133.073 E7.36537
G1 X79.552 Y132.212 E7.40684
G1 X79.256 Y131.322 E7.44833
G1 X79.037 Y130.41 E7.48982
G1 X78.896 Y129.483 E7.5313
G1 X78.836 Y128.594 E7.57072
G1 X78.827 Y128.261 E7.58545
G1 X78.823 Y127.964 E7.59859
G1 X78.823 Y116.549 E8.10355
G1 X78.786 Y113.941 E8.21893
G1 X78.679 Y111.419 E8.33059
G1 X78.502 Y108.924 E8.44124
G1 X78.253 Y106.407 E8.55312
G1 X78.009 Y104.425 E8.64146
G1 X77.96 Y103.988 E8.66091
G1 X77.911 Y103.418 E8.68622
G1 X77.851 Y102.413 E8.73075
G1 X77.832 Y101.932 E8.75205
G1 X77.832 Y101.519 E8.77032
G1 X77.836 Y101.286 E8.78063
G1 X77.863 Y100.68 E8.80746
G1 X77.929 Y99.769 E8.84786
G1 X78.034 Y98.852 E8.88869
G1 X78.173 Y97.97 E8.92819
G1 X78.371 Y96.999 E8.97203
G1 X78.58 Y96.168 E9.00993
G1 X78.846 Y95.273 E9.05124
G1 X79.149 Y94.392 E9.09245
G1 X79.298 Y93.986 E9.11158
G1 X79.504 Y93.479 E9.13579
G1 X79.673 Y93.093 E9.15443
G1 X79.846 Y92.719 E9.17266
G1 X79.961 Y92.481 E9.18435
G1 X80.245 Y91.933 E9.21165
G1 X80.708 Y91.098 E9.25389
G1 X80.945 Y90.691 E9.27472
G1 X81.185 Y90.31 E9.29464
G1 X81.442 Y89.921 E9.31527
G1 X81.755 Y89.473 E9.33944
G1 X81.874 Y89.311 E9.34833
G1 X82.174 Y88.921 E9.3701
G1 X82.776 Y88.174 E9.41254
G1 X83.408 Y87.456 E9.45485
G1 X83.992 Y86.848 E9.49214
G0 F6000 X84.28 Y87.125
G1 F1200 X84.967 Y86.472 E9.53407
G1 X85.645 Y85.882 E9.57383
G1 X86.347 Y85.321 E9.61358
G1 X87.035 Y84.818 E9.65128
G1 X87.829 Y84.29 E9.69346
G1 X88.679 Y83.779 E9.73733
G1 X89.401 Y83.383 E9.77376
G1 X89.653 Y83.257 E9.78622
G1 X90.139 Y83.029 E9.80997
G1 X90.956 Y82.671 E9.84943
G1 X91.814 Y82.339 E9.89013
G1 X92.701 Y82.039 E9.93155
G1 X93.088 Y81.916 E9.94951
G1 X93.584 Y81.778 E9.97228
G1 X93.984 Y81.677 E9.99053
G1 X94.434 Y81.573 E10.01097
G1 X94.884 Y81.48 E10.03129
G1 X95.376 Y81.391 E10.05341
G1 X95.585 Y81.358 E10.06277
G1 X96.095 Y81.29 E10.08553
G1 X97.155 Y81.175 E10.13269
G1 X97.995 Y81.117 E10.16994
G1 X98.449 Y81.104 E10.19003
G1 X98.903 Y81.101 E10.21012
G1 X99.324 Y81.107 E10.22874
G1 X99.773 Y81.123 E10.24862
G1 X100.02 Y81.137 E10.25956
G1 X100.568 Y81.182 E10.28388
G1 X101.343 Y81.266 E10.31837
G1 X103.903 Y81.508 E10.43212
G1 X106.426 Y81.675 E10.54397
G1 X108.958 Y81.77 E10.65605
G1 X111.508 Y81.795 E10.76886
G1 X114.023 Y81.747 E10.88013
G1 X116.532 Y81.629 E10.99124
G1 X118.318 Y81.488 E11.07049
G1 X119.248 Y81.424 E11.11173
G1 X119.822 Y81.394 E11.13716
G1 X120.298 Y81.38 E11.15822
G1 X120.712 Y81.377 E11.17654
G1 X121.182 Y81.384 E11.19733
G1 X121.613 Y81.4 E11.21641
G1 X122.063 Y81.427 E11.23635
G1 X122.276 Y81.444 E11.2458
G1 X122.81 Y81.5 E11.26955
G1 X123.665 Y81.612 E11.3077
G1 X124.589 Y81.775 E11.3492
G1 X125.196 Y81.91 E11.37671
G1 X125.648 Y82.021 E11.3973
G1 X126.388 Y82.22 E11.4312
G1 X127.18 Y82.467 E11.4679
G1 X127.566 Y82.604 E11.48602
G1 X127.976 Y82.759 E11.50541
G1 X128.16 Y82.833 E11.51418
G1 X128.684 Y83.06 E11.53944
G1 X129.572 Y83.474 E11.58278
G1 X129.966 Y83.668 E11.60221
G1 X130.352 Y83.875 E11.62158
G1 X130.718 Y84.082 E11.64018
G1 X131.136 Y84.332 E11.66173
G1 X131.488 Y84.553 E11.68011
G1 X131.871 Y84.804 E11.70037
G1 X132.203 Y85.033 E11.71821
G1 X132.56 Y85.291 E11.7377
G1 X132.734 Y85.422 E11.74733
G1 X133.17 Y85.769 E11.77198
G1 X133.908 Y86.388 E11.81459
G1 X134.202 Y86.643 E11.83181
G1 X134.566 Y86.985 E11.8539
G1 X134.864 Y87.278 E11.87239
G1 X135.178 Y87.6 E11.89228
G1 X135.462 Y87.904 E11.91069
G1 X135.789 Y88.27 E11.9324
G1 X136.046 Y88.572 E11.94994
G1 X136.332 Y88.924 E11.97
G1 X136.47 Y89.101 E11.97993
G1 X136.794 Y89.539 E12.00403
G1 X137.371 Y90.363 E12.04853
G1 X137.833 Y91.082 E12.08633
G1 X137.952 Y91.285 E12.09674
G1 X138.209 Y91.75 E12.12025
G1 X138.674 Y92.643 E12.16478
G1 X139.038 Y93.417 E12.20262
G1 X139.122 Y93.616 E12.21217
G1 X139.313 Y94.103 E12.23531
G1 X139.616 Y94.933 E12.2744
G1 X139.903 Y95.844 E12.31665
G1 X140.066 Y96.457 E12.34471
G1 X140.169 Y96.877 E12.36384
G1 X140.32 Y97.555 E12.39457
G1 X140.399 Y97.947 E12.41226
G1 X140.479 Y98.431 E12.43396
G1 X140.536 Y98.835 E12.45201
G1 X140.593 Y99.317 E12.47348
G1 X140.632 Y99.729 E12.49178
G1 X140.664 Y100.164 E12.51108
G1 X140.685 Y100.558 E12.52853
G1 X140.7 Y101.034 E12.5496
G1 X140.702 Y101.275 E12.56026
G1 X140.692 Y101.817 E12.58424
G1 X140.652 Y102.75 E12.62555
G1 X140.63 Y103.115 E12.64172
G1 X140.541 Y104.258 E12.69244
G1 X140.372 Y106.923 E12.81056
G1 X140.281 Y109.515 E12.92529
G1 X140.262 Y111.331 E13.00563
G1 X140.261 Y127.454 E13.71885
G1 X140.25 Y128.183 E13.7511
G1 X140.196 Y129.102 E13.79182
G1 X140.063 Y130.013 E13.83255
G1 X139.851 Y130.909 E13.87328
G1 X139.562 Y131.783 E13.914
G1 X139.198 Y132.629 E13.95474
G1 X138.762 Y133.44 E13.99547
G1 X138.258 Y134.21 E14.03618
G1 X137.689 Y134.934 E14.07692
G1 X137.059 Y135.605 E14.11763
G1 X136.373 Y136.219 E14.15836
G1 X135.636 Y136.771 E14.19909
G1 X134.855 Y137.258 E14.2398
G1 X134.034 Y137.675 E14.28054
G1 X133.18 Y138.018 E14.32125
G1 X132.299 Y138.287 E14.362
G1 X131.398 Y138.478 E14.40274
G1 X130.485 Y138.59 E14.44343
G1 X129.95 Y138.619 E14.46713
G1 X129.631 Y138.628 E14.48125
G1 X129.332 Y138.632 E14.49447
G1 X115.265 Y138.632 E15.11674
G1 X112.64 Y138.669 E15.23287
G1 X110.162 Y138.774 E15.34259
G1 X109.752 Y138.802 E15.36077
G1 X108.429 Y138.879 E15.41939
G1 X108.111 Y138.893 E15.43347
G1 X107.791 Y138.902 E15.44763
G1 X107.493 Y138.906 E15.46082
G1 X90.393 Y138.905 E16.21725
G1 X89.695 Y138.896 E16.24813
G1 X88.776 Y138.844 E16.28885
G1 X87.865 Y138.713 E16.32956
G1 X86.969 Y138.503 E16.37027
G1 X86.094 Y138.216 E16.41101
G1 X85.247 Y137.854 E16.45175
G1 X84.435 Y137.42 E16.49248
G1 X83.664 Y136.918 E16.53318
G1 X82.939 Y136.35 E16.57392
G1 X82.266 Y135.721 E16.61467
G1 X81.651 Y135.037 E16.65536
G1 X81.097 Y134.302 E16.69607
G1 X80.609 Y133.521 E16.73681
G1 X80.19 Y132.701 E16.77755
G1 X79.844 Y131.848 E16.81827
G1 X79.574 Y130.968 E16.85899
G1 X79.381 Y130.067 E16.89975
G1 X79.267 Y129.154 E16.94045
G1 X79.236 Y128.583 E16.96574
G1 X79.227 Y128.25 E16.98048
G1 X79.223 Y127.964 E16.99313
G1 X79.223 Y116.543 E17.49835
G1 X79.186 Y113.918 E17.61448
G1 X79.079 Y111.41 E17.72553
G1 X78.901 Y108.889 E17.83732
G1 X78.65 Y106.362 E17.94966
G1 X78.406 Y104.38 E18.03799
G1 X78.357 Y103.943 E18.05745
G1 X78.31 Y103.394 E18.08182
G1 X78.25 Y102.389 E18.12636
G1 X78.232 Y101.924 E18.14694
G1 X78.232 Y101.526 E18.16455
G1 X78.236 Y101.293 E18.17486
G1 X78.262 Y100.709 E18.20072
G1 X78.328 Y99.798 E18.24112
G1 X78.429 Y98.914 E18.28048
G1 X78.568 Y98.032 E18.31998
G1 X78.759 Y97.097 E18.36219
G1 X78.968 Y96.266 E18.4001
G1 X79.224 Y95.404 E18.43988
G1 X79.527 Y94.523 E18.48109
G1 X79.671 Y94.128 E18.49969
G1 X79.871 Y93.64 E18.52302
G1 X80.04 Y93.254 E18.54166
G1 X80.206 Y92.893 E18.55923
G1 X80.321 Y92.655 E18.57092
G1 X80.595 Y92.127 E18.59724
G1 X81.058 Y91.292 E18.63947
G1 X81.287 Y90.897 E18.65967
G1 X81.519 Y90.531 E18.67884
G1 X81.776 Y90.142 E18.69947
G1 X82.077 Y89.71 E18.72276
G1 X82.196 Y89.548 E18.73165
G1 X82.486 Y89.172 E18.75265
G1 X83.088 Y88.425 E18.79509
G1 X83.696 Y87.733 E18.83584
G1 X84.28 Y87.125 E18.87313
G0 F6000 X84.569 Y87.402
G1 F1200 X85.229 Y86.773 E18.91346
G1 X85.907 Y86.183 E18.95322
G1 X86.583 Y85.644 E18.99147
G1 X87.271 Y85.141 E19.02917
G1 X88.036 Y84.633 E19.06979
G1 X88.886 Y84.122 E19.11366
G1 X89.579 Y83.741 E19.14865
G1 X89.831 Y83.615 E19.16111
G1 X90.299 Y83.396 E19.18397
G1 X91.116 Y83.038 E19.22342
G1 X91.942 Y82.718 E19.26261
G1 X92.829 Y82.418 E19.30403
G1 X93.204 Y82.298 E19.32145
G1 X93.682 Y82.165 E19.3434
G1 X94.082 Y82.064 E19.36165
G1 X94.515 Y81.965 E19.38129
G1 X94.965 Y81.872 E19.40162
G1 X95.438 Y81.786 E19.42289
G1 X95.647 Y81.753 E19.43225
G1 X96.138 Y81.688 E19.45416
G1 X97.198 Y81.573 E19.50132
G1 X98.006 Y81.517 E19.53715
G1 X98.46 Y81.504 E19.55724
G1 X98.897 Y81.501 E19.57657
G1 X99.318 Y81.507 E19.5952
G1 X99.75 Y81.522 E19.61432
G1 X99.997 Y81.536 E19.62526
G1 X100.525 Y81.58 E19.6487
G1 X101.268 Y81.661 E19.68176
G1 X103.875 Y81.907 E19.7976
G1 X106.418 Y82.076 E19.91034
G1 X108.939 Y82.17 E20.02194
G1 X111.511 Y82.195 E20.13572
G1 X114.013 Y82.147 E20.24641
G1 X116.55 Y82.028 E20.35876
G1 X118.346 Y81.887 E20.43846
G1 X119.085 Y81.835 E20.47123
G1 X119.843 Y81.794 E20.50481
G1 X120.301 Y81.78 E20.52508
G1 X120.715 Y81.777 E20.54339
G1 X121.167 Y81.784 E20.56339
G1 X121.598 Y81.8 E20.58247
G1 X122.032 Y81.825 E20.6017
G1 X122.245 Y81.842 E20.61115
G1 X122.758 Y81.896 E20.63397
G1 X123.613 Y82.008 E20.67211
G1 X124.502 Y82.165 E20.71205
G1 X125.109 Y82.3 E20.73955
G1 X125.544 Y82.407 E20.75937
G1 X126.284 Y82.606 E20.79327
G1 X127.047 Y82.843 E20.82861
G1 X127.433 Y82.98 E20.84673
G1 X127.827 Y83.13 E20.86538
G1 X128.011 Y83.204 E20.87415
G1 X128.515 Y83.422 E20.89844
G1 X129.403 Y83.836 E20.94178
G1 X129.784 Y84.024 E20.96058
G1 X130.155 Y84.224 E20.97922
G1 X130.521 Y84.431 E20.99782
G1 X130.924 Y84.67 E21.01855
G1 X131.276 Y84.891 E21.03694
G1 X131.643 Y85.134 E21.05641
G1 X131.975 Y85.363 E21.07425
G1 X132.319 Y85.61 E21.09298
G1 X132.493 Y85.741 E21.10262
G1 X132.913 Y86.075 E21.12635
G1 X133.651 Y86.694 E21.16896
G1 X133.935 Y86.942 E21.18564
G1 X134.285 Y87.27 E21.20686
G1 X134.583 Y87.563 E21.22535
G1 X134.886 Y87.873 E21.24452
G1 X135.17 Y88.177 E21.26293
G1 X135.484 Y88.53 E21.28382
G1 X135.741 Y88.832 E21.30137
G1 X136.017 Y89.17 E21.32067
G1 X136.155 Y89.347 E21.3306
G1 X136.466 Y89.768 E21.35375
G1 X137.043 Y90.592 E21.39825
G1 X137.488 Y91.285 E21.43468
G1 X137.607 Y91.488 E21.44509
G1 X137.854 Y91.935 E21.46768
G1 X138.319 Y92.828 E21.51222
G1 X138.669 Y93.572 E21.54859
G1 X138.753 Y93.771 E21.55815
G1 X138.938 Y94.24 E21.58045
G1 X139.241 Y95.07 E21.61953
G1 X139.516 Y95.947 E21.66019
G1 X139.679 Y96.56 E21.68825
G1 X139.778 Y96.964 E21.70665
G1 X139.929 Y97.642 E21.73738
G1 X140.006 Y98.021 E21.75449
G1 X140.083 Y98.487 E21.77538
G1 X140.14 Y98.891 E21.79343
G1 X140.195 Y99.355 E21.8141
G1 X140.234 Y99.767 E21.8324
G1 X140.265 Y100.185 E21.85095
G1 X140.286 Y100.579 E21.8684
G1 X140.3 Y101.037 E21.88867
G1 X140.302 Y101.278 E21.89933
G1 X140.293 Y101.8 E21.92242
G1 X140.253 Y102.733 E21.96373
G1 X140.232 Y103.084 E21.97929
G1 X140.137 Y104.309 E22.03364
G1 X139.972 Y106.917 E22.14924
G1 X139.881 Y109.497 E22.26344
G1 X139.862 Y111.331 E22.34457
G1 X139.861 Y127.448 E23.05752
G1 X139.85 Y128.177 E23.08977
G1 X139.796 Y129.078 E23.1297
G1 X139.663 Y129.972 E23.16969
G1 X139.452 Y130.85 E23.20963
G1 X139.163 Y131.705 E23.24955
G1 X138.8 Y132.532 E23.28951
G1 X138.365 Y133.324 E23.32948
G1 X137.862 Y134.074 E23.36943
G1 X137.295 Y134.777 E23.40938
G1 X136.668 Y135.426 E23.4493
G1 X135.985 Y136.018 E23.48928
G1 X135.253 Y136.547 E23.52923
G1 X134.477 Y137.009 E23.56918
G1 X133.664 Y137.401 E23.60911
G1 X132.818 Y137.719 E23.64909
G1 X131.948 Y137.961 E23.68903
G1 X131.06 Y138.125 E23.72898
G1 X129.939 Y138.219 E23.77874
G1 X129.62 Y138.228 E23.79286
