;FLAVOR:Marlin
;TIME:3783
;Filament used: 3.10062m
;Layer height: 0.2
;MINX:89
;MINY:75.023
;MINZ:0.2
;MAXX:131
;MAXY:144.998
;MAXZ:15.4
;Generated with Cura_SteamEngine 4.11.0
M140 S60
M105
M190 S60
M104 S200
M105
M109 S200
M82 ;absolute extrusion mode
; Ender 3 Custom Start G-code
G92 E0 ; Reset Extruder
M92 E97;
G28 ; Home all axes
G1 Z2.0 F3000 ; Move Z Axis up little to prevent scratching of Heat Bed
G1 X0.1 Y20 Z0.3 F5000.0 ; Move to start position
G1 X0.1 Y200.0 Z0.3 F1500.0 E15 ; Draw the first line
G1 X0.4 Y200.0 Z0.3 F5000.0 ; Move to side a little
G1 X0.4 Y20 Z0.3 F1500.0 E30 ; Draw the second line
G92 E0 ; Reset Extruder
G1 Z2.0 F3000 ; Move Z Axis up little to prevent scratching of Heat Bed
G1 X5 Y20 Z0.3 F5000.0 ; Move over to prevent blob squish
G92 E0
G92 E0
G1 F1500 E-6.5
;LAYER_COUNT:78
;LAYER:0
M107
G0 F6000 X94.192 Y82.201 Z0.2
;TYPE:SKIRT
G1 F1500 E0
G1 F1200 X94.844 Y81.489 E0.04271
G1 X95.489 Y80.844 E0.08306
G1 X96.202 Y80.191 E0.12583
G1 X96.887 Y79.617 E0.16536
G1 X97.24 Y79.332 E0.18543
G1 X97.656 Y79.022 E0.20838
G1 X98.022 Y78.762 E0.22824
G1 X98.408 Y78.5 E0.24888
G1 X98.752 Y78.277 E0.26701
G1 X99.172 Y78.018 E0.28884
G1 X99.566 Y77.787 E0.30904
G1 X99.98 Y77.556 E0.33001
G1 X100.365 Y77.352 E0.34929
G1 X100.775 Y77.146 E0.36958
G1 X101.175 Y76.955 E0.38919
G1 X101.639 Y76.746 E0.4117
G1 X102.023 Y76.584 E0.43014
G1 X102.453 Y76.413 E0.45061
G1 X102.879 Y76.254 E0.47073
G1 X103.346 Y76.092 E0.49259
G1 X103.755 Y75.96 E0.5116
G1 X104.205 Y75.825 E0.53239
G1 X104.614 Y75.712 E0.55116
G1 X105.075 Y75.595 E0.5722
G1 X105.505 Y75.496 E0.59171
G1 X105.99 Y75.396 E0.61362
G1 X106.241 Y75.35 E0.62491
G1 X106.784 Y75.265 E0.64922
G1 X107.685 Y75.146 E0.68942
G1 X108.648 Y75.061 E0.73219
G1 X109.523 Y75.023 E0.77093
G1 X110.477 Y75.023 E0.81313
G1 X111.353 Y75.061 E0.85192
G1 X112.311 Y75.145 E0.89446
G1 X113.238 Y75.267 E0.93582
G1 X113.731 Y75.343 E0.95789
G1 X114.149 Y75.424 E0.97672
G1 X114.604 Y75.521 E0.9973
G1 X115.107 Y75.641 E1.02018
G1 X115.514 Y75.748 E1.03879
G1 X115.916 Y75.861 E1.05726
G1 X116.347 Y75.992 E1.07719
G1 X116.821 Y76.148 E1.09927
G1 X117.219 Y76.289 E1.11794
G1 X117.667 Y76.459 E1.13914
G1 X118.063 Y76.619 E1.15803
G1 X118.549 Y76.829 E1.18145
G1 X118.961 Y77.019 E1.20152
G1 X119.341 Y77.204 E1.22022
G1 X119.744 Y77.409 E1.24022
G1 X120.197 Y77.652 E1.26296
G1 X120.545 Y77.85 E1.28067
G1 X120.925 Y78.076 E1.30023
G1 X121.326 Y78.326 E1.32113
G1 X121.763 Y78.614 E1.34428
G1 X122.097 Y78.845 E1.36225
G1 X122.433 Y79.087 E1.38057
G1 X122.64 Y79.242 E1.39201
G1 X123.112 Y79.616 E1.41864
G1 X123.797 Y80.19 E1.45818
G1 X124.51 Y80.843 E1.50095
G1 X125.155 Y81.488 E1.5413
G1 X125.807 Y82.2 E1.584
G1 X126.382 Y82.886 E1.6236
G1 X126.668 Y83.24 E1.64373
G1 X126.978 Y83.656 E1.66668
G1 X127.238 Y84.022 E1.68654
G1 X127.5 Y84.408 E1.70718
G1 X127.723 Y84.752 E1.72531
G1 X127.982 Y85.172 E1.74714
G1 X128.213 Y85.566 E1.76734
G1 X128.444 Y85.98 E1.78832
G1 X128.648 Y86.365 E1.80759
G1 X128.856 Y86.779 E1.82809
G1 X129.043 Y87.171 E1.8473
G1 X129.244 Y87.618 E1.86898
G1 X129.41 Y88.01 E1.88781
G1 X129.587 Y88.453 E1.90891
G1 X129.746 Y88.879 E1.92903
G1 X129.903 Y89.331 E1.95019
G1 X130.035 Y89.738 E1.96912
G1 X130.178 Y90.216 E1.99119
G1 X130.291 Y90.627 E2.01005
G1 X130.405 Y91.075 E2.0305
G1 X130.504 Y91.505 E2.05002
G1 X130.604 Y91.99 E2.07192
G1 X130.65 Y92.241 E2.08321
G1 X130.735 Y92.779 E2.1073
G1 X130.854 Y93.677 E2.14737
G1 X130.939 Y94.645 E2.19036
G1 X130.985 Y95.704 E2.23725
G1 X130.994 Y96.051 E2.25261
G1 X131 Y96.605 E2.27711
G1 X130.999 Y133.361 E3.90305
G1 X130.989 Y134.077 E3.93473
G1 X130.936 Y135.013 E3.9762
G1 X130.803 Y135.941 E4.01767
G1 X130.592 Y136.855 E4.05916
G1 X130.304 Y137.748 E4.10067
G1 X129.94 Y138.612 E4.14214
G1 X129.505 Y139.443 E4.18364
G1 X129 Y140.233 E4.22511
G1 X128.43 Y140.978 E4.26661
G1 X127.798 Y141.671 E4.3081
G1 X127.11 Y142.308 E4.34957
G1 X126.37 Y142.884 E4.39105
G1 X125.583 Y143.395 E4.43256
G1 X124.756 Y143.837 E4.47404
G1 X123.894 Y144.207 E4.51554
G1 X123.004 Y144.502 E4.55702
G1 X122.092 Y144.72 E4.5985
G1 X121.164 Y144.86 E4.64001
G1 X120.249 Y144.92 E4.68057
G1 X119.272 Y144.943 E4.7238
G1 X119.044 Y144.946 E4.73389
G1 X100.739 Y144.998 E5.54363
G1 X99.883 Y144.989 E5.5815
G1 X98.947 Y144.939 E5.62297
G1 X98.018 Y144.808 E5.66447
G1 X97.104 Y144.599 E5.70594
G1 X96.21 Y144.313 E5.74746
G1 X95.345 Y143.952 E5.78893
G1 X94.513 Y143.519 E5.83042
G1 X93.721 Y143.016 E5.87192
G1 X92.975 Y142.447 E5.91342
G1 X92.281 Y141.818 E5.95486
G1 X91.642 Y141.131 E5.99636
G1 X91.064 Y140.392 E6.03786
G1 X90.551 Y139.607 E6.07935
G1 X90.107 Y138.781 E6.12083
G1 X89.735 Y137.92 E6.16232
G1 X89.438 Y137.03 E6.20382
G1 X89.217 Y136.119 E6.24529
G1 X89.075 Y135.192 E6.28678
G1 X89.014 Y134.318 E6.32553
G1 X89.002 Y133.856 E6.34598
G1 X89 Y133.638 E6.35562
G1 X89.001 Y96.475 E7.99956
G1 X89.006 Y96.051 E8.01832
G1 X89.015 Y95.702 E8.03376
G1 X89.061 Y94.646 E8.08052
G1 X89.145 Y93.691 E8.12293
G1 X89.267 Y92.763 E8.16433
G1 X89.343 Y92.269 E8.18644
G1 X89.424 Y91.851 E8.20528
G1 X89.521 Y91.396 E8.22586
G1 X89.635 Y90.914 E8.24777
G1 X89.744 Y90.496 E8.26688
G1 X89.873 Y90.042 E8.28775
G1 X90.002 Y89.622 E8.30719
G1 X90.151 Y89.172 E8.32816
G1 X90.293 Y88.772 E8.34693
G1 X90.458 Y88.335 E8.3676
G1 X90.617 Y87.941 E8.38639
G1 X90.829 Y87.451 E8.41001
G1 X91.019 Y87.039 E8.43008
G1 X91.204 Y86.659 E8.44878
G1 X91.409 Y86.256 E8.46878
G1 X91.656 Y85.797 E8.49183
G1 X91.856 Y85.446 E8.50971
G1 X92.077 Y85.075 E8.52881
G1 X92.325 Y84.677 E8.54955
G1 X92.614 Y84.237 E8.57284
G1 X92.845 Y83.903 E8.5908
G1 X93.087 Y83.567 E8.60912
G1 X93.242 Y83.36 E8.62056
G1 X93.617 Y82.887 E8.64726
G1 X94.192 Y82.201 E8.68686
G0 F6000 X94.498 Y82.458
G1 F1200 X95.127 Y81.772 E8.72803
G1 X95.772 Y81.127 E8.76838
G1 X96.459 Y80.497 E8.80961
G1 X97.144 Y79.923 E8.84915
G1 X97.487 Y79.647 E8.86862
G1 X97.887 Y79.349 E8.89069
G1 X98.253 Y79.089 E8.91055
G1 X98.626 Y78.835 E8.93051
G1 X98.97 Y78.612 E8.94864
G1 X99.375 Y78.363 E8.96967
G1 X99.769 Y78.132 E8.98988
G1 X100.167 Y77.91 E9.01004
G1 X100.552 Y77.706 E9.02931
G1 X100.947 Y77.507 E9.04888
G1 X101.347 Y77.316 E9.06849
G1 X101.795 Y77.115 E9.09021
G1 X102.179 Y76.953 E9.10864
G1 X102.592 Y76.788 E9.12832
G1 X103.018 Y76.629 E9.14843
G1 X103.469 Y76.472 E9.16955
G1 X103.878 Y76.34 E9.18857
G1 X104.311 Y76.211 E9.20855
G1 X104.72 Y76.098 E9.22732
G1 X105.165 Y75.985 E9.24763
G1 X105.595 Y75.886 E9.26715
G1 X106.062 Y75.79 E9.28824
G1 X106.313 Y75.744 E9.29953
G1 X106.836 Y75.661 E9.32296
G1 X107.737 Y75.542 E9.36316
G1 X108.665 Y75.461 E9.40436
G1 X109.54 Y75.423 E9.44311
G1 X110.459 Y75.423 E9.48376
G1 X111.335 Y75.461 E9.52255
G1 X112.259 Y75.542 E9.56358
G1 X113.186 Y75.664 E9.60494
G1 X113.663 Y75.737 E9.62629
G1 X114.065 Y75.815 E9.6444
G1 X114.52 Y75.912 E9.66498
G1 X115.005 Y76.027 E9.68703
G1 X115.412 Y76.134 E9.70564
G1 X115.8 Y76.244 E9.72348
G1 X116.231 Y76.375 E9.74341
G1 X116.688 Y76.525 E9.76469
G1 X117.086 Y76.666 E9.78337
G1 X117.517 Y76.83 E9.80377
G1 X117.913 Y76.99 E9.82266
G1 X118.381 Y77.192 E9.84521
G1 X118.793 Y77.382 E9.86528
G1 X119.16 Y77.56 E9.88332
G1 X119.563 Y77.765 E9.90332
G1 X119.999 Y78 E9.92523
G1 X120.347 Y78.198 E9.94294
G1 X120.713 Y78.416 E9.96179
G1 X121.114 Y78.666 E9.98269
G1 X121.536 Y78.943 E10.00502
G1 X121.87 Y79.174 E10.02299
G1 X122.193 Y79.407 E10.0406
G1 X122.4 Y79.562 E10.05204
G1 X122.855 Y79.922 E10.07771
G1 X123.54 Y80.496 E10.11724
G1 X124.227 Y81.126 E10.15848
G1 X124.872 Y81.771 E10.19883
G1 X125.501 Y82.457 E10.24
G1 X126.076 Y83.143 E10.27959
G1 X126.353 Y83.487 E10.29913
G1 X126.651 Y83.887 E10.3212
G1 X126.911 Y84.253 E10.34106
G1 X127.165 Y84.626 E10.36102
G1 X127.388 Y84.97 E10.37915
G1 X127.637 Y85.375 E10.40018
G1 X127.868 Y85.769 E10.42039
G1 X128.09 Y86.167 E10.44055
G1 X128.294 Y86.552 E10.45982
G1 X128.495 Y86.951 E10.47958
G1 X128.682 Y87.343 E10.4988
G1 X128.876 Y87.774 E10.5197
G1 X129.042 Y88.166 E10.53854
G1 X129.212 Y88.592 E10.55883
G1 X129.371 Y89.018 E10.57894
G1 X129.523 Y89.455 E10.59941
G1 X129.655 Y89.862 E10.61833
G1 X129.793 Y90.322 E10.63958
G1 X129.906 Y90.733 E10.65843
G1 X130.015 Y91.165 E10.67814
G1 X130.114 Y91.595 E10.69766
G1 X130.21 Y92.062 E10.71875
G1 X130.256 Y92.313 E10.73004
G1 X130.338 Y92.831 E10.75324
G1 X130.457 Y93.729 E10.79331
G1 X130.539 Y94.662 E10.83474
G1 X130.585 Y95.721 E10.88163
G1 X130.594 Y96.056 E10.89646
G1 X130.6 Y96.605 E10.92074
G1 X130.599 Y133.355 E12.54642
G1 X130.589 Y134.071 E12.57809
G1 X130.536 Y134.99 E12.61881
G1 X130.404 Y135.901 E12.65953
G1 X130.193 Y136.797 E12.70025
G1 X129.905 Y137.672 E12.741
G1 X129.542 Y138.518 E12.78172
G1 X129.107 Y139.33 E12.82247
G1 X128.604 Y140.1 E12.86316
G1 X128.035 Y140.825 E12.90393
G1 X127.406 Y141.497 E12.94465
G1 X126.721 Y142.112 E12.98537
G1 X125.985 Y142.665 E13.02609
G1 X125.204 Y143.152 E13.06681
G1 X124.384 Y143.57 E13.10752
G1 X123.53 Y143.914 E13.14825
G1 X122.65 Y144.184 E13.18897
G1 X121.749 Y144.376 E13.22972
G1 X120.836 Y144.489 E13.27041
G1 X120.239 Y144.52 E13.29686
G1 X119.262 Y144.543 E13.34009
G1 X119.043 Y144.546 E13.34978
G1 X100.738 Y144.598 E14.15952
G1 X99.888 Y144.589 E14.19712
G1 X98.968 Y144.539 E14.23788
G1 X98.057 Y144.409 E14.27859
G1 X97.16 Y144.2 E14.31933
G1 X96.285 Y143.914 E14.36005
G1 X95.438 Y143.554 E14.40076
G1 X94.625 Y143.121 E14.44151
G1 X93.853 Y142.619 E14.48224
G1 X93.128 Y142.053 E14.52293
G1 X92.454 Y141.425 E14.56368
G1 X91.837 Y140.742 E14.6044
G1 X91.282 Y140.007 E14.64514
G1 X90.793 Y139.227 E14.68586
G1 X90.374 Y138.408 E14.72656
G1 X90.027 Y137.555 E14.7673
G1 X89.755 Y136.675 E14.80804
G1 X89.56 Y135.776 E14.84873
G1 X89.445 Y134.862 E14.88948
G1 X89.414 Y134.306 E14.91412
G1 X89.402 Y133.852 E14.93421
G1 X89.4 Y133.634 E14.94385
G1 X89.401 Y96.48 E16.58739
G1 X89.406 Y96.056 E16.60615
G1 X89.415 Y95.72 E16.62102
G1 X89.461 Y94.664 E16.66778
G1 X89.541 Y93.743 E16.70867
G1 X89.663 Y92.815 E16.75008
G1 X89.737 Y92.337 E16.77147
G1 X89.815 Y91.935 E16.78959
G1 X89.912 Y91.48 E16.81017
G1 X90.022 Y91.015 E16.83131
G1 X90.131 Y90.597 E16.85041
G1 X90.255 Y90.16 E16.87051
G1 X90.384 Y89.74 E16.88994
G1 X90.528 Y89.306 E16.91017
G1 X90.67 Y88.906 E16.92895
G1 X90.829 Y88.485 E16.94886
G1 X90.988 Y88.091 E16.96765
G1 X91.192 Y87.619 E16.9904
G1 X91.382 Y87.207 E17.01047
G1 X91.56 Y86.84 E17.02851
G1 X91.765 Y86.437 E17.04851
G1 X92.003 Y85.995 E17.07072
G1 X92.203 Y85.644 E17.08859
G1 X92.417 Y85.286 E17.10704
G1 X92.665 Y84.888 E17.12778
G1 X92.943 Y84.464 E17.15021
G1 X93.174 Y84.13 E17.16817
G1 X93.407 Y83.807 E17.18579
G1 X93.562 Y83.6 E17.19723
G1 X93.923 Y83.144 E17.22296
G1 X94.498 Y82.458 E17.26256
G0 F6000 X94.805 Y82.715
G1 F1200 X95.41 Y82.055 E17.30216
G1 X96.055 Y81.41 E17.34251
G1 X96.716 Y80.804 E17.38218
G1 X97.401 Y80.23 E17.42171
G1 X97.734 Y79.962 E17.44062
G1 X98.119 Y79.675 E17.46187
G1 X98.485 Y79.415 E17.48172
G1 X98.844 Y79.171 E17.50093
G1 X99.188 Y78.948 E17.51906
G1 X99.577 Y78.708 E17.53928
G1 X99.971 Y78.477 E17.55948
G1 X100.354 Y78.263 E17.57889
G1 X100.739 Y78.059 E17.59817
G1 X101.12 Y77.868 E17.61702
G1 X101.52 Y77.677 E17.63663
G1 X101.95 Y77.483 E17.65749
G1 X102.334 Y77.321 E17.67593
G1 X102.732 Y77.163 E17.69487
G1 X103.158 Y77.004 E17.71499
G1 X103.592 Y76.853 E17.73532
G1 X104.001 Y76.721 E17.75433
G1 X104.418 Y76.596 E17.77358
G1 X104.827 Y76.483 E17.79235
G1 X105.254 Y76.375 E17.81184
G1 X105.684 Y76.276 E17.83136
G1 X106.134 Y76.183 E17.85168
G1 X106.385 Y76.137 E17.86297
G1 X106.888 Y76.058 E17.8855
G1 X107.789 Y75.939 E17.9257
G1 X108.682 Y75.861 E17.96535
G1 X109.557 Y75.823 E18.00409
G1 X110.442 Y75.823 E18.04324
G1 X111.318 Y75.861 E18.08203
G1 X112.207 Y75.938 E18.1215
G1 X113.134 Y76.06 E18.16286
G1 X113.595 Y76.131 E18.1835
G1 X113.982 Y76.206 E18.20093
G1 X114.437 Y76.303 E18.22151
G1 X114.903 Y76.414 E18.24271
G1 X115.31 Y76.521 E18.26132
G1 X115.683 Y76.627 E18.27847
G1 X116.114 Y76.758 E18.2984
G1 X116.554 Y76.903 E18.31889
G1 X116.952 Y77.044 E18.33757
G1 X117.367 Y77.201 E18.3572
G1 X117.763 Y77.361 E18.37609
G1 X118.214 Y77.555 E18.39781
G1 X118.626 Y77.745 E18.41788
G1 X118.979 Y77.917 E18.43525
G1 X119.382 Y78.122 E18.45525
G1 X119.801 Y78.348 E18.47631
G1 X120.149 Y78.546 E18.49402
G1 X120.501 Y78.755 E18.51213
G1 X120.902 Y79.005 E18.53304
G1 X121.308 Y79.272 E18.55453
G1 X121.642 Y79.503 E18.5725
G1 X121.954 Y79.727 E18.58949
G1 X122.161 Y79.882 E18.60093
G1 X122.598 Y80.229 E18.62561
G1 X123.283 Y80.803 E18.66514
G1 X123.944 Y81.409 E18.70481
G1 X124.589 Y82.054 E18.74516
G1 X125.194 Y82.714 E18.78477
G1 X125.769 Y83.4 E18.82436
G1 X126.038 Y83.734 E18.84334
G1 X126.325 Y84.119 E18.86458
G1 X126.585 Y84.485 E18.88444
G1 X126.829 Y84.844 E18.90364
G1 X127.052 Y85.188 E18.92177
G1 X127.292 Y85.577 E18.94199
G1 X127.523 Y85.971 E18.9622
G1 X127.737 Y86.354 E18.9816
G1 X127.941 Y86.739 E19.00088
G1 X128.134 Y87.123 E19.01989
G1 X128.321 Y87.515 E19.0391
G1 X128.508 Y87.93 E19.05924
G1 X128.674 Y88.322 E19.07807
G1 X128.837 Y88.732 E19.09759
G1 X128.996 Y89.158 E19.1177
G1 X129.142 Y89.578 E19.13737
G1 X129.274 Y89.985 E19.1563
G1 X129.407 Y90.428 E19.17676
G1 X129.52 Y90.839 E19.19561
G1 X129.625 Y91.254 E19.21455
G1 X129.724 Y91.684 E19.23407
G1 X129.817 Y92.134 E19.2544
G1 X129.863 Y92.385 E19.26568
G1 X129.942 Y92.884 E19.28803
G1 X130.061 Y93.782 E19.3281
G1 X130.139 Y94.679 E19.36793
G1 X130.185 Y95.738 E19.41482
G1 X130.194 Y96.061 E19.42912
G1 X130.2 Y96.605 E19.45318
G1 X130.199 Y133.349 E21.07859
G1 X130.189 Y134.065 E21.11027
G1 X130.136 Y134.967 E21.15024
G1 X130.004 Y135.86 E21.19017
G1 X129.794 Y136.739 E21.23015
G1 X129.506 Y137.595 E21.2701
G1 X129.144 Y138.422 E21.31003
G1 X128.71 Y139.214 E21.34998
G1 X128.208 Y139.965 E21.38994
G1 X127.641 Y140.668 E21.42989
G1 X127.015 Y141.318 E21.46981
G1 X126.333 Y141.911 E21.50979
G1 X125.602 Y142.44 E21.54971
G1 X124.826 Y142.903 E21.58968
G1 X124.013 Y143.296 E21.62963
G1 X123.168 Y143.615 E21.66958
G1 X122.298 Y143.858 E21.70954
G1 X121.411 Y144.024 E21.74946
G1 X120.23 Y144.12 E21.80187
G1 X119.253 Y144.143 E21.8451
G1 X119.042 Y144.146 E21.85444
G1 X100.591 Y144.197 E22.67064
G1 X99.892 Y144.189 E22.70156
G1 X98.991 Y144.139 E22.74148
G1 X98.097 Y144.009 E22.78144
G1 X97.218 Y143.801 E22.8214
G1 X96.361 Y143.515 E22.86137
G1 X95.533 Y143.155 E22.90131
G1 X94.74 Y142.724 E22.94123
G1 X93.988 Y142.223 E22.9812
G1 X93.283 Y141.658 E23.02117
G1 X92.631 Y141.033 E23.06112
G1 X92.037 Y140.353 E23.10106
G1 X91.506 Y139.623 E23.14099
G1 X91.041 Y138.849 E23.18094
G1 X90.646 Y138.037 E23.22088
G1 X90.325 Y137.193 E23.26082
G1 X90.08 Y136.324 E23.30076
G1 X89.912 Y135.436 E23.34074
G1 X89.814 Y134.294 E23.39145
G1 X89.802 Y133.849 E23.41114
G1 X89.8 Y133.631 E23.42078
G1 X89.801 Y96.485 E25.06397
G1 X89.806 Y96.061 E25.08273
G1 X89.815 Y95.737 E25.09707
G1 X89.861 Y94.681 E25.14382
G1 X89.938 Y93.795 E25.18317
G1 X90.06 Y92.867 E25.22457
G1 X90.131 Y92.405 E25.24525
G1 X90.206 Y92.018 E25.26268
G1 X90.303 Y91.563 E25.28326
G1 X90.409 Y91.116 E25.30359
G1 X90.518 Y90.698 E25.32269
G1 X90.638 Y90.277 E25.34206
G1 X90.767 Y89.857 E25.3615
G1 X90.905 Y89.44 E25.38093
G1 X91.047 Y89.04 E25.3997
G1 X91.2 Y88.635 E25.41885
G1 X91.359 Y88.241 E25.43765
G1 X91.555 Y87.786 E25.45956
G1 X91.745 Y87.374 E25.47963
G1 X91.917 Y87.021 E25.497
G1 X92.122 Y86.618 E25.517
G1 X92.351 Y86.193 E25.53836
G1 X92.551 Y85.842 E25.55623
G1 X92.756 Y85.498 E25.57395
G1 X93.004 Y85.1 E25.59469
G1 X93.272 Y84.692 E25.61628
G1 X93.503 Y84.358 E25.63425
G1 X93.727 Y84.046 E25.65124
G1 X93.882 Y83.839 E25.66268
G1 X94.23 Y83.401 E25.68742
G1 X94.805 Y82.715 E25.72702
G1 F1500 E19.22702
;MESH:base.stl
G0 F6000 X99.346 Y95.536
G0 X100.419 Y96.01
G0 X100.6 Y133.398
;TYPE:WALL-INNER
G1 F1500 E25.72702
G1 F1200 X100.6 Y133.198 E25.73587
G1 X100.6 Y96.014 E27.38074
G1 X100.61 Y95.586 E27.39968
G1 X100.635 Y95.194 E27.41705
G1 X100.682 Y94.769 E27.43597
G1 X100.742 Y94.372 E27.45373
G1 X100.823 Y93.962 E27.47221
G1 X100.917 Y93.58 E27.48962
G1 X101.034 Y93.177 E27.50818
G1 X101.162 Y92.797 E27.52592
